<?xml version="1.0" encoding="UTF-8"?>
<map version="1.10" tiledversion="1.11.2" orientation="orthogonal" renderorder="right-down" width="49" height="80" tilewidth="32" tileheight="32" infinite="0" nextlayerid="14" nextobjectid="1">
 <tileset firstgid="1" name="map" tilewidth="32" tileheight="32" tilecount="768" columns="32">
  <image source="../environments/map (1).png" width="1024" height="768"/>
 </tileset>
 <tileset firstgid="769" name="tiles map" tilewidth="32" tileheight="32" tilecount="768" columns="32">
  <image source="../environments/tiles map.png" width="1024" height="768"/>
 </tileset>
 <tileset firstgid="1537" name="map12 - JELO EDIT" tilewidth="32" tileheight="32" tilecount="768" columns="32">
  <image source="../environments/map12 - JELO EDIT.png" width="1024" height="768"/>
 </tileset>
 <tileset firstgid="2305" name="collision" tilewidth="32" tileheight="32" tilecount="768" columns="32">
  <image source="../environments/collision.png" width="1024" height="768"/>
 </tileset>
 <tileset firstgid="3073" name="Sample Tunnel" tilewidth="32" tileheight="32" tilecount="768" columns="32">
  <image source="../environments/Sample Tunnel.png" width="1024" height="768"/>
 </tileset>
 <tileset firstgid="3841" name="Jfloor" tilewidth="32" tileheight="32" tilecount="768" columns="32">
  <image source="../environments/Jfloor.png" width="1024" height="768"/>
 </tileset>
 <tileset firstgid="4609" name="door" tilewidth="32" tileheight="32" tilecount="8" columns="2">
  <image source="../sprites/closed_door.png" width="64" height="128"/>
 </tileset>
 <tileset firstgid="4617" name="q1_decos" tilewidth="32" tileheight="32" tilecount="500" columns="20">
  <image source="../environments/q1_decos.png" width="640" height="800"/>
 </tileset>
 <tileset firstgid="5117" name="q2_decos" tilewidth="32" tileheight="32" tilecount="500" columns="20">
  <image source="../environments/q2_decos.png" width="640" height="800"/>
 </tileset>
 <tileset firstgid="5617" name="q3_decos" tilewidth="32" tileheight="32" tilecount="500" columns="20">
  <image source="../environments/q3_decos.png" width="640" height="800"/>
 </tileset>
 <layer id="1" name="Base Layer" width="49" height="80" visible="0" opacity="0.34">
  <data encoding="csv">
2305,771,771,2305,771,771,2305,773,773,2305,771,771,2305,2305,2305,2305,771,771,2305,771,771,2305,771,771,2305,771,771,2305,771,771,2305,771,771,2305,2305,2305,2305,2305,2305,2305,771,771,2305,771,771,2305,2305,2305,2305,
2305,771,771,2305,771,771,2305,773,773,2305,771,771,2305,771,771,771,771,771,771,771,771,771,771,771,2305,771,771,771,771,771,2305,771,771,771,771,771,771,771,771,771,771,771,2305,771,771,771,771,771,2305,
2305,771,771,2305,771,771,2305,773,773,2305,771,771,2305,771,771,771,771,771,771,771,771,771,771,771,2305,771,771,771,771,771,2305,771,771,771,771,771,771,771,771,771,771,771,2305,771,771,771,771,771,2305,
2305,771,771,2305,771,771,2305,773,773,2305,2305,2305,2305,771,771,2305,771,771,2305,771,771,2305,771,771,2305,771,771,2305,2305,2305,2305,771,771,2305,2305,2305,2305,2305,2305,2305,771,771,2305,2305,2305,2305,771,771,2305,
2305,771,771,771,771,771,2305,773,773,771,771,771,2305,771,771,771,771,771,771,771,771,771,771,771,771,771,771,771,771,771,771,771,771,771,771,771,771,771,771,771,771,771,771,771,771,771,771,771,2305,
2305,771,771,771,771,771,2305,773,773,771,771,771,2305,771,771,771,771,771,771,771,771,771,771,771,771,771,771,771,771,771,771,771,771,771,771,771,771,771,771,771,771,771,771,771,771,771,771,771,2305,
2305,2305,2305,2305,771,771,2305,773,773,2305,2305,2305,2305,771,771,2305,771,771,2305,771,771,2305,771,771,2305,2305,2305,2305,2305,2305,2305,2305,2305,2305,2305,2305,2305,771,771,2305,2305,2305,2305,771,771,2305,771,771,2305,
2305,771,771,771,771,771,2305,773,773,2305,771,771,771,771,771,771,771,771,771,771,771,771,771,771,771,771,771,771,771,771,771,771,771,2305,771,771,771,771,771,771,771,771,2305,771,771,771,771,771,2305,
2305,771,771,771,771,771,2305,773,773,2305,771,771,771,771,771,771,771,771,771,771,771,771,771,771,771,771,771,771,771,771,771,771,771,2305,771,771,771,771,771,771,771,771,2305,771,771,771,771,771,2305,
2305,2305,2305,2305,771,771,2305,773,773,2305,2305,2305,2305,771,771,2305,771,771,2305,771,771,2305,771,771,2305,771,771,2305,771,771,2305,771,771,2305,771,771,2305,2305,2305,2305,2305,2305,2305,2305,2305,2305,2305,2305,2305,
2305,771,771,771,771,771,2305,773,773,773,773,773,771,771,771,771,771,771,771,771,771,771,771,771,771,771,771,771,771,771,771,771,771,771,771,771,771,771,771,771,771,771,771,771,771,2305,771,771,2305,
2305,771,771,771,771,771,2305,773,773,773,773,773,771,771,771,771,771,771,771,771,771,771,771,771,771,771,771,771,771,771,771,771,771,771,771,771,771,771,771,771,771,771,771,771,771,2305,771,771,2305,
2305,771,771,2305,2305,2305,2305,2305,2305,2305,773,773,2305,2305,2305,2305,771,771,2305,771,771,2305,771,771,2305,771,771,2305,771,771,2305,771,771,2305,771,771,2305,771,771,2305,771,771,2305,771,771,2305,771,771,2305,
2305,771,771,771,771,771,771,771,771,2305,773,773,773,773,773,2305,771,771,771,771,771,771,771,771,771,771,771,771,771,771,771,771,771,771,771,771,771,771,771,2305,771,771,771,771,771,771,771,771,2305,
2305,771,771,771,771,771,771,771,771,2305,773,773,773,773,773,2305,771,771,771,771,771,771,771,771,771,771,771,771,771,771,771,771,771,771,771,771,771,771,771,2305,771,771,771,771,771,771,771,771,2305,
2305,2305,2305,2305,771,771,2305,2305,2305,2305,2305,2305,2305,773,773,2305,2305,2305,2305,2305,2305,2305,2305,2305,2305,771,771,2305,2305,2305,2305,771,771,2305,771,771,2305,771,771,2305,2305,2305,2305,771,771,2305,771,771,2305,
2305,771,771,771,771,771,771,771,771,771,771,771,771,773,773,2305,771,771,771,771,771,771,771,771,771,771,771,2305,771,771,2305,771,771,771,771,771,771,771,771,771,771,771,771,771,771,771,771,771,2305,
2305,771,771,771,771,771,771,771,771,771,771,771,771,773,773,2305,771,771,771,771,771,771,771,771,771,771,771,2305,771,771,2305,771,771,771,771,771,771,771,771,771,771,771,771,771,771,771,771,771,2305,
2305,2305,2305,2305,2305,2305,2305,771,771,2305,771,771,2305,773,773,2305,2305,2305,2305,771,771,2305,771,771,2305,2305,2305,2305,771,771,2305,771,771,2305,771,771,2305,771,771,2305,771,771,2305,2305,2305,2305,2305,2305,2305,
2305,771,771,771,771,771,771,771,771,771,771,771,2305,773,773,771,771,771,771,771,771,771,771,771,771,771,771,2305,771,771,771,771,771,771,771,771,771,771,771,771,771,771,2305,771,771,2305,771,771,2305,
2305,771,771,771,771,771,771,771,771,771,771,771,2305,773,773,771,771,771,771,771,771,771,771,771,771,771,771,2305,771,771,771,771,771,771,771,771,771,771,771,771,771,771,2305,771,771,2305,771,771,2305,
2305,771,771,2305,771,771,2305,771,771,2305,771,771,2305,773,773,2305,2305,2305,2305,771,771,2305,771,771,2305,2305,2305,2305,2305,2305,2305,771,771,2305,771,771,2305,771,771,2305,2305,2305,2305,771,771,2305,771,771,2305,
2305,771,771,2305,771,771,2305,771,771,771,771,771,2305,773,773,773,773,773,771,771,771,2305,771,771,771,771,771,2305,771,771,771,771,771,771,771,771,771,771,771,771,771,771,2305,771,771,2305,771,771,2305,
2305,771,771,2305,771,771,2305,771,771,771,771,771,2305,773,773,773,773,773,771,771,771,2305,771,771,771,771,771,2305,771,771,771,771,771,771,771,771,771,771,771,771,771,771,2305,771,771,2305,771,771,2305,
2305,2305,2305,2305,2305,2305,2305,2305,2305,2305,2305,2305,2305,771,771,2305,773,773,2305,2305,2305,2305,771,771,2305,2305,2305,2305,2305,2305,2305,2305,2305,2305,771,771,2305,771,771,2305,2305,2305,2305,771,771,2305,771,771,2305,
2305,771,771,771,771,771,771,771,771,771,771,771,771,771,771,2305,773,773,771,771,771,2305,771,771,771,771,771,771,771,771,771,771,771,2305,771,771,2305,771,771,771,771,771,771,771,771,771,771,771,2305,
2305,771,771,771,771,771,771,771,771,771,771,771,771,771,771,2305,773,773,771,771,771,2305,771,771,771,771,771,771,771,771,771,771,771,2305,771,771,2305,771,771,771,771,771,771,771,771,771,771,771,2305,
2305,771,771,2305,771,771,2305,2305,2305,2305,771,771,2305,2305,2305,2305,773,773,2305,771,771,2305,2305,2305,2305,771,771,2305,771,771,2305,771,771,2305,771,771,2305,2305,2305,2305,771,771,2305,771,771,2305,771,771,2305,
2305,771,771,2305,771,771,771,771,771,2305,771,771,2305,771,771,771,773,773,2305,771,771,2305,771,771,771,771,771,771,771,771,771,771,771,2305,771,771,2305,771,771,771,771,771,2305,771,771,2305,771,771,2305,
2305,771,771,2305,771,771,771,771,771,2305,771,771,2305,771,771,771,773,773,2305,771,771,2305,771,771,771,771,771,771,771,771,771,771,771,2305,771,771,2305,771,771,771,771,771,2305,771,771,2305,771,771,2305,
2305,2305,2305,2305,2305,2305,2305,2305,2305,2305,771,771,2305,771,771,2305,773,773,2305,771,771,2305,2305,2305,2305,771,771,2305,771,771,2305,771,771,2305,771,771,2305,2305,2305,2305,771,771,2305,771,771,2305,771,771,2305,
2305,771,771,771,771,771,771,771,771,771,771,771,771,771,771,2305,773,773,2305,771,771,771,771,771,771,771,771,771,771,771,771,771,771,771,771,771,771,771,771,2305,771,771,771,771,771,2305,771,771,2305,
2305,771,771,771,771,771,771,771,771,771,771,771,771,771,771,2305,773,773,2305,771,771,771,771,771,771,771,771,771,771,771,771,771,771,771,771,771,771,771,771,2305,771,771,771,771,771,2305,771,771,2305,
2305,2305,2305,2305,2305,2305,2305,771,771,2305,2305,2305,2305,2305,2305,2305,773,773,2305,2305,2305,2305,771,771,2305,771,771,2305,771,771,2305,771,771,2305,771,771,2305,771,771,2305,771,771,2305,771,771,2305,771,771,2305,
2305,771,771,771,771,771,2305,771,771,771,771,771,771,771,771,771,773,773,771,771,771,2305,771,771,771,771,771,771,771,771,771,771,771,771,771,771,771,771,771,2305,771,771,771,771,771,771,771,771,2305,
2305,771,771,771,771,771,2305,771,771,771,771,771,771,771,771,771,773,773,771,771,771,2305,771,771,771,771,771,771,771,771,771,771,771,771,771,771,771,771,771,2305,771,771,771,771,771,771,771,771,2305,
2305,2305,2305,2305,771,771,2305,771,771,2305,771,771,2305,2305,2305,2305,773,773,2305,2305,2305,2305,2305,2305,2305,771,771,2305,771,771,2305,771,771,2305,771,771,2305,771,771,2305,2305,2305,2305,771,771,2305,2305,2305,2305,
2305,771,771,771,771,771,771,771,771,2305,771,771,771,771,771,2305,773,773,773,773,773,771,771,771,2305,771,771,2305,771,771,2305,771,771,771,771,771,2305,771,771,771,771,771,2305,771,771,771,771,771,2305,
2305,771,771,771,771,771,771,771,771,2305,771,771,771,771,771,2305,773,773,773,773,773,771,771,771,2305,771,771,2305,771,771,2305,771,771,771,771,771,2305,771,771,771,771,771,2305,771,771,771,771,771,2305,
2305,771,771,2305,771,771,2305,771,771,2305,2305,2305,2305,771,771,2305,2305,2305,2305,773,773,2305,2305,2305,2305,2305,2305,2305,2305,2305,2305,771,771,2305,2305,2305,2305,771,771,2305,2305,2305,2305,2305,2305,2305,771,771,2305,
2305,771,771,2305,771,771,2305,771,771,2305,771,771,771,771,771,771,773,773,773,773,773,2305,771,771,771,771,771,771,771,771,771,771,771,2305,771,771,771,771,771,771,771,771,771,771,771,771,771,771,2305,
2305,771,771,2305,771,771,2305,771,771,2305,771,771,771,771,771,771,773,773,773,773,773,2305,771,771,771,771,771,771,771,771,771,771,771,2305,771,771,771,771,771,771,771,771,771,771,771,771,771,771,2305,
2305,771,771,2305,2305,2305,2305,2305,2305,2305,2305,2305,2305,2305,2305,2305,773,773,2305,771,771,2305,771,771,2305,771,771,2305,2305,2305,2305,771,771,2305,771,771,2305,2305,2305,2305,771,771,2305,771,771,2305,771,771,2305,
2305,771,771,2305,771,771,771,771,771,2305,771,771,771,771,771,771,773,773,2305,771,771,2305,771,771,2305,771,771,771,771,771,771,771,771,2305,771,771,2305,771,771,2305,771,771,2305,771,771,2305,771,771,2305,
2305,771,771,2305,771,771,771,771,771,2305,771,771,771,771,771,771,773,773,2305,771,771,2305,771,771,2305,771,771,771,771,771,771,771,771,2305,771,771,2305,771,771,2305,771,771,2305,771,771,2305,771,771,2305,
2305,2305,2305,2305,2305,2305,2305,771,771,2305,2305,2305,2305,2305,2305,2305,773,773,2305,771,771,2305,771,771,2305,2305,2305,2305,771,771,2305,2305,2305,2305,771,771,2305,771,771,2305,2305,2305,2305,771,771,2305,771,771,2305,
2305,771,771,771,771,771,771,771,771,771,771,771,771,771,771,2305,773,773,2305,771,771,771,771,771,771,771,771,2305,771,771,771,771,771,2305,771,771,771,771,771,2305,771,771,2305,771,771,771,771,771,2305,
2305,771,771,771,771,771,771,771,771,771,771,771,771,771,771,2305,773,773,2305,771,771,771,771,771,771,771,771,2305,771,771,771,771,771,2305,771,771,771,771,771,2305,771,771,2305,771,771,771,771,771,2305,
2305,771,771,2305,2305,2305,2305,771,771,2305,2305,2305,2305,771,771,2305,773,773,2305,771,771,2305,771,771,2305,2305,2305,2305,2305,2305,2305,2305,2305,2305,2305,2305,2305,771,771,2305,771,771,2305,771,771,2305,771,771,2305,
2305,771,771,771,771,771,771,771,771,771,771,771,2305,771,771,771,773,773,2305,771,771,2305,771,771,771,771,771,2305,771,771,2305,771,771,771,771,771,771,771,771,771,771,771,771,771,771,2305,771,771,2305,
2305,771,771,771,771,771,771,771,771,771,771,771,2305,771,771,771,773,773,2305,771,771,2305,771,771,771,771,771,2305,771,771,2305,771,771,771,771,771,771,771,771,771,771,771,771,771,771,2305,771,771,2305,
2305,771,771,2305,2305,2305,2305,771,771,2305,2305,2305,2305,771,771,2305,773,773,2305,2305,2305,2305,771,771,2305,2305,2305,2305,771,771,2305,771,771,2305,771,771,2305,2305,2305,2305,2305,2305,2305,2305,2305,2305,2305,2305,2305,
2305,771,771,771,771,771,2305,771,771,771,771,771,2305,771,771,2305,773,773,773,773,773,2305,771,771,2305,771,771,771,771,771,771,771,771,771,771,771,771,771,771,771,771,771,771,771,771,771,771,771,2305,
2305,771,771,771,771,771,2305,771,771,771,771,771,2305,771,771,2305,773,773,773,773,773,2305,771,771,2305,771,771,771,771,771,771,771,771,771,771,771,771,771,771,771,771,771,771,771,771,771,771,771,2305,
2305,771,771,2305,771,771,2305,771,771,2305,771,771,2305,2305,2305,2305,2305,2305,2305,773,773,2305,2305,2305,2305,2305,2305,2305,771,771,2305,2305,2305,2305,771,771,2305,2305,2305,2305,771,771,2305,2305,2305,2305,2305,2305,2305,
2305,771,771,771,771,771,771,771,771,2305,771,771,771,771,771,2305,771,771,771,773,773,773,773,773,2305,771,771,771,771,771,771,771,771,771,771,771,2305,771,771,2305,771,771,771,771,771,771,771,771,2305,
2305,771,771,771,771,771,771,771,771,2305,771,771,771,771,771,2305,771,771,771,773,773,773,773,773,2305,771,771,771,771,771,771,771,771,771,771,771,2305,771,771,2305,771,771,771,771,771,771,771,771,2305,
2305,2305,2305,2305,771,771,2305,771,771,2305,771,771,2305,2305,2305,2305,771,771,2305,2305,2305,2305,773,773,2305,771,771,2305,771,771,2305,2305,2305,2305,771,771,2305,771,771,2305,771,771,2305,2305,2305,2305,2305,2305,2305,
2305,771,771,2305,771,771,2305,771,771,2305,771,771,771,771,771,771,771,771,2305,771,771,771,773,773,771,771,771,771,771,771,2305,771,771,2305,771,771,771,771,771,771,771,771,2305,771,771,2305,771,771,2305,
2305,771,771,2305,771,771,2305,771,771,2305,771,771,771,771,771,771,771,771,2305,771,771,771,773,773,771,771,771,771,771,771,2305,771,771,2305,771,771,771,771,771,771,771,771,2305,771,771,2305,771,771,2305,
2305,771,771,2305,771,771,2305,771,771,2305,2305,2305,2305,771,771,2305,2305,2305,2305,771,771,2305,773,773,2305,771,771,2305,771,771,2305,771,771,2305,771,771,2305,2305,2305,2305,771,771,2305,771,771,2305,771,771,2305,
2305,771,771,771,771,771,771,771,771,2305,771,771,771,771,771,2305,771,771,771,771,771,771,773,773,771,771,771,2305,771,771,2305,771,771,771,771,771,771,771,771,771,771,771,771,771,771,771,771,771,2305,
2305,771,771,771,771,771,771,771,771,2305,771,771,771,771,771,2305,771,771,771,771,771,771,773,773,771,771,771,2305,771,771,2305,771,771,771,771,771,771,771,771,771,771,771,771,771,771,771,771,771,2305,
2305,771,771,2305,2305,2305,2305,771,771,2305,771,771,2305,771,771,2305,771,771,2305,771,771,2305,773,773,2305,771,771,2305,771,771,2305,2305,2305,2305,2305,2305,2305,771,771,2305,2305,2305,2305,771,771,2305,2305,2305,2305,
2305,771,771,2305,771,771,771,771,771,2305,771,771,771,771,771,771,771,771,2305,771,771,771,773,773,773,773,773,2305,771,771,2305,771,771,771,771,771,771,771,771,771,771,771,2305,771,771,771,771,771,2305,
2305,771,771,2305,771,771,771,771,771,2305,771,771,771,771,771,771,771,771,2305,771,771,771,773,773,773,773,773,2305,771,771,2305,771,771,771,771,771,771,771,771,771,771,771,2305,771,771,771,771,771,2305,
2305,771,771,2305,771,771,2305,771,771,2305,771,771,2305,771,771,2305,2305,2305,2305,771,771,2305,771,771,2305,773,773,2305,2305,2305,2305,771,771,2305,2305,2305,2305,2305,2305,2305,2305,2305,2305,771,771,2305,2305,2305,2305,
2305,771,771,2305,771,771,2305,771,771,2305,771,771,2305,771,771,2305,771,771,771,771,771,771,771,771,771,773,773,771,771,771,771,771,771,771,771,771,771,771,771,771,771,771,2305,771,771,771,771,771,2305,
2305,771,771,2305,771,771,2305,771,771,2305,771,771,2305,771,771,2305,771,771,771,771,771,771,771,771,771,773,773,771,771,771,771,771,771,771,771,771,771,771,771,771,771,771,2305,771,771,771,771,771,2305,
2305,2305,2305,2305,771,771,2305,771,771,2305,2305,2305,2305,771,771,2305,771,771,2305,771,771,2305,771,771,2305,773,773,2305,2305,2305,2305,771,771,2305,2305,2305,2305,771,771,2305,771,771,2305,2305,2305,2305,2305,2305,2305,
2305,771,771,771,771,771,771,771,771,771,771,771,2305,771,771,771,771,771,771,771,771,771,771,771,2305,773,773,773,773,773,771,771,771,771,771,771,2305,771,771,2305,771,771,2305,771,771,771,771,771,2305,
2305,771,771,771,771,771,771,771,771,771,771,771,2305,771,771,771,771,771,771,771,771,771,771,771,2305,773,773,773,773,773,771,771,771,771,771,771,2305,771,771,2305,771,771,2305,771,771,771,771,771,2305,
2305,2305,2305,2305,2305,2305,2305,771,771,2305,2305,2305,2305,771,771,2305,771,771,2305,2305,2305,2305,771,771,2305,2305,2305,2305,773,773,2305,2305,2305,2305,771,771,2305,771,771,2305,2305,2305,2305,771,771,2305,2305,2305,2305,
2305,771,771,771,771,771,771,771,771,771,771,771,2305,771,771,771,771,771,771,771,771,771,771,771,2305,771,771,771,773,773,773,773,773,771,771,771,771,771,771,771,771,771,771,771,771,2305,771,771,2305,
2305,771,771,771,771,771,771,771,771,771,771,771,2305,771,771,771,771,771,771,771,771,771,771,771,2305,771,771,771,773,773,773,773,773,771,771,771,771,771,771,771,771,771,771,771,771,2305,771,771,2305,
2305,2305,2305,2305,2305,2305,2305,771,771,2305,771,771,2305,771,771,2305,2305,2305,2305,2305,2305,2305,771,771,2305,771,771,2305,771,771,2305,773,773,2305,2305,2305,2305,2305,2305,2305,2305,2305,2305,2305,2305,2305,771,771,2305,
2305,771,771,771,771,771,771,771,771,2305,771,771,2305,771,771,771,771,771,771,771,771,2305,771,771,2305,771,771,2305,771,771,2305,773,773,773,773,773,773,773,773,773,773,773,773,773,773,773,773,773,2305,
2305,771,771,771,771,771,771,771,771,2305,771,771,2305,771,771,771,771,771,771,771,771,2305,771,771,2305,771,771,2305,771,771,2305,773,773,773,773,773,773,773,773,773,773,773,773,773,773,773,773,773,2305,
2305,2305,2305,2305,2305,2305,2305,2305,2305,2305,2305,2305,2305,2305,2305,2305,2305,2305,2305,2305,2305,2305,2305,2305,2305,2305,2305,2305,2305,2305,2305,2305,2305,2305,2305,2305,2305,2305,2305,2305,2305,2305,2305,2305,2305,2305,2305,2305,2305,
2305,2305,2305,2305,2305,2305,2305,2305,2305,2305,2305,2305,2305,2305,2305,2305,2305,2305,2305,2305,2305,2305,2305,2305,2305,2305,2305,2305,2305,2305,2305,2305,2305,2305,2305,2305,2305,2305,2305,2305,2305,2305,2305,2305,2305,2305,2305,2305,2305
</data>
 </layer>
 <layer id="2" name="Ground" width="49" height="80">
  <data encoding="csv">
771,771,771,771,771,771,771,771,771,771,771,771,771,771,771,771,771,771,771,771,771,771,771,771,771,771,771,771,771,771,771,771,771,771,771,771,771,771,771,771,771,771,771,771,771,771,771,771,771,
771,771,771,771,771,771,771,771,771,771,771,771,771,771,771,771,771,771,771,771,771,771,771,771,771,771,771,771,771,771,771,771,771,771,771,771,771,771,771,771,771,771,771,771,771,771,775,775,771,
771,771,771,771,771,771,771,771,771,771,771,771,771,771,771,771,771,771,771,771,771,771,771,771,771,771,771,771,771,771,771,771,771,771,771,771,771,771,771,771,771,771,771,771,771,771,775,775,771,
771,771,771,771,771,771,771,771,771,771,771,771,771,771,771,771,771,771,771,771,771,771,771,771,771,771,771,771,771,771,771,771,771,771,771,771,771,771,771,771,771,771,771,771,771,771,775,771,771,
771,771,771,771,771,771,771,897,769,769,769,1089,769,771,771,771,771,771,771,771,771,771,771,771,771,771,771,771,771,771,771,771,771,771,771,771,771,771,771,771,771,771,771,771,1610613635,771,775,897,771,
771,771,771,771,771,771,771,833,769,769,769,961,769,771,771,771,843,771,771,771,771,771,771,771,771,771,771,771,771,771,771,771,771,771,771,771,771,771,3221226435,771,771,771,771,771,771,771,775,1217,771,
771,771,771,771,771,771,771,833,769,769,769,769,769,771,771,771,771,771,771,771,771,771,771,771,771,771,771,771,771,771,771,771,771,771,771,771,771,771,771,771,771,771,771,771,771,771,775,897,771,
771,771,771,771,771,771,771,1153,769,1025,769,769,1217,3221226563,771,771,771,771,771,771,771,771,771,771,771,771,771,771,771,771,771,771,771,771,771,771,771,771,773,773,773,771,771,771,771,771,775,897,771,
771,771,771,771,771,771,771,771,771,771,771,771,771,771,771,771,771,771,771,771,771,771,771,771,3221226563,771,771,771,771,771,771,771,771,771,771,771,771,771,1089,773,773,771,771,771,771,771,775,897,771,
771,771,771,771,771,771,771,771,3221226371,771,771,771,771,771,771,771,771,771,771,771,771,771,771,771,771,771,771,771,771,771,771,771,771,771,771,771,771,897,897,833,773,771,771,771,771,771,775,897,771,
771,771,771,771,771,771,771,771,771,771,771,771,771,771,771,771,771,771,771,771,771,771,771,771,771,771,771,771,771,773,773,773,773,771,771,771,1610613635,771,833,897,773,771,771,771,771,771,775,897,771,
771,771,771,773,773,771,771,771,771,771,3221226435,771,771,771,771,771,771,771,771,771,771,771,771,771,771,771,771,771,771,773,771,1089,897,771,771,771,771,771,771,771,773,771,771,771,771,771,775,897,771,
771,771,771,773,773,771,771,771,771,1610613635,771,771,771,771,771,771,771,771,771,771,771,771,771,771,771,771,771,771,771,773,771,771,833,771,771,771,771,771,771,771,771,771,771,771,771,771,775,897,771,
771,771,771,771,771,771,771,771,771,771,771,771,771,771,771,771,771,771,771,771,771,771,771,835,773,773,773,773,773,773,771,771,833,771,771,771,771,771,771,771,771,771,771,771,1027,771,775,961,771,
771,771,771,771,771,771,771,771,771,771,771,771,771,771,771,771,771,771,771,771,771,771,771,771,771,771,771,771,771,771,771,771,897,771,771,771,771,771,771,771,771,771,771,771,771,771,775,897,771,
771,771,771,771,771,771,771,771,771,771,771,773,773,773,771,771,771,771,771,771,771,771,771,771,771,771,771,771,771,771,771,771,769,771,771,771,771,771,771,771,771,1610613699,771,771,771,771,775,897,771,
771,771,771,771,771,771,1610613763,771,771,771,771,773,773,773,771,771,771,771,771,771,771,771,771,771,771,771,771,771,771,771,771,771,771,771,771,771,771,771,771,771,771,771,771,771,771,771,775,897,771,
771,771,771,771,899,771,771,771,771,771,771,773,773,771,771,771,771,771,771,771,771,771,835,771,771,771,771,771,771,771,771,771,771,771,771,771,771,771,771,771,771,771,771,771,771,771,775,897,771,
771,771,771,771,771,771,771,771,771,771,771,773,771,771,771,771,771,771,771,771,771,771,771,771,771,771,771,771,771,771,771,771,771,771,771,771,771,771,771,771,771,771,771,771,771,771,775,897,771,
771,771,771,771,771,771,771,2684355651,771,771,771,773,771,771,771,771,771,771,771,771,835,835,835,771,771,771,771,771,771,771,771,771,771,771,771,771,771,771,771,771,1610613635,771,771,771,771,771,775,897,771,
771,771,771,771,771,771,771,771,771,771,771,773,771,771,1027,771,771,771,771,771,771,835,771,771,771,771,771,771,771,771,771,771,771,771,771,771,771,771,771,771,771,771,771,771,771,771,775,897,771,
771,771,771,771,771,771,835,835,835,771,771,773,771,771,771,771,771,771,771,771,771,835,771,771,771,771,771,771,771,771,771,771,771,771,771,771,771,771,1610613635,771,771,771,771,771,771,771,775,897,771,
771,771,771,835,835,771,771,771,771,771,771,771,771,771,771,771,771,771,771,771,771,771,771,771,771,771,771,771,771,771,771,771,771,771,771,771,771,771,771,771,771,771,771,771,771,771,775,897,771,
771,771,771,835,771,771,771,771,771,771,771,771,771,771,771,771,771,771,771,771,771,771,771,835,771,771,771,771,771,771,771,771,771,771,771,771,771,771,771,771,771,771,771,771,771,771,775,897,771,
771,771,771,771,771,771,771,771,771,771,771,771,771,771,771,771,771,771,771,771,771,771,771,835,835,771,771,771,771,771,771,771,771,771,771,773,773,771,771,771,771,771,771,771,771,771,775,897,771,
771,771,771,771,771,771,771,771,771,771,771,771,771,771,771,771,771,771,771,771,771,771,771,771,835,771,771,771,771,771,771,835,771,771,771,1089,773,771,771,771,771,771,771,771,771,771,775,897,771,
771,771,771,771,771,771,771,771,771,771,771,771,771,771,771,771,771,771,771,771,771,771,771,771,835,771,771,771,771,771,771,835,771,771,771,773,1089,771,771,771,771,771,771,771,3221226499,771,775,1610613953,771,
771,771,771,771,771,771,771,771,771,771,771,771,771,771,771,771,771,771,771,771,771,771,771,771,771,771,771,771,771,771,771,771,771,771,771,771,771,771,771,771,771,771,771,771,771,771,775,897,771,
771,771,771,771,961,1025,771,771,771,771,771,771,771,771,771,771,771,771,771,771,771,771,771,771,771,771,771,771,771,771,771,771,771,771,771,771,771,771,771,771,771,771,771,771,771,771,775,897,771,
771,771,771,835,771,771,771,771,771,771,771,771,771,771,771,771,771,771,771,771,771,771,771,771,771,771,771,771,3221226435,771,771,771,771,771,771,771,771,771,771,771,771,771,771,771,771,771,775,897,771,
771,771,771,771,771,771,771,773,771,771,771,771,771,771,771,771,771,771,773,773,771,771,771,771,771,771,771,771,771,771,771,771,771,771,771,771,771,771,771,771,771,771,771,771,771,771,775,897,771,
771,771,771,771,771,771,771,773,771,771,1610613763,835,835,771,771,771,771,771,1089,773,771,771,835,835,771,771,771,771,771,771,771,771,771,771,771,771,771,771,3221226371,771,771,771,771,771,771,771,775,897,771,
771,771,771,771,771,771,771,773,771,771,835,771,771,771,771,771,771,771,771,771,771,771,771,771,771,771,771,771,771,771,771,771,771,771,771,771,771,771,771,771,771,771,771,771,2684355651,771,775,897,771,
771,771,771,835,771,771,771,773,771,835,771,771,771,771,771,771,771,771,771,771,771,771,771,771,771,771,2684355587,771,771,771,771,771,771,771,771,771,771,771,771,771,771,771,771,771,771,771,775,1025,771,
771,771,835,835,771,771,771,773,771,835,771,771,771,771,771,771,771,771,771,771,771,771,771,771,771,771,771,771,771,771,771,771,771,835,771,771,771,771,771,771,3221226563,771,771,771,771,771,775,897,771,
771,771,835,771,771,771,771,773,771,835,835,835,835,835,835,835,835,835,835,835,771,771,771,771,771,835,771,771,771,771,771,771,771,771,771,771,771,771,771,771,771,771,771,771,771,771,775,897,771,
771,771,771,771,771,771,771,773,771,771,771,771,771,771,771,771,771,771,771,771,835,835,835,835,835,771,771,771,771,771,771,771,771,771,771,771,771,771,771,771,771,771,771,771,771,771,775,897,771,
771,771,771,771,773,773,773,773,771,771,771,771,771,771,835,835,835,771,771,771,771,771,771,771,771,771,771,771,771,771,771,771,771,771,771,1610613763,771,771,771,771,771,771,771,771,771,771,775,897,771,
771,771,771,771,771,771,771,771,771,771,771,771,771,771,771,771,835,771,771,771,771,771,771,771,771,771,771,771,771,771,771,771,771,771,771,771,771,771,771,835,771,771,771,771,771,771,775,897,771,
771,835,771,771,771,771,771,771,771,771,771,771,771,771,771,771,771,771,771,771,771,771,771,771,771,771,771,771,771,771,771,771,771,771,771,771,771,771,771,771,771,771,771,771,771,771,775,897,771,
771,835,771,771,771,771,771,771,771,771,771,771,771,771,771,771,771,771,771,771,1091,771,771,771,771,771,771,771,771,771,771,771,771,771,771,771,771,771,1610613699,771,771,771,771,771,771,771,775,897,897,
771,771,771,835,771,771,771,771,771,771,771,771,771,771,771,771,771,771,771,771,771,835,835,771,771,771,771,771,771,771,771,771,771,771,771,771,771,771,771,771,771,771,771,771,771,771,775,897,897,
771,771,771,771,771,771,771,771,771,771,771,771,771,771,771,771,771,771,771,771,771,771,771,771,771,771,771,771,771,771,771,771,771,771,771,771,771,2684355587,771,771,771,771,835,771,771,771,775,897,897,
771,771,771,771,771,771,771,771,963,771,771,771,771,771,771,771,771,771,771,771,771,771,771,771,771,771,771,771,771,771,771,771,771,771,771,771,771,771,771,771,771,835,835,771,771,771,775,897,897,
771,771,771,771,771,771,771,771,771,771,771,771,771,771,771,771,771,971,771,771,771,771,771,771,771,773,773,773,773,773,773,771,771,771,771,779,779,771,771,771,771,771,771,771,771,771,775,3221226689,897,
771,771,771,771,771,771,771,771,771,771,771,771,771,771,771,771,771,771,771,771,771,771,771,771,1025,769,897,897,769,769,771,771,771,771,771,779,779,771,771,835,771,771,771,771,771,771,775,897,897,
771,771,771,771,771,771,771,771,771,771,771,771,771,771,771,771,771,771,771,771,771,771,771,771,771,771,771,771,771,771,771,771,771,771,771,771,771,3221226371,771,835,771,771,771,771,771,771,775,897,897,
771,771,771,771,771,771,771,771,771,771,771,771,771,771,771,771,771,771,771,771,771,771,771,771,771,771,771,771,771,771,771,771,771,771,771,771,1610613763,771,771,835,771,771,771,771,1610613763,771,775,897,771,
771,771,771,771,771,771,771,771,771,771,771,771,771,771,771,835,835,835,835,835,835,835,835,835,835,835,835,835,835,835,835,835,835,835,771,771,771,771,771,771,771,771,771,771,835,771,775,897,771,
771,771,771,835,771,771,771,771,771,771,771,771,771,835,835,771,771,771,771,771,771,771,771,771,771,771,771,771,771,773,771,771,771,771,771,771,771,771,771,771,771,771,771,771,771,771,775,897,771,
771,771,771,771,771,771,771,771,771,771,771,771,771,771,771,771,771,771,771,771,771,771,771,771,771,771,771,771,773,771,771,771,771,771,771,771,771,771,771,771,771,771,771,771,771,771,775,897,771,
771,771,771,771,771,771,771,771,771,771,771,771,771,771,771,771,771,3221226371,771,771,771,771,771,771,771,771,771,771,771,773,771,771,771,771,771,771,771,771,771,771,771,771,771,771,771,771,775,897,771,
771,771,771,771,771,771,771,771,771,771,771,771,771,771,771,771,771,771,771,771,771,771,771,771,771,771,771,771,771,773,771,771,771,771,771,771,771,771,771,771,771,771,771,771,771,771,775,897,771,
771,3221226435,771,771,771,771,771,771,771,771,771,771,771,771,771,771,771,771,771,771,771,771,771,771,771,771,771,771,771,773,771,771,771,771,771,771,771,771,771,771,771,771,771,771,771,771,775,897,771,
771,771,771,771,771,771,771,771,771,771,771,771,771,771,771,771,771,771,771,771,771,771,771,771,771,771,771,771,771,773,771,771,771,771,771,771,771,771,771,771,771,771,771,771,771,771,775,2684355777,771,
771,771,771,771,771,771,771,771,771,771,771,771,771,771,771,771,771,771,771,771,771,771,771,771,771,771,771,771,771,773,771,771,771,771,771,771,771,771,771,771,773,2684355587,771,771,771,771,775,897,771,
771,771,771,771,771,771,771,771,771,771,771,771,771,771,771,771,771,771,771,771,771,771,771,771,771,771,771,771,771,771,771,771,771,771,771,771,771,771,771,771,773,771,771,771,771,771,775,897,771,
771,771,771,771,771,771,771,771,771,771,771,771,771,771,771,771,771,771,771,771,771,771,771,771,771,771,771,771,771,771,771,771,771,771,771,771,835,771,771,771,773,771,771,771,771,771,775,897,771,
771,771,771,771,771,771,771,907,771,771,771,771,771,771,771,771,771,771,771,771,771,771,771,771,771,771,771,771,771,771,771,771,771,771,771,2684355587,771,771,773,773,773,771,771,771,771,771,775,897,771,
771,771,771,771,771,771,771,771,771,771,771,771,771,771,771,771,771,771,771,771,771,771,771,771,771,771,771,771,771,771,771,771,771,771,771,771,771,771,771,771,771,771,771,771,771,771,775,1025,771,
771,771,771,771,771,771,771,771,771,771,771,771,771,771,771,771,771,771,771,771,771,771,771,771,771,771,771,771,771,771,771,771,771,771,771,771,771,771,771,771,771,771,2684355587,963,771,771,775,897,771,
771,771,771,771,1027,771,771,771,771,771,771,771,771,771,771,771,771,771,771,771,771,771,771,963,771,835,771,771,771,771,771,771,771,771,771,771,771,771,771,771,771,771,771,771,771,771,775,897,771,
771,771,771,771,771,771,771,833,771,771,771,771,771,771,771,771,771,771,771,771,1089,771,771,771,771,771,771,771,771,771,771,835,771,771,771,771,771,771,771,771,771,771,771,771,771,771,775,897,771,
771,771,771,771,771,771,771,833,771,771,771,771,771,771,771,771,771,771,771,771,961,771,835,835,771,771,771,771,771,771,835,771,771,771,771,771,771,771,771,771,771,771,771,771,771,771,775,897,771,
771,771,771,771,771,771,771,833,771,771,963,771,771,771,771,771,771,771,771,771,833,771,771,771,771,771,771,771,771,835,771,771,771,771,771,771,771,771,771,771,771,771,771,771,771,771,775,897,771,
771,1610613635,771,771,771,771,771,833,771,771,771,771,771,771,771,771,771,771,771,771,833,771,773,773,771,835,771,771,771,771,771,771,771,771,771,771,771,771,771,771,771,771,771,771,771,771,775,897,771,
771,771,771,771,771,771,771,771,771,771,771,771,771,771,771,771,771,771,771,771,833,771,773,773,771,835,771,771,771,771,771,771,771,771,771,771,771,771,771,771,771,771,771,771,771,771,775,897,771,
771,771,771,771,771,771,771,771,771,771,771,771,771,771,771,771,771,771,771,771,833,771,773,771,771,771,771,771,771,771,771,771,771,771,771,771,771,771,771,771,771,771,771,771,771,771,775,897,771,
771,771,771,771,771,771,771,771,771,771,771,771,771,771,771,771,771,771,771,771,771,771,773,771,771,771,835,771,771,771,771,771,771,771,771,771,771,773,773,773,773,771,771,771,771,771,775,897,771,
771,771,771,771,773,771,771,771,771,771,771,771,771,771,771,771,771,771,771,771,771,771,773,771,771,771,771,771,771,771,771,771,771,771,771,771,771,771,771,773,773,771,771,771,771,771,775,897,771,
771,771,771,771,773,771,771,771,771,771,771,771,771,771,771,771,771,771,771,771,771,771,771,771,771,771,771,771,771,771,771,771,771,771,771,771,771,771,771,773,773,771,771,771,771,771,775,897,771,
771,771,771,771,773,771,771,771,771,771,771,771,771,771,771,771,771,771,771,771,771,771,771,771,771,771,771,771,771,771,771,771,771,771,771,771,771,771,771,771,773,771,771,771,771,771,775,897,771,
771,771,771,771,771,771,771,771,771,771,771,771,771,771,773,771,771,771,771,771,771,771,771,771,771,771,771,771,1610613635,2684355523,771,771,771,771,771,771,771,771,771,771,773,771,771,771,771,771,775,897,771,
771,771,771,771,771,771,771,771,771,771,771,771,771,771,773,771,771,771,771,771,771,771,771,771,771,771,771,771,1089,833,771,771,771,771,771,771,771,771,771,771,771,771,771,771,771,771,775,897,771,
771,771,771,771,771,771,771,771,771,771,771,771,771,771,773,773,773,773,773,771,3221226371,771,771,771,771,771,771,771,771,771,771,771,771,771,771,771,771,771,771,771,771,771,771,771,771,771,775,897,771,
771,771,771,771,771,771,771,771,771,771,771,771,771,771,771,771,771,771,771,771,771,771,771,3221226499,771,771,771,771,771,771,771,771,771,771,771,771,771,771,771,771,771,771,771,771,771,771,775,897,771,
771,771,771,771,771,771,771,771,3221226499,2684355651,771,771,771,771,771,771,771,771,771,771,771,771,771,771,771,771,771,771,771,771,771,771,1610613635,771,771,773,773,773,773,773,773,771,771,771,3221226499,771,775,961,771,
771,771,771,771,771,771,771,771,771,771,771,771,771,771,771,771,771,771,771,771,771,771,771,771,771,771,771,771,771,771,771,771,771,771,771,771,771,771,773,773,773,771,771,771,771,771,775,897,771,
771,771,771,771,771,771,771,771,771,771,771,771,771,771,771,771,771,771,771,771,771,771,771,771,771,771,771,771,771,771,771,771,771,771,771,771,771,771,771,771,771,771,771,771,771,771,775,771,771,
771,771,771,771,771,771,771,771,771,771,771,771,771,771,771,771,771,771,771,771,771,771,771,771,771,771,771,771,771,771,771,771,771,771,771,771,771,771,771,771,771,771,771,771,771,771,775,771,771
</data>
 </layer>
 <layer id="6" name="walkable floors" width="49" height="80">
  <data encoding="csv">
0,0,0,0,0,0,0,0,0,0,0,0,0,0,0,0,0,0,0,0,0,0,0,0,0,0,0,0,0,0,0,0,0,0,0,0,0,0,0,0,0,0,0,0,0,0,0,0,0,
0,0,0,0,0,0,0,0,0,0,0,0,0,0,0,0,0,0,0,0,0,0,0,0,0,0,0,0,0,0,0,0,0,0,0,0,0,0,0,0,0,0,0,0,0,0,0,0,0,
0,0,0,0,0,0,0,0,0,0,0,0,0,0,0,0,0,0,0,0,0,0,0,0,0,0,0,0,0,0,0,0,0,0,0,0,0,0,0,0,0,0,0,0,0,0,0,0,0,
0,5502,5503,5504,5505,5506,0,0,0,0,0,0,0,0,0,0,0,0,0,0,0,0,0,0,0,0,0,0,0,0,0,0,0,0,0,0,0,0,0,0,0,0,0,0,0,0,0,0,0,
0,5522,5523,5524,5525,5526,0,0,0,0,0,0,0,0,0,0,0,0,0,0,0,0,0,0,0,0,0,0,0,0,0,0,0,0,0,0,0,0,0,0,0,0,0,0,0,0,0,0,0,
0,5542,5543,5544,5545,5546,0,0,0,0,0,0,0,0,0,0,0,0,0,0,0,0,0,0,0,0,0,0,0,0,0,0,0,0,0,0,0,0,0,0,0,0,0,0,0,0,0,0,0,
0,5510,5511,5564,5565,5566,0,0,0,0,0,0,0,0,0,0,0,0,0,0,0,0,0,0,0,0,0,0,0,0,0,0,0,0,0,0,0,0,0,0,0,0,0,0,0,0,0,0,0,
0,0,0,0,0,0,0,0,0,0,0,0,0,0,0,0,0,0,0,0,0,0,0,0,0,0,0,0,0,0,0,0,0,0,0,0,0,0,0,0,0,0,0,0,0,0,0,0,0,
0,0,0,0,0,0,0,0,0,0,0,0,0,0,0,0,0,0,0,0,0,0,0,0,0,0,0,0,0,0,0,0,0,0,0,0,0,0,0,0,0,0,0,0,0,0,0,0,0,
0,0,0,0,0,0,0,0,0,0,0,0,0,0,0,0,0,0,0,0,0,0,0,0,0,0,0,0,0,0,0,0,0,0,0,0,0,0,0,0,0,0,0,0,0,0,0,0,0,
0,0,0,0,0,0,0,0,0,0,0,0,0,0,0,0,0,0,0,0,0,0,0,0,0,0,0,0,0,0,0,0,0,0,0,0,0,0,0,0,0,0,0,0,0,0,0,0,0,
0,0,0,0,0,0,0,0,0,0,0,0,0,0,0,0,0,0,0,0,0,0,0,0,0,0,0,0,0,0,0,0,0,0,0,0,0,0,0,0,0,0,0,0,0,0,0,0,0,
0,0,0,0,0,0,0,0,0,0,0,0,0,0,0,0,0,0,0,0,0,0,0,0,0,0,0,0,0,0,0,0,0,0,0,0,0,0,0,0,0,0,0,0,0,0,0,0,0,
0,0,0,0,0,0,0,0,0,0,0,0,0,0,0,0,0,0,0,0,0,0,0,0,0,0,0,0,0,0,0,0,0,0,0,0,0,0,0,0,0,0,0,0,0,0,0,0,0,
0,0,0,0,0,0,0,0,0,0,0,0,0,0,0,0,0,0,0,0,0,0,0,0,0,0,0,0,0,0,0,0,0,0,0,0,0,0,0,0,0,0,0,0,0,0,0,0,0,
0,0,0,0,0,0,0,0,0,0,0,0,0,0,0,0,0,0,0,0,0,0,0,0,0,0,0,0,0,0,0,0,0,0,0,0,0,0,0,0,0,0,0,0,0,0,0,0,0,
0,0,0,0,0,0,0,0,0,0,0,0,0,0,0,0,0,0,0,0,0,0,0,0,0,0,0,0,0,0,0,0,0,0,0,0,0,0,0,0,0,0,0,0,0,0,0,0,0,
0,0,0,0,0,0,0,0,0,0,0,0,0,0,0,0,0,0,0,0,0,0,0,0,0,0,0,0,0,0,0,0,0,0,0,0,0,0,0,0,0,0,0,0,0,0,0,0,0,
0,0,0,0,0,0,0,0,0,0,0,0,0,0,0,0,0,0,0,0,0,0,0,0,0,0,0,0,0,0,0,0,0,0,0,0,0,0,0,0,0,0,0,0,0,0,0,0,0,
0,0,0,0,0,0,0,0,0,0,0,0,0,0,0,0,0,0,0,0,0,0,0,0,0,0,0,0,0,0,0,0,0,0,0,0,0,0,0,0,0,0,0,0,0,0,0,0,0,
0,0,0,0,0,0,0,0,0,0,0,0,0,0,0,0,0,0,0,0,0,0,0,0,0,0,0,0,0,0,0,0,0,0,0,0,0,0,0,0,0,0,0,0,0,0,0,0,0,
0,0,0,0,0,0,0,0,0,0,0,0,0,0,0,0,0,0,0,0,0,0,0,0,0,0,0,0,5023,5024,5025,5026,5027,0,0,0,0,0,0,0,0,0,0,0,0,0,0,0,0,
0,0,0,0,0,0,0,0,0,0,0,0,0,0,0,0,0,0,0,0,0,0,0,0,0,0,0,0,5043,5044,5045,5046,5047,0,0,0,0,0,0,0,0,0,0,0,0,0,0,0,0,
0,0,0,0,0,0,0,0,0,0,0,0,0,0,0,0,0,0,0,0,0,0,0,0,0,0,0,0,5063,5064,5065,5066,5067,0,0,0,0,0,0,0,0,0,0,0,0,0,0,0,0,
0,0,0,0,0,0,0,0,0,0,0,0,0,0,0,0,0,0,0,0,0,0,0,0,0,0,0,0,0,0,0,0,0,0,0,0,0,0,0,0,0,0,0,0,0,0,0,0,0,
0,0,0,0,0,0,0,0,0,0,0,0,0,0,0,0,0,0,0,0,0,0,0,0,0,0,0,0,0,0,0,0,0,0,0,0,0,0,0,0,0,0,0,0,0,0,0,0,0,
0,0,0,0,0,0,0,0,0,0,0,0,0,0,0,0,0,0,0,0,0,0,0,0,0,0,0,0,0,0,0,0,0,0,0,0,0,0,0,0,0,0,0,0,0,0,0,0,0,
0,0,0,0,0,0,0,0,0,0,0,0,0,0,0,0,0,0,0,0,0,0,0,0,0,0,0,0,0,0,0,0,0,0,0,0,0,0,0,0,0,0,0,0,0,0,0,0,0,
0,0,0,0,0,0,0,0,0,0,0,0,0,0,0,0,0,0,0,0,0,0,0,0,0,0,0,0,0,0,0,0,0,0,0,0,0,0,0,0,0,0,0,0,0,0,0,0,0,
0,0,0,0,0,0,0,0,0,0,0,0,0,0,0,0,0,0,0,0,0,0,0,0,0,0,0,0,0,0,0,0,0,0,0,0,0,0,0,0,0,0,0,0,0,0,0,0,0,
0,0,0,0,0,0,0,0,0,0,0,0,0,0,0,0,0,0,0,0,0,0,0,0,0,0,0,0,0,0,0,0,0,0,0,0,0,0,0,0,0,0,0,0,0,0,0,0,0,
0,0,0,0,0,0,0,0,0,0,0,0,0,0,0,0,0,0,0,0,0,0,0,0,0,0,0,0,0,0,0,0,0,0,0,0,0,0,0,0,0,0,0,0,0,0,0,0,0,
0,0,0,0,0,0,0,0,0,0,0,0,0,0,0,0,0,0,0,0,0,0,0,0,0,0,0,0,0,0,0,0,0,0,0,0,0,0,0,0,0,0,0,0,0,0,0,0,0,
0,0,0,0,0,0,0,0,0,0,0,0,0,0,0,0,0,0,0,0,0,0,0,0,0,0,0,0,0,0,0,0,0,0,0,0,0,0,0,0,0,0,0,0,0,0,0,0,0,
0,0,0,0,0,0,0,0,0,0,0,0,0,0,0,0,0,0,0,0,0,0,0,0,0,0,0,0,0,0,0,0,0,0,0,0,0,0,0,0,0,0,0,0,0,0,0,0,0,
0,0,0,0,0,0,0,0,0,0,0,0,0,0,0,0,0,0,0,0,0,0,0,0,0,0,0,0,0,0,0,0,0,0,0,0,0,0,0,0,0,0,0,0,0,0,0,0,0,
0,0,0,0,0,0,0,0,0,0,0,0,0,0,0,0,0,0,0,0,0,0,0,0,0,0,0,0,0,0,0,0,0,0,0,0,0,0,0,0,0,0,0,0,0,0,0,0,0,
0,0,0,0,0,0,0,0,0,0,0,0,0,0,0,0,0,0,0,0,0,0,0,0,0,0,0,0,0,0,0,0,0,0,0,0,0,0,0,0,0,0,0,0,0,0,0,0,0,
0,0,0,0,0,0,0,0,0,0,0,0,0,0,0,0,0,0,0,0,0,0,0,0,0,0,0,0,0,0,0,0,0,0,0,0,0,0,0,0,0,0,0,0,0,0,0,0,0,
0,0,0,0,0,0,0,0,0,0,0,0,0,0,0,0,0,0,0,0,0,0,0,0,0,0,0,0,0,0,0,0,0,0,0,0,0,0,0,0,0,0,0,0,0,0,0,0,0,
0,0,0,0,0,0,0,0,0,0,0,0,0,0,0,0,0,0,0,0,0,0,0,0,0,0,0,0,0,0,0,0,0,0,0,0,0,0,0,0,0,0,0,0,0,0,0,0,0,
0,0,0,0,0,0,0,0,0,0,0,0,0,0,0,0,0,0,0,0,0,0,0,0,0,0,0,0,0,0,0,0,0,0,0,0,0,0,0,0,0,0,0,0,0,0,0,0,0,
0,0,0,0,0,0,0,0,0,0,0,0,0,0,0,0,0,0,0,0,0,0,0,0,0,0,0,0,0,0,0,0,0,0,0,0,0,0,0,0,0,0,0,0,0,0,0,0,0,
0,0,0,0,0,0,0,0,0,0,0,0,0,0,0,0,0,0,0,0,0,0,0,0,0,0,0,0,0,0,0,0,0,0,0,0,0,0,0,0,0,0,0,0,0,0,0,0,0,
0,0,0,0,0,0,0,0,0,0,0,0,0,0,0,0,0,0,0,0,0,0,0,0,0,0,0,0,0,0,0,0,0,0,0,0,0,0,0,0,0,0,0,0,0,0,0,0,0,
0,0,0,0,0,0,0,0,0,0,0,0,0,0,0,0,0,0,0,0,0,0,0,0,0,0,0,0,0,0,0,0,0,0,0,0,0,0,0,0,0,0,0,0,0,0,0,0,0,
0,0,0,0,0,0,0,0,0,0,0,0,0,0,0,0,0,0,0,0,0,0,0,0,0,0,0,0,0,0,0,0,0,0,0,0,0,0,0,0,0,0,0,0,0,0,0,0,0,
0,0,0,0,0,0,0,0,0,0,0,0,0,0,0,0,0,0,0,0,0,0,0,0,0,0,0,0,0,0,0,0,0,0,0,0,0,0,0,0,0,0,0,0,0,0,0,0,0,
0,0,0,0,0,0,0,0,0,0,0,0,0,0,0,0,0,0,0,0,0,0,0,0,0,0,0,0,0,0,0,0,0,0,0,0,0,0,0,0,0,0,0,0,0,0,0,0,0,
0,0,0,0,0,0,0,0,0,0,0,0,0,0,0,0,0,0,0,0,0,0,0,0,0,0,0,0,0,0,0,0,0,0,0,0,0,0,0,0,0,0,0,0,0,0,0,0,0,
0,0,0,0,0,0,0,0,0,0,0,0,0,0,0,0,0,0,0,0,0,0,0,0,0,0,0,0,0,0,0,0,0,0,0,0,0,0,0,0,0,0,0,0,0,0,0,0,0,
0,0,0,0,0,0,0,0,0,0,0,0,0,0,0,0,0,0,0,0,0,0,0,0,0,0,0,0,0,0,0,0,0,0,0,0,0,0,0,0,0,0,0,0,0,0,0,0,0,
0,0,0,0,0,0,0,0,0,0,0,0,0,0,0,0,0,0,0,0,0,0,0,0,0,0,0,0,0,0,0,0,0,0,0,0,0,0,0,0,0,0,0,0,0,0,0,0,0,
0,0,0,0,0,0,0,0,0,0,0,0,0,0,0,0,0,0,0,0,0,0,0,0,0,0,0,0,0,0,0,0,0,0,0,0,0,0,0,0,0,0,0,0,0,0,0,0,0,
0,0,0,0,0,0,0,0,0,0,0,0,0,0,0,0,0,0,0,0,0,0,0,0,0,0,0,0,0,0,0,0,0,0,0,0,0,0,0,0,0,0,0,0,0,0,0,0,0,
0,0,0,0,0,0,0,0,0,0,0,0,0,0,0,0,0,0,0,0,0,0,0,0,0,0,0,0,0,0,0,0,0,0,0,0,0,0,0,0,0,0,0,0,0,0,0,0,0,
0,0,0,0,0,0,0,0,0,0,0,0,0,0,0,0,0,0,0,0,0,0,0,0,0,0,0,0,0,0,0,0,0,0,0,0,0,0,0,0,0,0,0,0,0,0,0,0,0,
0,0,0,0,0,0,0,0,0,0,0,4751,4752,4753,4754,0,0,0,0,0,0,0,0,0,0,0,0,0,0,0,0,0,0,0,0,0,0,0,0,0,0,0,0,0,0,0,0,0,0,
0,0,0,0,0,0,0,0,0,0,0,4771,4772,4773,4774,0,0,0,0,0,0,0,0,0,0,0,0,0,0,0,0,0,0,0,0,0,0,0,0,0,0,0,0,0,0,0,0,0,0,
0,0,0,0,0,0,0,0,0,0,0,4791,4792,4793,4794,0,0,0,0,0,0,0,0,0,0,0,0,0,0,0,0,0,0,0,0,0,0,0,0,0,0,0,0,0,0,0,0,0,0,
0,0,0,0,0,0,0,0,0,0,0,0,0,0,0,0,0,0,0,0,0,0,0,0,0,0,0,0,0,0,0,0,0,0,0,0,0,0,0,0,0,0,0,0,0,0,0,0,0,
0,0,0,0,0,0,0,0,0,0,0,0,0,0,0,0,0,0,0,0,0,0,0,0,0,0,0,0,0,0,0,0,0,0,0,0,0,0,0,0,0,0,0,0,0,0,0,0,0,
0,0,0,0,0,0,0,0,0,0,0,0,0,0,0,0,0,0,0,0,0,0,0,0,0,0,0,0,0,0,0,0,0,0,0,0,0,0,0,0,0,0,0,0,0,0,0,0,0,
0,0,0,0,0,0,0,0,0,0,0,0,0,0,0,0,0,0,0,0,0,0,0,0,0,0,0,0,0,0,0,0,0,0,0,0,0,0,0,0,0,0,0,0,0,0,0,0,0,
0,0,0,0,0,0,0,0,0,0,0,0,0,0,0,0,0,0,0,0,0,0,0,0,0,0,0,0,0,0,0,0,0,0,0,0,0,0,0,0,0,0,0,0,0,0,0,0,0,
0,0,0,0,0,0,0,0,0,0,0,0,0,0,0,0,0,0,0,0,0,0,0,0,0,0,0,0,0,0,0,0,0,0,0,0,0,0,0,0,0,0,0,0,0,0,0,0,0,
0,0,0,0,0,0,0,0,0,0,0,0,0,0,0,0,0,0,0,0,0,0,0,0,0,0,0,0,0,0,0,0,0,0,0,0,0,0,0,0,0,0,0,0,0,0,0,0,0,
0,0,0,0,0,0,0,0,0,0,0,0,0,0,0,0,0,0,0,0,0,0,0,0,0,0,0,0,0,0,0,0,0,0,0,0,0,0,0,0,0,0,0,0,0,0,0,0,0,
0,0,0,0,0,0,0,0,0,0,0,0,0,0,0,0,0,0,0,0,0,0,0,0,0,0,0,0,0,0,0,0,0,0,0,0,0,0,0,0,0,0,0,0,0,0,0,0,0,
0,0,0,0,0,0,0,0,0,0,0,0,0,0,0,0,0,0,0,0,0,0,0,0,0,0,0,0,0,0,0,0,0,0,0,0,0,0,0,0,0,0,0,0,0,0,0,0,0,
0,0,0,0,0,0,0,0,0,0,0,0,0,0,0,0,0,0,0,0,0,0,0,0,0,0,0,0,0,0,0,0,0,0,0,0,0,0,0,0,0,0,0,0,0,0,0,0,0,
0,0,0,0,0,0,0,0,0,0,0,0,0,0,0,0,0,0,0,0,0,0,0,0,0,0,0,0,0,0,0,0,0,0,0,0,0,0,0,0,0,0,0,0,0,0,0,0,0,
0,0,0,0,0,0,0,0,0,0,0,0,0,0,0,0,0,0,0,0,0,0,0,0,0,0,0,0,0,0,0,0,0,0,0,0,0,0,0,0,0,0,0,0,0,0,0,0,0,
0,0,0,0,0,0,0,0,0,0,0,0,0,0,0,0,0,0,0,0,0,0,0,0,0,0,0,0,0,0,0,0,0,0,0,0,0,0,0,0,0,0,0,0,0,0,0,0,0,
0,0,0,0,0,0,0,0,0,0,0,0,0,0,0,0,0,0,0,0,0,0,0,0,0,0,0,0,0,0,0,0,0,0,0,0,0,0,0,0,0,0,0,0,0,0,0,0,0,
0,0,0,0,0,0,0,0,0,0,0,0,0,0,0,0,0,0,0,0,0,0,0,0,0,0,0,0,0,0,0,0,0,0,0,0,0,0,0,0,0,0,0,0,0,0,0,0,0,
0,0,0,0,0,0,0,0,0,0,0,0,0,0,0,0,0,0,0,0,0,0,0,0,0,0,0,0,0,0,0,0,0,0,0,0,0,0,0,0,0,0,0,0,0,0,0,0,0,
0,0,0,0,0,0,0,0,0,0,0,0,0,0,0,0,0,0,0,0,0,0,0,0,0,0,0,0,0,0,0,0,0,0,0,0,0,0,0,0,0,0,0,0,0,0,0,0,0,
0,0,0,0,0,0,0,0,0,0,0,0,0,0,0,0,0,0,0,0,0,0,0,0,0,0,0,0,0,0,0,0,0,0,0,0,0,0,0,0,0,0,0,0,0,0,0,0,0,
0,0,0,0,0,0,0,0,0,0,0,0,0,0,0,0,0,0,0,0,0,0,0,0,0,0,0,0,0,0,0,0,0,0,0,0,0,0,0,0,0,0,0,0,0,0,0,0,0
</data>
 </layer>
 <layer id="3" name="Walls" width="49" height="80">
  <data encoding="csv">
1861,1677,1677,1677,1677,1677,1869,1677,1677,1677,1677,1677,1869,1869,1677,1677,1677,1677,1677,1677,1677,1677,1677,1677,1677,1677,1677,1677,1677,1677,1677,1677,1677,1677,1677,1677,1677,1677,1677,1677,1677,1677,1677,1677,1677,1677,1677,1677,1863,
1613,1577,1577,1577,1577,1577,1613,1577,1577,1577,1577,1577,1577,1613,1577,1577,1577,1577,1577,1577,1577,1577,1577,1577,1577,1577,1577,1577,1577,1577,1577,1577,1577,1577,1577,1577,1577,1577,1577,1577,1577,1577,1577,1577,1577,1577,1577,1577,1613,
1613,1609,1609,1609,1609,1609,1613,1609,1609,1609,1609,1609,1609,1613,1609,1609,1609,1609,1609,1609,1609,1609,1609,1609,1609,1609,1609,1609,1609,1609,1609,1609,1609,1609,1609,1609,1609,1609,1609,1609,1609,1609,1609,1609,1609,1609,1609,1609,1613,
1613,1641,1641,1641,1641,1641,1613,4609,4610,4609,4610,4609,4610,1541,1641,1641,1641,1641,1539,1641,1641,1641,1641,1641,1641,1641,1641,1641,1641,1641,1641,1641,1641,1641,1641,1641,1641,1641,1641,1641,1641,1641,1641,1641,1641,1539,1641,1641,1613,
1613,0,0,0,0,0,1613,4611,4612,4611,4612,4611,4612,1573,0,0,0,0,1571,0,0,1539,0,0,1543,1545,1545,1545,1545,1545,1545,1545,1545,1869,1545,1545,1547,0,0,0,0,0,0,0,0,1571,0,0,1613,
1613,0,0,0,0,0,1613,4613,4614,4613,4614,4613,4614,1605,0,0,0,0,1603,0,0,1571,0,0,1575,1577,1577,1577,1577,1577,1577,1577,1577,1541,1577,1577,1579,0,0,0,0,0,0,1549,0,1603,0,0,1613,
1743,1545,1545,1547,0,0,1613,4615,4616,4615,4616,4615,4616,1637,0,1539,0,0,1635,0,0,1603,0,0,1607,1609,1609,1609,1609,1609,1609,1609,1609,1573,1609,1609,1611,0,0,0,0,0,0,1613,0,1635,0,0,1613,
1613,1577,1577,1579,0,0,1613,0,0,0,0,0,0,0,0,1571,0,0,0,0,0,1635,0,0,1639,1641,1641,1641,1641,1641,1641,1641,1641,1605,1641,1641,1643,0,0,0,0,0,0,1897,1545,1545,1545,1545,1613,
1613,1609,1609,1611,0,0,1613,0,0,0,0,0,0,0,0,1603,0,0,0,0,0,0,0,0,0,0,0,0,0,0,0,0,0,1637,0,0,0,0,0,0,0,0,0,1575,1577,1577,1577,1577,1613,
1613,1641,1641,1643,0,0,1541,0,0,0,0,0,1543,1545,1545,1863,0,0,1539,0,0,1539,0,0,1539,0,0,1539,0,0,1539,0,0,1539,0,0,0,0,0,0,0,0,1539,1607,1609,1609,1609,1609,1613,
1613,0,0,0,0,0,1573,0,0,0,0,0,1575,1577,1577,1613,0,0,1571,0,0,1571,0,0,1571,0,0,1571,0,0,1571,0,0,1571,0,0,0,0,0,0,0,0,1571,1639,1641,1641,1641,1641,1613,
1613,0,0,0,0,0,1605,0,0,0,0,0,1607,1609,1609,1613,0,0,1603,0,0,1603,0,0,1603,0,0,1603,0,0,1603,0,0,1603,0,0,0,0,0,0,0,0,1603,0,0,0,0,0,1613,
1613,0,0,0,0,0,1637,0,0,0,0,0,1639,1641,1641,1613,0,0,1635,0,0,1635,0,0,1635,0,0,1635,0,0,1635,0,0,1635,0,0,1539,0,0,0,0,0,1635,0,0,1539,0,0,1613,
1743,1703,1703,1704,0,0,0,0,0,0,0,0,0,0,0,1613,0,0,0,0,0,0,0,0,0,0,0,0,0,0,0,0,0,0,0,0,1571,0,0,0,0,0,0,0,0,1571,0,0,1613,
1613,1735,1735,1736,0,0,0,0,0,0,0,0,0,0,0,1613,0,0,0,0,0,0,0,0,0,0,0,0,0,0,0,0,0,0,0,0,1603,0,0,0,0,0,0,0,0,1603,0,0,1613,
1613,1767,1767,1768,0,0,0,0,0,1539,0,0,0,0,0,1743,1545,1545,1545,1545,1545,1545,1545,1545,1547,0,0,1679,1677,1677,1863,0,0,1539,0,0,1635,0,0,1539,0,0,0,0,0,1635,0,0,1613,
1613,1799,1799,1800,0,0,0,0,0,1571,0,0,0,0,0,1613,1577,1577,1577,1577,1577,1577,1577,1577,1579,0,0,1613,1577,1577,1541,0,0,1571,0,0,0,0,0,1571,0,0,0,0,0,0,0,0,1613,
1613,0,0,0,0,0,0,0,0,1603,0,0,0,0,0,1613,1609,1609,1609,1609,1609,1609,1609,1609,1611,0,0,1613,1609,1609,1573,0,0,1603,0,0,0,0,0,1603,0,0,1861,1677,1677,1869,1545,1545,1613,
1743,1677,1677,1677,1677,1677,1547,0,0,1539,0,0,1549,0,0,1897,1545,1545,1547,1641,1641,1641,1641,1641,1543,1545,1545,1807,1641,1641,1605,0,0,1539,0,0,1539,0,0,1635,0,0,1613,1577,1577,1613,1577,1577,1613,
1613,1735,1735,1735,1735,1735,1736,0,0,1571,0,0,1613,0,0,1575,1577,1577,1579,0,0,0,0,0,1575,1577,1577,1541,0,0,1637,0,0,1571,0,0,1571,0,0,0,0,0,1613,1609,1609,1613,1609,1609,1613,
1613,1767,1767,1767,1767,1767,1768,0,0,1603,0,0,1613,0,0,1607,1609,1609,1611,0,0,0,0,0,1607,1609,1609,1573,0,0,0,0,0,1603,0,0,1603,0,0,0,0,0,1613,1641,1641,1613,1641,1641,1613,
1613,1799,1799,1073743365,1799,1799,1073743365,0,0,1635,0,0,1613,0,0,1639,1641,1641,1643,0,0,1549,0,0,1639,1641,1641,1605,0,0,0,0,0,1635,0,0,1635,0,0,1543,1545,1545,1807,0,0,1613,0,0,1613,
1613,0,0,1613,0,0,1613,0,0,0,0,0,1613,0,0,0,0,0,0,0,0,1613,0,0,0,0,0,1637,0,0,0,0,0,0,0,0,0,0,0,1575,1577,1577,1613,0,0,1541,0,0,1613,
1613,0,0,1613,0,0,1613,0,0,0,0,0,1613,0,0,0,0,0,0,0,0,1613,0,0,0,0,0,0,0,0,0,0,0,0,0,0,0,0,0,1607,1609,1609,1613,0,0,1573,0,0,1613,
1743,1677,1677,1871,1545,1545,1871,1677,1677,1677,1677,1677,1899,0,0,1549,0,0,1543,1545,1545,1807,0,0,0,0,0,1539,0,0,1539,0,1543,1863,0,0,0,0,0,1639,1641,1641,1613,0,0,1605,0,0,1613,
1613,1577,1577,1577,1577,1577,1577,1577,1577,1577,1577,1577,1577,0,0,1613,0,0,1575,1577,1577,1613,0,0,0,0,0,1571,0,0,1571,0,1575,1613,0,0,0,0,1543,1545,1545,1545,1899,0,0,1637,0,0,1613,
1613,1609,1609,1609,1609,1609,1609,1609,1609,1609,1609,1609,1609,0,0,1613,0,0,1607,1609,1609,1613,0,0,0,0,0,1603,0,0,1603,0,1607,1613,0,0,0,0,1575,1577,1577,1577,1579,0,0,0,0,0,1613,
1613,1641,1641,1641,1641,1641,1641,1641,1641,1641,1641,1641,1861,1545,1545,1807,0,0,1639,1641,1641,1743,1545,1545,1547,0,0,1635,0,0,1635,0,1639,1613,0,0,0,0,1607,1609,1609,1609,1611,0,0,1549,0,0,1613,
1613,0,0,0,0,0,0,0,0,0,0,0,1541,1577,1577,1613,0,0,0,0,0,1613,1577,1577,1579,0,0,0,0,0,0,0,0,1541,0,0,0,0,1639,1641,1641,1641,1643,0,0,1613,0,0,1613,
1613,0,0,0,0,0,0,0,0,0,0,0,1573,1609,1609,1613,0,0,0,0,0,1613,1609,1609,1611,0,0,0,0,0,0,0,0,1573,0,0,0,0,0,0,0,0,0,0,0,1613,0,0,1613,
1743,1545,1545,1545,1545,1545,1547,0,0,0,0,0,1605,1641,1641,1613,0,0,0,0,0,1897,1545,1545,1547,0,0,1539,0,0,1539,0,0,1605,0,0,1539,0,0,1549,0,0,1539,0,0,1613,0,0,1613,
1613,1577,1577,1577,1577,1577,1579,0,0,0,0,0,1637,0,0,1613,0,0,0,0,0,1575,1577,1577,1579,0,0,1571,0,0,1571,0,0,1637,0,0,1571,0,0,1613,0,0,1571,0,0,1613,0,0,1613,
1613,1609,1609,1609,1609,1609,1611,0,0,0,0,0,0,0,0,1613,0,0,0,0,0,1607,1609,1609,1611,0,0,1603,0,0,1603,0,0,0,0,0,1603,0,0,1613,0,0,1603,0,0,1613,0,0,1613,
1743,1703,1704,1641,1641,1641,1643,0,0,1861,1545,1545,1545,1545,1545,1807,0,0,0,0,0,1639,1641,1641,1643,0,0,1635,0,0,1635,0,0,1539,0,0,1635,0,0,1613,0,0,1635,0,0,1541,0,0,1613,
1613,1735,1736,0,0,0,0,0,0,1613,1577,1577,1577,1577,1577,1613,0,0,0,0,0,0,0,0,0,0,0,0,0,0,0,0,0,1571,0,0,0,0,0,1613,0,0,0,0,0,1573,0,0,1613,
1613,1767,1768,0,0,0,0,0,0,1613,1609,1609,1609,1609,1609,1613,0,0,0,0,0,0,0,0,0,0,0,0,0,0,0,0,0,1603,0,0,0,0,0,1613,0,0,0,0,0,1605,0,0,1613,
1613,1799,1800,0,0,0,0,0,0,1613,1641,1641,1641,1641,1641,1613,0,0,0,0,0,0,0,0,0,0,0,1549,0,0,1549,0,0,1635,0,0,1549,0,0,1897,1545,1545,1863,0,0,1637,0,0,1613,
1613,0,0,0,0,0,0,0,0,1613,0,0,0,0,0,1613,0,0,0,0,0,1861,1701,1706,1706,1707,1706,1871,1706,1706,1871,1547,0,0,0,0,1613,0,0,1575,1577,1577,1897,1545,1545,1547,0,0,1613,
1613,0,0,0,0,0,0,0,0,1613,0,0,0,0,0,1613,0,0,0,0,0,1613,1733,1738,1738,1739,1738,1738,1738,1738,1738,1579,0,0,0,0,1613,0,0,1607,1609,1609,1575,1577,1577,1579,0,0,1613,
1613,0,0,1861,1706,1707,1706,1707,1704,1743,1545,1545,1547,0,0,1897,1545,1545,1547,0,0,1613,1765,1770,1770,1771,1770,1700,1701,1703,1704,1611,0,1861,1677,1677,1899,0,0,1639,1641,1641,1607,1609,1609,1611,0,0,1613,
1613,0,0,1613,1738,1739,1738,1739,1736,1613,1577,1577,1579,0,0,1575,1577,1577,1579,0,0,1613,1797,1802,1802,1803,1802,1732,1733,1735,1736,1643,0,1613,1577,1577,1579,0,0,0,0,0,1639,1641,1641,1643,0,0,1613,
1613,0,0,1613,1770,1771,1770,1771,1768,1613,1609,1609,1611,0,0,1607,1609,1609,1611,0,0,1613,0,0,0,0,0,1764,1765,1767,1768,0,0,1613,1609,1609,1611,0,0,0,0,0,0,0,0,0,0,0,1613,
1613,0,0,1613,1802,1803,1802,1803,1800,1613,1641,1641,1643,0,0,1639,1641,1641,1643,0,0,1541,0,0,0,0,0,1796,1797,1799,1800,0,0,1613,1641,1641,1643,0,0,1861,1706,1707,1863,0,0,1549,0,0,1613,
1613,0,0,1613,0,0,0,0,0,1613,0,0,0,0,0,0,0,0,0,0,0,1573,0,0,0,0,0,0,0,0,0,0,0,1613,0,0,0,0,0,1541,1738,1739,1613,0,0,1613,0,0,1613,
1613,0,0,1897,1545,1545,1547,0,0,1613,0,0,0,0,0,0,0,0,0,0,0,1605,0,0,0,0,0,0,0,0,0,0,0,1613,0,0,0,0,0,1573,1770,1771,1541,0,0,1541,0,0,1613,
1613,0,0,1575,1577,1577,1579,0,0,1551,1677,1677,1869,1677,1677,1741,0,0,0,0,0,1637,0,0,0,0,0,0,0,0,1543,1545,1545,1807,0,0,0,0,0,1605,1802,1803,1573,0,0,1573,0,0,1613,
1613,0,0,1607,1609,1609,1611,0,0,1575,1577,1577,1613,1577,1577,1541,0,0,1549,0,0,0,0,1700,1701,1545,1545,1863,0,0,1575,1577,1577,1613,0,0,0,0,0,1637,0,0,1605,0,0,1605,0,0,1613,
1613,0,0,1639,1641,1641,1643,0,0,1607,1609,1609,1613,1609,1609,1573,0,0,1613,0,0,0,0,1732,1733,1577,1577,1613,0,0,1607,1609,1609,1613,0,0,0,0,0,0,0,0,1637,0,0,1637,0,0,1613,
1613,0,0,1700,1701,1703,1704,0,0,1639,1641,1641,1613,1641,1641,1605,0,0,1613,0,0,0,0,1764,1765,1609,1609,1613,0,0,1639,1641,1641,1541,0,0,0,0,0,0,0,0,0,0,0,0,0,0,1613,
1613,0,0,1732,1733,1735,1736,0,0,1543,1545,1545,1807,0,0,1637,0,0,1897,1545,1545,1863,0,1796,1797,1641,1641,1613,0,0,0,0,0,1573,0,0,1543,1545,1545,1545,1545,1545,1545,1545,1545,1545,1545,1545,1807,
1613,0,0,1764,1765,1767,1768,0,0,1575,1577,1577,1613,0,0,0,0,0,1575,1577,1577,1613,0,0,0,0,0,1613,0,0,0,0,0,1605,0,0,1575,1577,1577,1577,1577,1577,1577,1577,1577,1577,1577,1577,1613,
1613,0,0,1861,1677,1677,1863,0,0,1607,1609,1609,1743,1545,1545,1863,0,0,1607,1609,1609,1613,0,0,1861,1545,1545,1899,0,0,0,0,0,1637,0,0,1607,1609,1609,1609,1609,1609,1609,1609,1609,1609,1609,1609,1613,
1613,0,0,1613,1577,1577,1541,0,0,1639,1641,1641,1541,1577,1577,1613,0,0,1639,1641,1641,1897,1545,1545,1899,1577,1577,1577,0,0,1543,1545,1545,1547,0,0,1639,1641,1641,1641,1641,1641,1641,1641,1641,1641,1641,1641,1613,
1613,0,0,1893,1609,1609,1573,0,0,0,0,0,1573,1609,1609,1613,0,0,0,0,0,1575,1577,1577,1579,1609,1609,1609,0,0,1575,1577,1577,1579,0,0,0,0,0,0,0,0,0,0,0,0,0,0,1613,
1613,0,0,1925,1641,1641,1605,0,0,1549,0,0,1605,1641,1641,1897,1545,1545,1547,0,0,1607,1609,1609,1611,1641,1641,1539,0,0,1607,1609,1609,1611,0,0,1861,1545,1545,1863,0,0,0,0,0,0,0,0,1613,
1613,0,0,1957,0,0,1637,0,0,1613,0,0,1637,0,0,1575,1577,1577,1579,0,0,1639,1641,1641,1643,0,0,1571,0,0,1639,1641,1641,1643,0,0,1541,1577,1577,1541,0,0,0,1700,1706,1707,1706,1707,1613,
1613,0,0,0,0,0,0,0,0,1613,0,0,0,0,0,1607,1609,1609,1611,0,0,0,0,0,0,0,0,1603,0,0,0,0,0,0,0,0,1573,1609,1609,1573,0,0,0,1732,1738,1739,1738,1739,1613,
1743,1677,1677,1863,0,0,1549,0,0,1613,0,0,0,0,0,1639,1641,1641,1861,1545,1545,1547,0,0,1539,0,0,1635,0,1678,1679,1545,1545,1547,0,0,1605,1641,1641,1605,0,0,0,1764,1770,1771,1770,1771,1613,
1613,1577,1577,1541,0,0,1541,0,0,1613,0,0,0,0,0,0,0,0,1613,1577,1577,1579,0,0,1571,0,0,0,0,0,1613,1577,1577,1579,0,0,1637,0,0,1637,0,0,0,1796,1802,1803,1802,1803,1613,
1613,1609,1609,1573,0,0,1573,0,0,1613,0,0,0,0,0,0,0,0,1613,1609,1609,1611,0,0,1603,0,0,0,0,0,1613,1609,1609,1611,0,0,0,0,0,0,0,0,0,0,0,0,0,0,1613,
1613,1641,1641,1605,0,0,1605,0,0,1743,1545,1545,1547,0,0,1861,1545,1545,1899,1641,1641,1539,0,0,1635,0,0,1549,0,0,1613,1543,1545,1545,1545,1545,1547,0,0,1543,1545,1547,0,0,0,1700,1701,1545,1807,
1613,0,0,1637,0,0,1637,0,0,1613,1577,1577,1579,0,0,1893,1577,1577,1577,0,0,1571,0,0,0,0,0,1613,0,0,1613,1575,1577,1577,1577,1577,1579,0,0,1575,1577,1579,0,0,0,1732,1733,1577,1613,
1613,0,0,0,0,0,0,0,0,1613,1609,1609,1611,0,0,1573,1609,1609,1609,0,0,1603,0,0,0,0,0,1613,0,0,1613,1607,1609,1609,1609,1609,1611,0,0,1607,1609,1611,0,0,0,1764,1765,1609,1613,
1613,0,0,1679,1545,1545,1863,0,0,1613,1641,1641,1643,0,0,1605,1641,1641,1549,0,0,1635,0,0,1539,0,0,1551,1545,1545,1615,1639,1641,1543,1545,1545,1545,1545,1545,1545,1545,1545,1863,0,0,1700,1701,1545,1807,
1613,0,0,1613,1577,1577,1613,0,0,1613,0,0,0,0,0,1637,0,0,1613,0,0,0,0,0,1571,0,0,1575,1577,1577,1579,0,0,1575,1577,1577,1577,1577,1577,1577,1577,1577,1613,0,0,1732,1733,1577,1613,
1613,0,0,1613,1609,1609,1613,0,0,1613,0,0,0,0,0,0,0,0,1613,0,0,0,0,0,1603,0,0,1607,1609,1609,1611,0,0,1607,1609,1609,1609,1609,1609,1609,1609,1609,1613,0,0,1764,1765,1609,1613,
1613,0,0,1613,1641,1641,1613,0,0,1613,0,0,1549,0,0,1679,1677,1677,1615,0,0,1539,0,0,1635,0,0,1543,1545,1545,1545,1545,1863,1639,1641,1641,1641,1641,1641,1641,1641,1641,1613,0,0,1796,1797,1641,1613,
1613,0,0,1613,0,0,1541,0,0,1613,0,0,1613,0,0,1613,1577,1577,1579,0,0,1571,0,0,0,0,0,1575,1577,1577,1577,1577,1613,0,0,0,0,0,0,0,0,0,1613,0,0,0,0,0,1613,
1613,0,0,1613,0,0,1573,0,0,1613,0,0,1613,0,0,1613,1609,1609,1611,0,0,1603,0,0,0,0,0,1607,1609,1609,1609,1609,1613,0,0,0,0,0,0,0,0,0,1613,0,0,0,0,0,1613,
1743,1545,1545,1615,0,0,1605,0,0,1551,1545,1545,1807,0,0,1541,1641,1641,1543,1701,1703,1704,0,0,1549,0,0,1639,1641,1641,1543,1545,1871,1677,1545,1677,1863,0,0,1549,0,0,1743,1677,2684356109,0,1543,1677,1807,
1613,1577,1577,1579,0,0,1637,0,0,1577,1577,1577,1613,0,0,1573,0,0,1575,1733,1735,1736,0,0,1613,0,0,0,0,0,1575,1577,1577,2119,2119,2119,1613,0,0,1613,0,0,1613,1577,1579,0,1575,1577,1613,
1613,1609,1609,1611,0,0,0,0,0,1609,1609,1609,1613,0,0,1605,0,0,1607,1765,1767,1768,0,0,1613,0,0,0,0,0,1607,1609,1609,2151,2151,2151,1613,0,0,1613,0,0,1613,1609,1611,0,1607,1609,1613,
1743,1545,1545,1545,1545,1545,1547,0,0,1543,1677,1677,1807,0,0,1637,0,0,1639,1797,1799,1800,0,0,1743,1545,1545,1547,0,0,1639,1641,1641,1543,1545,1545,1871,1545,1545,1871,1545,1545,1871,1545,1545,1545,1545,1547,1613,
1613,1577,1577,1577,1577,1577,1579,0,0,1575,1577,1577,1613,0,0,0,0,0,0,0,0,0,0,0,1613,1577,1577,1579,0,0,0,0,0,1575,1577,1577,1577,1577,1577,1577,1577,1577,1577,1577,1577,1577,1577,1579,1613,
1613,1609,1609,1609,1609,1609,1611,0,0,1607,1609,1609,1613,0,0,0,0,0,0,0,0,0,0,0,1613,1609,1609,1611,0,0,0,0,0,1607,1609,1609,1609,1609,1609,1609,1609,1609,1609,1609,1609,1609,1609,1611,1613,
1743,1545,1545,1545,1545,1545,1547,0,0,1639,1641,1641,1613,0,0,1543,1545,1545,1545,1545,1545,1741,0,0,1613,1641,1641,1549,0,0,1549,0,0,1639,1641,1641,1641,1641,1641,1641,1641,1641,1641,1641,1641,1641,1641,1643,1613,
1613,1577,1577,1577,1577,1577,1579,0,0,0,0,0,1613,0,0,1575,1577,1577,1577,1577,1577,1613,0,0,1613,0,0,1613,0,0,1613,0,0,0,0,0,0,0,0,0,0,0,0,0,0,0,0,0,1613,
1613,1609,1609,1609,1609,1609,1611,0,0,0,0,0,1613,0,0,1607,1609,1609,1609,1609,1609,1613,0,0,1613,0,0,1613,0,0,1613,0,0,0,0,0,0,0,0,0,0,0,0,0,0,0,0,0,1613,
1551,1545,1545,1545,1545,1545,1545,1545,1545,1545,1545,1545,1871,1545,1545,1545,1545,1545,1545,1545,1545,1871,1545,1545,1871,1545,1545,1871,1545,1545,1871,1545,1545,1545,1545,1545,1545,1545,1545,1545,1545,1545,1545,1545,1545,1545,1545,1545,1899,
1575,1577,1577,1577,1577,1577,1577,1577,1577,1577,1577,1577,1577,1577,1577,1577,1577,1577,1577,1577,1577,1577,1577,1577,1577,1577,1577,1577,1577,1577,1577,1577,1577,1577,1577,1577,1577,1577,1577,1577,1577,1577,1577,1577,1577,1577,1577,1577,1579
</data>
 </layer>
 <layer id="7" name="Wall Roofs" width="49" height="80">
  <data encoding="csv">
0,0,0,0,0,0,0,0,0,0,0,0,0,0,0,0,0,0,0,0,0,0,0,0,0,0,0,0,0,0,0,0,0,0,0,0,0,0,0,0,0,0,0,0,0,0,0,0,0,
0,6064,6065,6066,6067,6068,0,0,0,0,0,0,0,0,0,0,0,0,0,0,0,0,0,0,0,0,0,0,0,0,0,0,0,0,0,0,0,0,0,0,0,0,0,0,0,0,0,0,0,
0,6084,6085,6086,6087,6088,0,0,0,0,0,0,0,0,0,0,0,0,0,0,0,0,0,0,0,0,0,0,0,0,0,0,0,0,0,0,0,0,0,0,0,0,0,0,0,0,0,0,0,
0,0,0,0,0,0,0,0,0,0,0,0,0,0,0,0,0,0,0,0,0,0,0,0,0,0,0,0,0,0,0,0,0,0,0,0,0,0,0,0,0,0,0,0,0,0,0,0,0,
0,0,0,0,0,0,0,0,0,0,0,0,0,0,0,0,0,0,0,0,0,0,0,0,0,0,0,0,0,0,0,0,0,0,0,0,0,0,0,0,0,0,0,0,0,0,0,0,0,
0,0,0,0,0,0,0,0,0,0,0,0,0,0,0,0,0,0,0,0,0,0,0,0,0,0,0,0,0,0,0,0,0,0,0,0,0,0,0,0,0,0,0,0,0,0,0,0,0,
0,0,0,0,0,0,0,0,0,0,0,0,0,0,0,0,0,0,0,0,0,0,0,0,0,0,0,0,0,0,0,0,0,0,0,0,0,0,0,0,0,0,0,0,0,0,0,0,0,
0,5530,5531,0,0,0,0,0,0,0,0,0,0,0,0,0,0,0,0,0,0,0,0,0,0,0,0,0,0,0,0,0,0,0,0,0,0,0,0,0,0,0,0,0,0,0,0,0,0,
0,5550,5551,0,0,0,0,0,0,0,0,0,0,0,0,0,0,0,0,0,0,0,0,0,0,0,0,0,0,0,0,0,0,0,0,0,0,0,0,0,0,0,0,0,0,0,0,0,0,
0,5570,5571,0,0,0,0,0,0,0,0,0,0,0,0,0,0,0,0,0,0,0,0,0,0,0,0,0,0,0,0,0,0,0,0,0,0,0,0,0,0,0,0,0,0,0,0,0,0,
0,5590,5591,0,0,0,0,0,0,0,0,0,0,0,0,0,0,0,0,0,0,0,0,0,0,0,0,0,0,0,0,0,0,0,0,0,0,0,0,0,0,0,0,0,0,0,0,0,0,
0,0,0,0,0,0,0,0,0,0,0,0,0,0,0,0,0,0,0,0,0,0,0,0,0,0,0,0,0,0,0,0,0,0,0,0,0,0,0,0,0,0,0,0,0,0,0,0,0,
0,0,0,0,0,0,0,0,0,0,0,0,0,0,0,0,0,0,0,0,0,0,0,0,0,0,0,0,0,0,0,0,0,0,0,0,0,0,0,0,0,0,0,0,0,0,0,0,0,
0,0,0,0,0,0,0,0,0,0,0,0,0,0,0,0,0,0,0,0,0,0,0,0,0,0,0,0,0,0,0,0,0,0,0,0,0,0,0,0,0,0,0,0,0,0,0,0,0,
0,0,0,0,0,0,0,0,0,0,0,0,0,0,0,0,0,0,0,0,0,0,0,0,0,0,0,0,0,0,0,0,0,0,0,0,0,0,0,0,0,0,0,0,0,0,0,0,0,
0,0,0,0,0,0,0,0,0,0,0,0,0,0,0,0,0,0,0,0,0,0,0,0,0,0,0,0,0,0,0,0,0,0,0,0,0,0,0,0,0,0,0,0,0,0,0,0,0,
0,0,0,0,0,0,0,0,0,0,0,0,0,0,0,0,0,0,0,0,0,0,0,0,0,0,0,0,0,0,0,0,0,0,0,0,0,0,0,0,0,0,0,0,0,0,0,0,0,
0,0,0,0,0,0,0,0,0,0,0,0,0,0,0,0,0,0,0,0,0,0,0,0,0,0,0,0,0,0,0,0,0,0,0,0,0,0,0,0,0,0,0,0,0,0,0,0,0,
0,0,0,0,0,0,0,0,0,0,0,0,0,0,0,0,0,0,0,0,0,0,0,0,0,0,0,0,0,0,0,0,0,0,0,0,0,0,0,0,0,0,0,0,0,0,0,0,0,
0,0,0,0,0,0,0,0,0,0,0,0,0,0,0,0,0,0,0,0,0,0,0,0,0,0,0,0,0,0,0,0,0,0,0,0,0,0,0,0,0,0,0,0,0,0,0,0,0,
0,0,0,0,0,0,0,0,0,0,0,0,0,0,0,0,0,0,0,0,0,0,0,0,0,0,0,0,0,0,0,0,0,0,0,0,0,0,0,0,0,0,0,0,0,0,0,0,0,
0,0,0,0,0,0,0,0,0,0,0,0,0,0,0,0,0,0,0,0,0,0,0,0,0,0,0,0,0,0,0,0,0,0,0,0,0,0,0,0,0,0,0,0,0,0,0,0,0,
0,0,0,0,0,0,0,0,0,0,0,0,0,0,0,0,0,0,0,0,0,0,0,0,0,0,0,0,0,0,0,0,0,0,0,0,0,0,0,0,0,0,0,0,0,0,0,0,0,
0,0,0,0,0,0,0,0,0,0,0,0,0,0,0,0,0,0,0,0,0,0,0,0,0,0,0,0,0,0,0,0,0,0,0,0,0,0,0,0,0,0,0,0,0,0,0,0,0,
0,0,0,0,0,0,0,0,0,0,0,0,0,0,0,0,0,0,0,0,0,0,0,0,0,0,0,0,0,0,0,0,0,0,0,0,0,0,0,0,0,0,0,0,0,0,0,0,0,
0,0,0,0,0,0,0,0,0,0,0,0,0,0,0,0,0,0,0,0,0,0,0,0,0,0,0,0,0,0,0,0,0,0,0,0,0,0,0,0,0,0,0,0,0,0,0,0,0,
0,0,0,0,0,0,0,0,0,0,0,0,0,0,0,0,0,0,0,0,0,0,0,0,0,0,0,0,0,0,0,0,0,0,0,0,0,0,0,0,0,0,0,0,0,0,0,0,0,
0,0,0,0,0,0,0,0,0,0,0,0,0,0,0,0,0,0,0,0,0,0,0,0,0,0,0,0,0,0,0,0,0,0,0,0,0,0,0,0,0,0,0,0,0,0,0,0,0,
0,0,0,0,0,0,0,0,0,0,0,0,0,0,0,0,0,0,0,0,0,0,0,0,0,0,0,0,0,0,0,0,0,0,0,0,0,0,0,0,0,0,0,0,0,0,0,0,0,
0,0,0,0,0,0,0,0,0,0,0,0,0,0,0,0,0,0,0,0,0,0,0,0,0,0,0,0,0,0,0,0,0,0,0,0,0,0,0,0,0,0,0,0,0,0,0,0,0,
0,0,0,0,0,0,0,0,0,0,0,0,0,0,0,0,0,0,0,0,0,0,0,0,0,0,0,0,0,0,0,0,0,0,0,0,0,0,0,0,0,0,0,0,0,0,0,0,0,
0,0,0,0,0,0,0,0,0,0,0,0,0,0,0,0,0,0,0,0,0,0,0,0,0,0,0,0,0,0,0,0,0,0,0,0,0,0,0,0,0,0,0,0,0,0,0,0,0,
0,0,0,0,0,0,0,0,0,0,0,0,0,0,0,0,0,0,0,0,0,0,0,0,0,0,0,0,0,0,0,0,0,0,0,0,0,0,0,0,0,0,0,0,0,0,0,0,0,
0,0,0,0,0,0,0,0,0,0,0,0,0,0,0,0,0,0,0,0,0,0,0,0,0,0,0,0,0,0,0,0,0,0,0,0,0,0,0,0,0,0,0,0,0,0,0,0,0,
0,0,0,0,0,0,0,0,0,0,0,0,0,0,0,0,0,0,0,0,0,0,0,0,0,0,0,0,0,0,0,0,0,0,0,0,0,0,0,0,0,0,0,0,0,0,0,0,0,
0,0,0,0,0,0,0,0,0,0,0,0,0,0,0,0,0,0,0,0,0,0,0,0,0,0,0,0,0,0,0,0,0,0,0,0,0,0,0,0,0,0,0,0,0,0,0,0,0,
0,0,0,0,0,0,0,0,0,0,0,0,0,0,0,0,0,0,0,0,0,0,0,0,0,0,0,0,0,0,0,0,0,0,0,0,0,0,0,0,0,0,0,0,0,0,0,0,0,
0,0,0,0,0,0,0,0,0,0,0,0,0,0,0,0,0,0,0,0,0,0,0,0,0,0,0,0,0,0,0,0,0,0,0,0,0,0,0,0,0,0,0,0,0,0,0,0,0,
0,0,0,0,0,0,0,0,0,0,0,0,0,0,0,0,0,0,0,0,0,0,0,0,0,0,0,0,0,0,0,0,0,0,0,0,0,0,0,0,0,0,0,0,0,0,0,0,0,
0,0,0,0,0,0,0,0,0,0,0,0,0,0,0,0,0,0,0,0,0,0,0,0,0,0,0,0,0,0,0,0,0,0,0,0,0,0,0,0,0,0,0,0,0,0,0,0,0,
0,0,0,0,0,0,0,0,0,0,0,0,0,0,0,0,0,0,0,0,0,0,0,0,0,0,0,4751,4752,4753,4754,0,0,0,0,0,0,0,0,0,0,0,0,0,0,0,0,0,0,
0,0,0,0,0,0,0,0,0,0,0,0,0,0,0,0,0,0,0,0,0,0,0,0,0,0,0,4771,4772,4773,4774,0,0,0,0,0,0,0,0,0,0,0,0,0,0,0,0,0,0,
0,0,0,0,0,0,0,0,0,0,0,0,0,0,0,0,0,0,0,0,0,0,0,0,0,0,0,4791,4792,4793,4794,0,0,0,0,0,0,0,0,0,0,0,0,0,0,0,0,0,0,
0,0,0,0,0,0,0,0,0,0,0,0,0,0,0,0,0,0,0,0,0,0,0,0,0,0,0,0,0,0,0,0,0,0,0,0,0,0,0,0,0,0,0,0,0,0,0,0,0,
0,0,0,0,0,0,0,0,0,0,0,0,0,0,0,0,0,0,0,0,0,0,0,0,0,0,0,0,0,0,0,0,0,0,0,0,0,0,0,0,0,0,0,0,0,0,0,0,0,
0,0,0,0,0,0,0,0,0,0,0,0,0,0,0,0,0,0,0,0,0,0,0,0,0,0,0,0,0,0,0,0,0,0,0,0,0,0,0,0,0,0,0,0,0,0,0,0,0,
0,0,0,0,0,0,0,0,0,0,0,0,0,0,0,0,0,0,0,0,0,0,0,0,0,0,0,0,0,0,0,0,0,0,0,0,0,0,0,0,0,0,0,0,0,0,0,0,0,
0,0,0,0,0,0,0,0,0,0,0,0,0,0,0,0,0,0,0,0,0,0,0,0,0,0,0,0,0,0,0,0,0,0,0,0,0,0,0,0,0,0,0,0,0,0,0,0,0,
0,0,0,0,0,0,0,0,0,0,0,0,0,0,0,0,0,0,0,0,0,0,0,0,0,0,0,0,0,0,0,0,0,0,0,0,0,0,0,0,0,0,0,0,0,0,0,0,0,
0,0,0,0,0,0,0,0,0,0,0,0,0,0,0,0,0,0,0,0,0,0,0,0,0,0,0,0,0,0,0,0,0,0,0,0,0,0,0,0,0,0,0,0,0,0,0,0,0,
0,0,0,0,0,0,0,0,0,0,4704,4705,0,0,0,0,0,0,0,0,0,0,0,0,0,0,0,0,0,0,0,0,0,0,0,0,0,0,0,0,0,0,0,0,0,0,0,0,0,
0,0,0,0,0,0,0,0,0,0,4724,4725,0,0,0,0,0,0,0,0,0,0,0,0,0,0,0,0,0,0,0,0,0,0,0,0,0,0,0,0,0,0,0,0,0,0,0,0,0,
0,0,0,0,0,0,0,0,0,0,4744,4745,0,0,0,0,0,0,0,0,0,0,0,0,0,0,0,0,0,0,0,0,0,0,0,0,0,0,0,0,0,0,0,0,0,0,0,0,0,
0,0,0,0,0,0,0,0,0,0,0,0,0,0,0,0,0,0,0,0,0,0,0,0,0,0,0,0,0,0,0,0,0,0,0,0,0,0,0,0,0,0,0,0,0,0,0,0,0,
0,0,0,0,0,0,0,0,0,0,0,0,0,0,0,0,0,0,0,0,0,0,0,0,0,0,0,0,0,0,0,0,0,0,0,0,0,0,0,0,0,0,0,0,0,0,0,0,0,
0,0,0,0,0,0,0,0,0,0,0,0,0,0,0,0,0,0,0,0,0,0,0,0,0,0,0,0,0,0,0,0,0,0,0,0,0,0,0,0,0,0,0,0,0,0,0,0,0,
0,0,0,0,0,0,0,0,0,0,0,0,0,0,0,0,0,0,0,0,0,0,0,0,0,0,0,0,0,0,0,0,0,0,0,0,0,0,0,0,0,0,0,0,0,0,0,0,0,
0,0,0,0,0,0,0,0,0,0,0,0,0,0,0,0,0,0,0,0,0,0,0,0,0,0,0,0,0,0,0,0,0,0,0,0,0,0,0,0,0,0,0,0,0,0,0,0,0,
0,0,0,0,0,0,0,0,0,0,0,0,0,0,0,0,0,0,0,0,0,0,0,0,0,0,0,0,0,0,0,0,0,0,0,0,0,0,0,0,0,0,0,0,0,0,0,0,0,
0,0,0,0,0,0,0,0,0,0,0,0,0,0,0,0,0,0,0,0,0,0,0,0,0,0,0,0,0,0,0,0,0,0,0,0,0,0,0,0,0,0,0,0,0,0,0,0,0,
0,0,0,0,0,0,0,0,0,0,0,0,0,0,0,0,0,0,0,0,0,0,0,0,0,0,0,0,0,0,0,0,0,0,0,0,0,0,0,0,0,0,0,0,0,0,0,0,0,
0,0,0,0,0,0,0,0,0,0,0,0,0,0,0,0,0,0,0,0,0,0,0,0,0,0,0,0,0,0,0,0,0,0,0,0,0,0,0,0,0,0,0,0,0,0,0,0,0,
0,0,0,0,0,0,0,0,0,0,0,0,0,0,0,0,0,0,0,0,0,0,0,0,0,0,0,0,0,0,0,0,0,0,0,0,0,0,0,0,0,0,0,0,0,0,0,0,0,
0,0,0,0,0,0,0,0,0,0,0,0,0,0,0,0,0,0,0,0,0,0,0,0,0,0,0,0,0,0,0,0,0,0,0,0,0,0,0,0,0,0,0,0,0,0,0,0,0,
0,0,0,0,0,0,0,0,0,0,0,0,0,0,0,0,0,0,0,0,0,0,0,0,0,0,0,0,0,0,0,0,0,0,0,0,0,0,0,0,0,0,0,0,0,0,0,0,0,
0,0,0,0,0,0,0,0,0,0,0,0,0,0,0,0,0,0,0,0,0,0,0,0,0,0,0,0,0,0,0,0,0,0,0,0,0,0,0,0,0,0,0,0,0,0,0,0,0,
0,0,0,0,0,0,0,0,0,0,0,0,0,0,0,0,0,0,0,0,0,0,0,0,0,0,0,0,0,0,0,0,0,0,0,0,0,0,0,0,0,0,0,0,0,0,0,0,0,
0,0,0,0,0,0,0,0,0,0,0,0,0,0,0,0,0,0,0,0,0,0,0,0,0,0,0,0,0,0,0,0,0,0,0,0,0,0,0,0,0,0,0,0,0,0,0,0,0,
0,0,0,0,0,0,0,0,0,0,0,0,0,0,0,0,0,0,0,0,0,0,0,0,0,0,0,0,0,0,0,0,0,0,0,0,0,0,0,0,0,0,0,0,0,0,0,0,0,
0,0,0,0,0,0,0,0,0,0,0,0,0,0,0,0,0,0,0,0,0,0,0,0,0,0,0,0,0,0,0,0,0,0,0,0,0,0,0,0,0,0,0,0,0,0,0,0,0,
0,0,0,0,0,0,0,0,0,0,0,0,0,0,0,0,0,0,0,0,0,0,0,0,0,0,0,0,0,0,0,0,0,0,0,0,0,0,0,0,0,0,0,0,0,0,0,0,0,
0,0,0,0,0,0,0,0,0,0,0,0,0,0,0,0,0,0,0,0,0,0,0,0,0,0,0,0,0,0,0,0,0,0,0,0,0,0,0,0,0,0,0,0,0,0,0,0,0,
0,0,0,0,0,0,0,0,0,0,0,0,0,0,0,0,0,0,0,0,0,0,0,0,0,0,0,0,0,0,0,0,0,0,0,0,0,0,0,0,0,0,0,0,0,0,0,0,0,
0,0,0,0,0,0,0,0,0,0,0,0,0,0,0,0,0,0,0,0,0,0,0,0,0,0,0,0,0,0,0,0,0,0,0,0,0,0,0,0,0,0,0,0,0,0,0,0,0,
0,0,0,0,0,0,0,0,0,0,0,0,0,0,0,0,0,0,0,0,0,0,0,0,0,0,0,0,0,0,0,0,0,0,0,0,0,0,0,0,0,0,0,0,0,0,0,0,0,
0,0,0,0,0,0,0,0,0,0,0,0,0,0,0,0,0,0,0,0,0,0,0,0,0,0,0,0,0,0,0,0,0,0,0,0,0,0,0,0,0,0,0,0,0,0,0,0,0,
0,0,0,0,0,0,0,0,0,0,0,0,0,0,0,0,0,0,0,0,0,0,0,0,0,0,0,0,0,0,0,0,0,0,0,0,0,0,0,0,0,0,0,0,0,0,0,0,0,
0,0,0,0,0,0,0,0,0,0,0,0,0,0,0,0,0,0,0,0,0,0,0,0,0,0,0,0,0,0,0,0,0,0,0,0,0,0,0,0,0,0,0,0,0,0,0,0,0,
0,0,0,0,0,0,0,0,0,0,0,0,0,0,0,0,0,0,0,0,0,0,0,0,0,0,0,0,0,0,0,0,0,0,0,0,0,0,0,0,0,0,0,0,0,0,0,0,0,
0,0,0,0,0,0,0,0,0,0,0,0,0,0,0,0,0,0,0,0,0,0,0,0,0,0,0,0,0,0,0,0,0,0,0,0,0,0,0,0,0,0,0,0,0,0,0,0,0
</data>
 </layer>
 <layer id="4" name="soln" width="49" height="80" visible="0" opacity="0">
  <data encoding="csv">
0,0,0,0,0,0,0,0,0,0,0,0,0,0,0,0,0,0,0,0,0,0,0,0,0,0,0,0,0,0,0,0,0,0,0,0,0,0,0,0,0,0,0,0,0,0,0,0,0,
0,0,0,0,0,0,0,0,0,0,0,0,0,0,0,0,0,0,0,0,0,0,0,0,0,0,0,0,0,0,0,0,0,0,0,0,0,0,0,0,0,0,0,0,0,0,0,0,0,
0,0,0,0,0,0,0,0,0,0,0,0,0,0,0,0,0,0,0,0,0,0,0,0,0,0,0,0,0,0,0,0,0,0,0,0,0,0,0,0,0,0,0,0,0,0,0,0,0,
0,0,0,0,0,0,0,0,0,0,0,0,0,0,0,0,0,0,0,0,0,0,0,0,0,0,0,0,0,0,0,0,0,0,0,0,0,0,0,0,0,0,0,0,0,0,0,0,0,
0,0,0,0,0,0,0,0,0,0,0,0,0,0,0,0,0,0,0,0,0,0,0,0,0,0,0,0,0,0,0,0,0,0,0,0,0,0,0,0,0,0,0,0,0,0,0,0,0,
0,0,0,0,0,0,0,0,0,0,0,0,0,0,0,0,0,0,0,0,0,0,0,0,0,0,0,0,0,0,0,0,0,0,0,0,0,0,0,0,0,0,0,0,0,0,0,0,0,
0,0,0,0,0,0,0,0,0,0,0,0,0,0,0,0,0,0,0,0,0,0,0,0,0,0,0,0,0,0,0,0,0,0,0,0,0,0,0,0,0,0,0,0,0,0,0,0,0,
0,0,0,0,0,0,0,0,0,0,0,0,0,0,0,0,0,0,0,0,0,0,0,0,0,0,0,0,0,0,0,0,0,0,0,0,0,0,0,0,0,0,0,0,0,0,0,0,0,
0,0,0,0,0,0,0,0,0,0,0,0,0,0,0,0,0,0,0,0,0,0,0,0,0,0,0,0,0,0,0,0,0,0,0,0,0,0,0,0,0,0,0,0,0,0,0,0,0,
0,0,0,0,0,0,0,0,0,0,0,0,0,0,0,0,0,0,0,0,0,0,0,0,0,0,0,0,0,0,0,0,0,0,0,0,0,0,0,0,0,0,0,0,0,0,0,0,0,
0,0,0,0,0,0,0,0,0,0,0,0,0,0,0,0,0,0,0,0,0,0,0,0,0,0,0,0,0,0,0,0,0,0,0,0,0,0,0,0,0,0,0,0,0,0,0,0,0,
0,0,0,0,0,0,0,0,0,0,0,0,0,0,0,0,0,0,0,0,0,0,0,0,0,0,0,0,0,0,0,0,0,0,0,0,0,0,0,0,0,0,0,0,0,0,0,0,0,
0,0,0,0,0,0,0,0,0,0,0,0,0,0,0,0,0,0,0,0,0,0,0,0,0,0,0,0,0,0,0,0,0,0,0,0,0,0,0,0,0,0,0,0,0,0,0,0,0,
0,0,0,0,0,0,0,0,0,0,0,0,0,0,0,0,0,0,0,0,0,0,0,0,0,0,0,0,0,0,0,0,0,0,0,0,0,0,0,0,0,0,0,0,0,0,0,0,0,
0,0,0,0,0,0,0,0,0,0,0,0,0,0,0,0,0,0,0,0,0,0,0,0,0,0,0,0,0,0,0,0,0,0,0,0,0,0,0,0,0,0,0,0,0,0,0,0,0,
0,0,0,0,0,0,0,0,0,0,0,0,0,0,0,0,0,0,0,0,0,0,0,0,0,0,0,0,0,0,0,0,0,0,0,0,0,0,0,0,0,0,0,0,0,0,0,0,0,
0,0,0,0,0,0,0,0,0,0,0,0,0,0,0,0,0,0,0,0,0,0,0,0,0,0,0,0,0,0,0,0,0,0,0,0,0,0,0,0,0,0,0,0,0,0,0,0,0,
0,0,0,0,0,0,0,0,0,0,0,0,0,0,0,0,0,0,0,0,0,0,0,0,0,0,0,0,0,0,0,0,0,0,0,0,0,0,0,0,0,0,0,0,0,0,0,0,0,
0,0,0,0,0,0,0,0,0,0,0,0,0,0,0,0,0,0,0,0,0,0,0,0,0,0,0,0,0,0,0,0,0,0,0,0,0,0,0,0,0,0,0,0,0,0,0,0,0,
0,0,0,0,0,0,0,0,0,0,0,0,0,0,0,0,0,0,0,0,0,0,0,0,0,0,0,0,0,0,0,0,0,0,0,0,0,0,0,0,0,0,0,0,0,0,0,0,0,
0,0,0,0,0,0,0,0,0,0,0,0,0,0,0,0,0,0,0,0,0,0,0,0,0,0,0,0,0,0,0,0,0,0,0,0,0,0,0,0,0,0,0,0,0,0,0,0,0,
0,0,0,0,0,0,0,0,0,0,0,0,0,0,0,0,0,0,0,0,0,0,0,0,0,0,0,0,0,0,0,0,0,0,0,0,0,0,0,0,0,0,0,0,0,0,0,0,0,
0,0,0,0,0,0,0,0,0,0,0,0,0,0,0,0,0,0,0,0,0,0,0,0,0,0,0,0,0,0,0,0,0,0,0,0,0,0,0,0,0,0,0,0,0,0,0,0,0,
0,0,0,0,0,0,0,0,0,0,0,0,0,0,0,0,0,0,0,0,0,0,0,0,0,0,0,0,0,0,0,0,0,0,0,0,0,0,0,0,0,0,0,0,0,0,0,0,0,
0,0,0,0,0,0,0,0,0,0,0,0,0,0,0,0,0,0,0,0,0,0,0,0,0,0,0,0,0,0,0,0,0,0,0,0,0,0,0,0,0,0,0,0,0,0,0,0,0,
0,0,0,0,0,0,0,0,0,0,0,0,0,0,0,0,0,0,0,0,0,0,0,0,0,0,0,0,0,0,0,0,0,0,0,0,0,0,0,0,0,0,0,0,0,0,0,0,0,
0,0,0,0,0,0,0,0,0,0,0,0,0,0,0,0,0,0,0,0,0,0,0,0,0,0,0,0,0,0,0,0,0,0,0,0,0,0,0,0,0,0,0,0,0,0,0,0,0,
0,0,0,0,0,0,0,0,0,0,0,0,0,0,0,0,0,0,0,0,0,0,0,0,0,0,0,0,0,0,0,0,0,0,0,0,0,0,0,0,0,0,0,0,0,0,0,0,0,
0,0,0,0,0,0,0,0,0,0,0,0,0,0,0,0,0,0,0,0,0,0,0,0,0,0,0,0,0,0,0,0,0,0,0,0,0,0,0,0,0,0,0,0,0,0,0,0,0,
0,0,0,0,0,0,0,0,0,0,0,0,0,0,0,0,0,0,0,0,0,0,0,0,0,0,0,0,0,0,0,0,0,0,0,0,0,0,0,0,0,0,0,0,0,0,0,0,0,
0,0,0,0,0,0,0,0,0,0,0,0,0,0,0,0,0,0,0,0,0,0,0,0,0,0,0,0,0,0,0,0,0,0,0,0,0,0,0,0,0,0,0,0,0,0,0,0,0,
0,0,0,0,0,0,0,0,0,0,0,0,0,0,0,0,0,0,0,0,0,0,0,0,0,0,0,0,0,0,0,0,0,0,0,0,0,0,0,0,0,0,0,0,0,0,0,0,0,
0,0,0,0,0,0,0,0,0,0,0,0,0,0,0,0,0,0,0,0,0,0,0,0,0,0,0,0,0,0,0,0,0,0,0,0,0,0,0,0,0,0,0,0,0,0,0,0,0,
0,0,0,0,0,0,0,0,0,0,0,0,0,0,0,0,0,0,0,0,0,0,0,0,0,0,0,0,0,0,0,0,0,0,0,0,0,0,0,0,0,0,0,0,0,0,0,0,0,
0,0,0,0,0,0,0,0,0,0,0,0,0,0,0,0,0,0,0,0,0,0,0,0,0,0,0,0,0,0,0,0,0,0,0,0,0,0,0,0,0,0,0,0,0,0,0,0,0,
0,0,0,0,0,0,0,0,0,0,0,0,0,0,0,0,0,0,0,0,0,0,0,0,0,0,0,0,0,0,0,0,0,0,0,0,0,0,0,0,0,0,0,0,0,0,0,0,0,
0,0,0,0,0,0,0,0,0,0,0,0,0,0,0,0,0,0,0,0,0,0,0,0,0,0,0,0,0,0,0,0,0,0,0,0,0,0,0,0,0,0,0,0,0,0,0,0,0,
0,0,0,0,0,0,0,0,0,0,0,0,0,0,0,0,0,0,0,0,0,0,0,0,0,0,0,0,0,0,0,0,0,0,0,0,0,0,0,0,0,0,0,0,0,0,0,0,0,
0,0,0,0,0,0,0,0,0,0,0,0,0,0,0,0,0,0,0,0,0,0,0,0,0,0,0,0,0,0,0,0,0,0,0,0,0,0,0,0,0,0,0,0,0,0,0,0,0,
0,0,0,0,0,0,0,0,0,0,0,0,0,0,0,0,0,0,0,0,0,0,0,0,0,0,0,0,0,0,0,0,0,0,0,0,0,0,0,0,0,0,0,0,0,0,0,0,0,
0,0,0,0,0,0,0,0,0,0,0,0,0,0,0,0,0,0,0,0,0,0,0,0,0,0,0,0,0,0,0,0,0,0,0,0,0,0,0,0,0,0,0,0,0,0,0,0,0,
0,0,0,0,0,0,0,0,0,0,0,0,0,0,0,0,0,0,0,0,0,0,0,0,0,0,0,0,0,0,0,0,0,0,0,0,0,0,0,0,0,0,0,0,0,0,0,0,0,
0,0,0,0,0,0,0,0,0,0,0,0,0,0,0,0,0,0,0,0,0,0,0,0,0,0,0,0,0,0,0,0,0,0,0,0,0,0,0,0,0,0,0,0,0,0,0,0,0,
0,0,0,0,0,0,0,0,0,0,0,0,0,0,0,0,0,0,0,0,0,0,0,0,0,0,0,0,0,0,0,0,0,0,0,0,0,0,0,0,0,0,0,0,0,0,0,0,0,
0,0,0,0,0,0,0,0,0,0,0,0,0,0,0,0,0,0,0,0,0,0,0,0,0,0,0,0,0,0,0,0,0,0,0,0,0,0,0,0,0,0,0,0,0,0,0,0,0,
0,0,0,0,0,0,0,0,0,0,0,0,0,0,0,0,0,0,0,0,0,0,0,0,0,0,0,0,0,0,0,0,0,0,0,0,0,0,0,0,0,0,0,0,0,0,0,0,0,
0,0,0,0,0,0,0,0,0,0,0,0,0,0,0,0,0,0,0,0,0,0,0,0,0,0,0,0,0,0,0,0,0,0,0,0,0,0,0,0,0,0,0,0,0,0,0,0,0,
0,0,0,0,0,0,0,0,0,0,0,0,0,0,0,0,0,0,0,0,0,0,0,0,0,0,0,0,0,0,0,0,0,0,0,0,0,0,0,0,0,0,0,0,0,0,0,0,0,
0,0,0,0,0,0,0,0,0,0,0,0,0,0,0,0,0,0,0,0,0,0,0,0,0,0,0,0,0,0,0,0,0,0,0,0,0,0,0,0,0,0,0,0,0,0,0,0,0,
0,0,0,0,0,0,0,0,0,0,0,0,0,0,0,0,0,0,0,0,0,0,0,0,0,0,0,0,0,0,0,0,0,0,0,0,0,0,0,0,0,0,0,0,0,0,0,0,0,
0,0,0,0,0,0,0,0,0,0,0,0,0,0,0,0,0,0,0,0,0,0,0,0,0,0,0,0,0,0,0,0,0,0,0,0,0,0,0,0,0,0,0,0,0,0,0,0,0,
0,0,0,0,0,0,0,0,0,0,0,0,0,0,0,0,0,0,0,0,0,0,0,0,0,0,0,0,0,0,0,0,0,0,0,0,0,0,0,0,0,0,0,0,0,0,0,0,0,
0,0,0,0,0,0,0,0,0,0,0,0,0,0,0,0,0,0,0,0,0,0,0,0,0,0,0,0,0,0,0,0,0,0,0,0,0,0,0,0,0,0,0,0,0,0,0,0,0,
0,0,0,0,0,0,0,0,0,0,0,0,0,0,0,0,0,0,0,0,0,0,0,0,0,0,0,0,0,0,0,0,0,0,0,0,0,0,0,0,0,0,0,0,0,0,0,0,0,
0,0,0,0,0,0,0,0,0,0,0,0,0,0,0,0,0,0,0,0,0,0,0,0,0,0,0,0,0,0,0,0,0,0,0,0,0,0,0,0,0,0,0,0,0,0,0,0,0,
0,0,0,0,0,0,0,0,0,0,0,0,0,0,0,0,0,0,0,0,0,0,0,0,0,0,0,0,0,0,0,0,0,0,0,0,0,0,0,0,0,0,0,0,0,0,0,0,0,
0,0,0,0,0,0,0,0,0,0,0,0,0,0,0,0,0,0,0,0,0,0,0,0,0,0,0,0,0,0,0,0,0,0,0,0,0,0,0,0,0,0,0,0,0,0,0,0,0,
0,0,0,0,0,0,0,0,0,0,0,0,0,0,0,0,0,0,0,0,0,0,0,0,0,0,0,0,0,0,0,0,0,0,0,0,0,0,0,0,0,0,0,0,0,0,0,0,0,
0,0,0,0,0,0,0,0,0,0,0,0,0,0,0,0,0,0,0,0,0,0,0,0,0,0,0,0,0,0,0,0,0,0,0,0,0,0,0,0,0,0,0,0,0,0,0,0,0,
0,0,0,0,0,0,0,0,0,0,0,0,0,0,0,0,0,0,0,0,0,0,0,0,0,0,0,0,0,0,0,0,0,0,0,0,0,0,0,0,0,0,0,0,0,0,0,0,0,
0,0,0,0,0,0,0,0,0,0,0,0,0,0,0,0,0,0,0,0,0,0,0,0,0,0,0,0,0,0,0,0,0,0,0,0,0,0,0,0,0,0,0,0,0,0,0,0,0,
0,0,0,0,0,0,0,0,0,0,0,0,0,0,0,0,0,0,0,0,0,0,0,0,0,0,0,0,0,0,0,0,0,0,0,0,0,0,0,0,0,0,0,0,0,0,0,0,0,
0,0,0,0,0,0,0,0,0,0,0,0,0,0,0,0,0,0,0,0,0,0,0,0,0,0,0,0,0,0,0,0,0,0,0,0,0,0,0,0,0,0,0,0,0,0,0,0,0,
0,0,0,0,0,0,0,0,0,0,0,0,0,0,0,0,0,0,0,0,0,0,0,0,0,0,0,0,0,0,0,0,0,0,0,0,0,0,0,0,0,0,0,0,0,0,0,0,0,
0,0,0,0,0,0,0,0,0,0,0,0,0,0,0,0,0,0,0,0,0,0,0,0,0,0,0,0,0,0,0,0,0,0,0,0,0,0,0,0,0,0,0,0,0,0,0,0,0,
0,0,0,0,0,0,0,0,0,0,0,0,0,0,0,0,0,0,0,0,0,0,0,0,0,0,0,0,0,0,0,0,0,0,0,0,0,0,0,0,0,0,0,0,0,0,0,0,0,
0,0,0,0,0,0,0,0,0,0,0,0,0,0,0,0,0,0,0,0,0,0,0,0,0,0,0,0,0,0,0,0,0,0,0,0,0,0,0,0,0,0,0,0,0,0,0,0,0,
0,0,0,0,0,0,0,0,0,0,0,0,0,0,0,0,0,0,0,0,0,0,0,0,0,0,0,0,0,0,0,0,0,0,0,0,0,0,0,0,0,0,0,0,0,0,0,0,0,
0,0,0,0,0,0,0,0,0,0,0,0,0,0,0,0,0,0,0,0,0,0,0,0,0,0,0,0,0,0,0,0,0,0,0,0,0,0,0,0,0,0,0,0,0,0,0,0,0,
0,0,0,0,0,0,0,0,0,0,0,0,0,0,0,0,0,0,0,0,0,0,0,0,0,0,0,0,0,0,0,0,0,0,0,0,0,0,0,0,0,0,0,0,0,0,0,0,0,
0,0,0,0,0,0,0,0,0,0,0,0,0,0,0,0,0,0,0,0,0,0,0,0,0,0,0,0,0,0,0,0,0,0,0,0,0,0,0,0,0,0,0,0,0,0,0,0,0,
0,0,0,0,0,0,0,0,0,0,0,0,0,0,0,0,0,0,0,0,0,0,0,0,0,0,0,0,0,0,0,0,0,0,0,0,0,0,0,0,0,0,0,0,0,0,0,0,0,
0,0,0,0,0,0,0,0,0,0,0,0,0,0,0,0,0,0,0,0,0,0,0,0,0,0,0,0,0,0,0,0,0,0,0,0,0,0,0,0,0,0,0,0,0,0,0,0,0,
0,0,0,0,0,0,0,0,0,0,0,0,0,0,0,0,0,0,0,0,0,0,0,0,0,0,0,0,0,0,0,0,0,0,0,0,0,0,0,0,0,0,0,0,0,0,0,0,0,
0,0,0,0,0,0,0,0,0,0,0,0,0,0,0,0,0,0,0,0,0,0,0,0,0,0,0,0,0,0,0,0,0,0,0,0,0,0,0,0,0,0,0,0,0,0,0,0,0,
0,0,0,0,0,0,0,0,0,0,0,0,0,0,0,0,0,0,0,0,0,0,0,0,0,0,0,0,0,0,0,0,0,0,0,0,0,0,0,0,0,0,0,0,0,0,0,0,0,
0,0,0,0,0,0,0,0,0,0,0,0,0,0,0,0,0,0,0,0,0,0,0,0,0,0,0,0,0,0,0,0,0,0,0,0,0,0,0,0,0,0,0,0,0,0,0,0,0,
0,0,0,0,0,0,0,0,0,0,0,0,0,0,0,0,0,0,0,0,0,0,0,0,0,0,0,0,0,0,0,0,0,0,0,0,0,0,0,0,0,0,0,0,0,0,0,0,0,
0,0,0,0,0,0,0,0,0,0,0,0,0,0,0,0,0,0,0,0,0,0,0,0,0,0,0,0,0,0,0,0,0,0,0,0,0,0,0,0,0,0,0,0,0,0,0,0,0,
0,0,0,0,0,0,0,0,0,0,0,0,0,0,0,0,0,0,0,0,0,0,0,0,0,0,0,0,0,0,0,0,0,0,0,0,0,0,0,0,0,0,0,0,0,0,0,0,0
</data>
 </layer>
 <layer id="5" name="Collision" width="49" height="80" visible="0" opacity="0">
  <data encoding="csv">
2306,2306,2306,2306,2306,2306,2306,2306,2306,2306,2306,2306,2306,2306,2306,2306,2306,2306,2306,2306,2306,2306,2306,2306,2306,2306,2306,2306,2306,2306,2306,2306,2306,2306,2306,2306,2306,2306,2306,2306,2306,2306,2306,2306,2306,2306,2306,2306,2306,
2306,2306,2306,2306,2306,2306,2306,2306,2306,2306,2306,2306,2306,2306,2306,2306,2306,2306,2306,2306,2306,2306,2306,2306,2306,2306,2306,2306,2306,2306,2306,2306,2306,2306,2306,2306,2306,2306,2306,2306,2306,2306,2306,2306,2306,2306,2306,2306,2306,
2306,2306,2306,2306,2306,2306,2306,2306,2306,2306,2306,2306,2306,2306,2306,2306,2306,2306,2306,2306,2306,2306,2306,2306,2306,2306,2306,2306,2306,2306,2306,2306,2306,2306,2306,2306,2306,2306,2306,2306,2306,2306,2306,2306,2306,2306,2306,2306,2306,
2306,2306,2306,2306,2306,2306,2306,2306,2306,2306,2306,2306,2306,2306,2306,2306,2306,2306,2306,2306,2306,2306,2306,2306,2306,2306,2306,2306,2306,2306,2306,2306,2306,2306,2306,2306,2306,2306,2306,2306,2306,2306,2306,2306,2306,2306,2306,2306,2306,
2306,0,0,0,0,0,2306,2306,2306,2306,2306,2306,2306,2306,0,0,0,0,0,0,0,0,0,0,0,0,0,0,0,0,0,0,0,0,0,0,0,0,0,0,0,0,0,0,0,0,0,0,2306,
2306,0,0,0,0,0,2306,2306,2306,2306,2306,2306,2306,2306,0,0,0,0,0,0,0,0,0,0,0,0,0,0,0,0,0,0,0,0,0,0,0,0,0,0,0,0,0,0,0,0,0,0,2306,
2306,0,0,0,0,0,2306,0,2306,0,2306,0,2306,2306,0,0,0,0,2306,0,0,0,0,0,0,0,0,0,0,0,0,0,0,0,0,0,0,0,0,0,0,0,0,0,0,2306,0,0,2306,
2306,0,0,0,0,0,2306,0,0,0,0,0,0,0,0,0,0,0,0,0,0,2306,0,0,2306,2306,2306,2306,2306,2306,2306,2306,2306,2306,2306,2306,2306,0,0,0,0,0,0,0,0,0,0,0,2306,
2306,0,0,0,0,0,2306,0,0,0,0,0,0,0,0,0,0,0,0,0,0,0,0,0,0,0,0,0,0,0,0,0,0,2306,0,0,0,0,0,0,0,0,0,2306,0,0,0,0,2306,
2306,2306,2306,2306,0,0,2306,0,0,0,0,0,0,0,0,2306,0,0,0,0,0,0,0,0,0,0,0,0,0,0,0,0,0,0,0,0,0,0,0,0,0,0,0,2306,0,0,0,0,2306,
2306,0,0,0,0,0,2306,0,0,0,0,0,0,0,0,0,0,0,0,0,0,0,0,0,0,0,0,0,0,0,0,0,0,0,0,0,0,0,0,0,0,0,0,2306,2306,2306,2306,2306,2306,
2306,0,0,0,0,0,2306,0,0,0,0,0,0,0,0,0,0,0,0,0,0,0,0,0,0,0,0,0,0,0,0,0,0,0,0,0,0,0,0,0,0,0,0,0,0,0,0,0,2306,
2306,0,0,0,0,0,2306,0,0,0,0,0,2306,2306,2306,2306,0,0,2306,0,0,2306,0,0,2306,0,0,2306,0,0,2306,0,0,2306,0,0,0,0,0,0,0,0,2306,0,0,0,0,0,2306,
2306,0,0,0,0,0,0,0,0,0,0,0,0,0,0,2306,0,0,0,0,0,0,0,0,0,0,0,0,0,0,0,0,0,0,0,0,0,0,0,0,0,0,0,0,0,0,0,0,2306,
2306,0,0,0,0,0,0,0,0,0,0,0,0,0,0,2306,0,0,0,0,0,0,0,0,0,0,0,0,0,0,0,0,0,0,0,0,0,0,0,0,0,0,0,0,0,0,0,0,2306,
2306,0,0,0,0,0,0,0,0,0,0,0,0,0,0,2306,0,0,0,0,0,0,0,0,0,0,0,0,0,0,0,0,0,0,0,0,2306,0,0,0,0,0,0,0,0,2306,0,0,2306,
2306,2306,2306,2306,0,0,0,0,0,0,0,0,0,0,0,2306,0,0,0,0,0,0,0,0,0,0,0,0,0,0,0,0,0,0,0,0,0,0,0,0,0,0,0,0,0,0,0,0,2306,
2306,0,0,0,0,0,0,0,0,0,0,0,0,0,0,2306,0,0,0,0,0,0,0,0,0,0,0,0,0,0,0,0,0,0,0,0,0,0,0,0,0,0,0,0,0,0,0,0,2306,
2306,0,0,0,0,0,0,0,0,2306,0,0,0,0,0,2306,2306,2306,2306,2306,2306,2306,2306,2306,2306,0,0,2306,2306,2306,2306,0,0,2306,0,0,0,0,0,2306,0,0,0,0,0,0,0,0,2306,
2306,0,0,0,0,0,0,0,0,0,0,0,0,0,0,2306,0,0,0,0,0,0,0,0,0,0,0,2306,0,0,2306,0,0,0,0,0,0,0,0,0,0,0,0,0,0,0,0,0,2306,
2306,0,0,0,0,0,0,0,0,0,0,0,0,0,0,2306,0,0,0,0,0,0,0,0,0,0,0,2306,0,0,0,0,0,0,0,0,0,0,0,0,0,0,2306,2306,2306,2306,2306,2306,2306,
2306,2306,2306,2306,2306,0,2306,0,0,2306,0,0,2306,0,0,2306,2306,2306,2306,0,0,2306,0,0,2306,2306,2306,2306,0,0,0,0,0,2306,0,0,2306,0,0,0,0,0,2306,0,0,2306,0,0,2306,
2306,0,0,0,0,0,0,0,0,0,0,0,2306,0,0,0,0,0,0,0,0,2306,0,0,0,0,0,2306,0,0,0,0,0,0,0,0,0,0,0,0,0,0,2306,0,0,2306,0,0,2306,
2306,0,0,0,0,0,0,0,0,0,0,0,2306,0,0,0,0,0,0,0,0,2306,0,0,0,0,0,0,0,0,0,0,0,0,0,0,0,0,0,0,0,0,2306,0,0,2306,0,0,2306,
2306,0,0,2306,0,0,2306,0,0,0,0,0,2306,0,0,0,0,0,0,0,0,2306,0,0,0,0,0,0,0,0,0,0,0,0,0,0,0,0,0,2306,2306,2306,2306,0,0,2306,0,0,2306,
2306,0,0,2306,0,0,2306,0,0,0,0,0,2306,0,0,0,0,0,0,0,0,2306,0,0,0,0,0,0,0,0,0,0,0,0,0,0,0,0,0,0,0,0,2306,0,0,2306,0,0,2306,
2306,0,0,2306,0,0,2306,0,0,0,0,0,2306,0,0,0,0,0,0,0,0,2306,0,0,0,0,0,0,0,0,0,0,0,0,0,0,0,0,0,0,0,0,2306,0,0,0,0,0,2306,
2306,2306,2306,2306,2306,2306,2306,2306,2306,2306,2306,2306,2306,0,0,2306,0,0,2306,2306,2306,2306,0,0,0,0,0,2306,0,0,2306,0,2306,2306,0,0,0,0,0,0,0,0,2306,0,0,0,0,0,2306,
2306,0,0,0,0,0,0,0,0,0,0,0,0,0,0,2306,0,0,0,0,0,2306,0,0,0,0,0,0,0,0,0,0,0,2306,0,0,0,0,2306,2306,2306,2306,2306,0,0,0,0,0,2306,
2306,0,0,0,0,0,0,0,0,0,0,0,0,0,0,2306,0,0,0,0,0,2306,0,0,0,0,0,0,0,0,0,0,0,2306,0,0,0,0,0,0,0,0,0,0,0,0,0,0,2306,
2306,0,0,0,0,0,0,0,0,0,0,0,2306,2306,2306,2306,0,0,0,0,0,2306,2306,2306,2306,0,0,0,0,0,0,0,0,2306,0,0,0,0,0,0,0,0,0,0,0,2306,0,0,2306,
2306,0,0,0,0,0,0,0,0,0,0,0,2306,0,0,2306,0,0,0,0,0,2306,0,0,0,0,0,0,0,0,0,0,0,2306,0,0,0,0,0,0,0,0,0,0,0,2306,0,0,2306,
2306,0,0,0,0,0,0,0,0,0,0,0,0,0,0,2306,0,0,0,0,0,2306,0,0,0,0,0,0,0,0,0,0,0,0,0,0,0,0,0,0,0,0,0,0,0,2306,0,0,2306,
2306,2306,2306,2306,2306,2306,2306,0,0,0,0,0,0,0,0,2306,0,0,0,0,0,2306,2306,2306,2306,0,0,2306,0,0,2306,0,0,0,0,0,2306,0,0,2306,0,0,2306,0,0,2306,0,0,2306,
2306,0,0,0,0,0,0,0,0,0,0,0,0,0,0,2306,0,0,0,0,0,0,0,0,0,0,0,0,0,0,0,0,0,0,0,0,0,0,0,2306,0,0,0,0,0,2306,0,0,2306,
2306,0,0,0,0,0,0,0,0,0,0,0,0,0,0,2306,0,0,0,0,0,0,0,0,0,0,0,0,0,0,0,0,0,0,0,0,0,0,0,2306,0,0,0,0,0,2306,0,0,2306,
2306,2306,2306,0,0,0,0,0,0,2306,2306,2306,2306,2306,2306,2306,0,0,0,0,0,0,0,0,0,0,0,0,0,0,0,0,0,2306,0,0,0,0,0,2306,0,0,0,0,0,2306,0,0,2306,
2306,0,0,0,0,0,0,0,0,2306,0,0,0,0,0,2306,0,0,0,0,0,0,0,0,0,0,0,0,0,0,0,0,0,0,0,0,0,0,0,2306,0,0,0,0,0,0,0,0,2306,
2306,0,0,0,0,0,0,0,0,2306,0,0,0,0,0,2306,0,0,0,0,0,0,0,0,0,0,0,0,0,0,0,0,0,0,0,0,0,0,0,2306,0,0,0,0,0,0,0,0,2306,
2306,0,0,0,0,0,0,0,0,2306,0,0,0,0,0,2306,0,0,0,0,0,0,0,0,0,0,0,2306,0,0,2306,0,0,0,0,0,0,0,0,2306,2306,2306,2306,0,0,0,0,0,2306,
2306,0,0,0,0,0,0,0,0,2306,0,0,0,0,0,2306,0,0,0,0,0,2306,2306,2306,2306,2306,2306,2306,2306,2306,2306,2306,0,0,0,0,0,0,0,0,0,0,2306,2306,2306,2306,0,0,2306,
2306,0,0,0,0,0,0,0,0,2306,0,0,0,0,0,2306,0,0,0,0,0,2306,0,0,0,0,0,0,0,0,0,0,0,0,0,0,0,0,0,0,0,0,0,0,0,0,0,0,2306,
2306,0,0,2306,2306,2306,2306,2306,2306,2306,2306,2306,2306,0,0,2306,2306,2306,2306,0,0,2306,0,0,0,0,0,2306,2306,2306,2306,0,0,2306,2306,2306,2306,0,0,0,0,0,0,0,0,0,0,0,2306,
2306,0,0,2306,0,0,0,0,0,2306,0,0,0,0,0,0,0,0,0,0,0,2306,0,0,0,0,0,0,0,0,0,0,0,2306,0,0,0,0,0,0,0,0,0,0,0,0,0,0,2306,
2306,0,0,2306,0,0,0,0,0,2306,0,0,0,0,0,0,0,0,0,0,0,2306,0,0,0,0,0,0,0,0,0,0,0,2306,0,0,0,0,0,0,0,0,0,0,0,0,0,0,2306,
2306,0,0,2306,0,0,0,0,0,2306,0,0,0,0,0,0,0,0,0,0,0,2306,0,0,0,0,0,0,0,0,0,0,0,2306,0,0,0,0,0,2306,2306,2306,2306,0,0,2306,0,0,2306,
2306,0,0,2306,0,0,0,0,0,2306,0,0,0,0,0,0,0,0,0,0,0,0,0,0,0,0,0,0,0,0,0,0,0,2306,0,0,0,0,0,2306,0,0,2306,0,0,2306,0,0,2306,
2306,0,0,2306,2306,2306,2306,0,0,2306,0,0,0,0,0,0,0,0,0,0,0,0,0,0,0,0,0,0,0,0,0,0,0,2306,0,0,0,0,0,0,0,0,2306,0,0,2306,0,0,2306,
2306,0,0,0,0,0,0,0,0,2306,2306,2306,2306,2306,2306,2306,0,0,0,0,0,0,0,0,0,0,0,0,0,0,2306,2306,2306,2306,0,0,0,0,0,0,0,0,0,0,0,0,0,0,2306,
2306,0,0,0,0,0,0,0,0,0,0,0,2306,0,0,2306,0,0,2306,0,0,0,0,2306,2306,2306,2306,2306,0,0,0,0,0,2306,0,0,0,0,0,0,0,0,0,0,0,0,0,0,2306,
2306,0,0,0,0,0,0,0,0,0,0,0,2306,0,0,0,0,0,2306,0,0,0,0,0,0,0,0,2306,0,0,0,0,0,2306,0,0,0,0,0,0,0,0,0,0,0,0,0,0,2306,
2306,0,0,2306,2306,2306,2306,0,0,0,0,0,2306,0,0,0,0,0,2306,0,0,0,0,0,0,0,0,2306,0,0,0,0,0,2306,0,0,0,0,0,0,0,0,0,0,0,0,0,0,2306,
2306,0,0,0,0,0,0,0,0,2306,2306,2306,2306,0,0,0,0,0,2306,2306,2306,2306,0,0,0,0,0,2306,0,0,0,0,0,0,0,0,2306,2306,2306,2306,2306,2306,2306,2306,2306,2306,2306,2306,2306,
2306,0,0,0,0,0,0,0,0,0,0,0,2306,0,0,0,0,0,0,0,0,2306,0,0,0,0,0,2306,0,0,0,0,0,0,0,0,0,0,0,0,0,0,0,0,0,0,0,0,2306,
2306,0,0,2306,2306,2306,2306,0,0,0,0,0,2306,2306,2306,2306,0,0,0,0,0,2306,0,0,2306,2306,2306,2306,0,0,0,0,0,0,0,0,0,0,0,0,0,0,0,0,0,0,0,0,2306,
2306,0,0,2306,0,0,2306,0,0,0,0,0,2306,0,0,2306,0,0,0,0,0,2306,2306,2306,2306,0,0,0,0,0,2306,2306,2306,2306,0,0,0,0,0,0,0,0,0,0,0,0,0,0,2306,
2306,0,0,0,0,0,0,0,0,0,0,0,0,0,0,2306,0,0,0,0,0,0,0,0,0,0,0,0,0,0,0,0,0,0,0,0,0,0,0,0,0,0,0,0,0,0,0,0,2306,
2306,0,0,0,0,0,0,0,0,2306,0,0,0,0,0,2306,2306,2306,2306,0,0,0,0,0,0,0,0,2306,0,0,0,0,0,0,0,0,2306,2306,2306,2306,0,0,0,0,0,0,0,0,2306,
2306,0,0,0,0,0,0,0,0,2306,0,0,0,0,0,0,0,0,0,0,0,0,0,0,0,0,0,0,0,0,0,0,0,0,0,0,2306,0,0,2306,0,0,0,2306,2306,2306,2306,2306,2306,
2306,0,0,0,0,0,0,0,0,2306,0,0,0,0,0,0,0,0,0,0,0,0,0,0,0,0,0,0,0,0,0,0,0,0,0,0,0,0,0,0,0,0,0,0,0,0,0,0,2306,
2306,2306,2306,2306,0,0,2306,0,0,2306,0,0,0,0,0,0,0,0,2306,2306,2306,2306,0,0,2306,0,0,0,0,0,2306,2306,2306,2306,0,0,0,0,0,0,0,0,0,0,0,0,0,0,2306,
2306,0,0,2306,0,0,2306,0,0,2306,0,0,0,0,0,0,0,0,2306,0,0,0,0,0,0,0,0,0,0,0,2306,0,0,0,0,0,0,0,0,0,0,0,0,0,0,0,0,0,2306,
2306,0,0,0,0,0,0,0,0,2306,0,0,0,0,0,2306,0,0,2306,0,0,0,0,0,0,0,0,0,0,0,2306,0,0,0,0,0,0,0,0,0,0,0,0,0,0,0,0,0,2306,
2306,0,0,0,0,0,0,0,0,2306,2306,2306,2306,0,0,2306,2306,2306,2306,0,0,2306,0,0,0,0,0,2306,0,0,2306,2306,2306,2306,2306,2306,2306,0,0,2306,2306,2306,0,0,0,2306,2306,2306,2306,
2306,0,0,0,0,0,0,0,0,2306,0,0,0,0,0,2306,0,0,0,0,0,0,0,0,0,0,0,2306,0,0,2306,0,0,0,0,0,0,0,0,0,0,0,0,0,0,0,0,0,2306,
2306,0,0,0,0,0,0,0,0,2306,0,0,0,0,0,0,0,0,0,0,0,0,0,0,0,0,0,2306,0,0,2306,0,0,0,0,0,0,0,0,0,0,0,0,0,0,0,0,0,2306,
2306,0,0,2306,2306,2306,2306,0,0,2306,0,0,0,0,0,0,0,0,2306,0,0,0,0,0,2306,0,0,2306,2306,2306,2306,0,0,2306,2306,2306,2306,2306,2306,2306,2306,2306,2306,0,0,2306,2306,2306,2306,
2306,0,0,2306,0,0,2306,0,0,2306,0,0,0,0,0,0,0,0,2306,0,0,0,0,0,0,0,0,0,0,0,0,0,0,0,0,0,0,0,0,0,0,0,2306,0,0,0,0,0,2306,
2306,0,0,2306,0,0,2306,0,0,2306,0,0,0,0,0,0,0,0,2306,0,0,0,0,0,0,0,0,0,0,0,0,0,0,0,0,0,0,0,0,0,0,0,2306,0,0,0,0,0,2306,
2306,0,0,2306,0,0,2306,0,0,2306,0,0,2306,0,0,2306,2306,2306,2306,0,0,2306,0,0,0,0,0,2306,2306,2306,2306,2306,2306,0,0,0,0,0,0,0,0,0,2306,0,0,0,0,0,2306,
2306,0,0,2306,0,0,2306,0,0,2306,0,0,2306,0,0,2306,0,0,0,0,0,0,0,0,0,0,0,0,0,0,0,0,2306,0,0,0,0,0,0,0,0,0,2306,0,0,0,0,0,2306,
2306,0,0,2306,0,0,0,0,0,2306,0,0,2306,0,0,2306,0,0,0,0,0,0,0,0,0,0,0,0,0,0,0,0,2306,0,0,0,0,0,0,0,0,0,2306,0,0,0,0,0,2306,
2306,2306,2306,2306,0,0,0,0,0,2306,2306,2306,2306,0,0,2306,0,0,2306,2306,2306,2306,0,0,2306,0,0,0,0,0,2306,2306,2306,2306,2306,2306,2306,0,0,2306,0,0,2306,2306,2306,0,2306,2306,2306,
2306,0,0,0,0,0,0,0,0,0,0,0,2306,0,0,0,0,0,0,0,0,0,0,0,2306,0,0,0,0,0,0,0,0,0,0,0,2306,0,0,2306,0,0,2306,0,0,0,0,0,2306,
2306,0,0,0,0,0,0,0,0,0,0,0,2306,0,0,0,0,0,0,0,0,0,0,0,2306,0,0,0,0,0,0,0,0,0,0,0,2306,0,0,2306,0,0,2306,0,0,0,0,0,2306,
2306,2306,2306,2306,2306,2306,2306,0,0,2306,2306,2306,2306,0,0,0,0,0,0,0,0,0,0,0,2306,2306,2306,2306,0,0,0,0,0,2306,2306,2306,2306,2306,2306,2306,2306,2306,2306,2306,2306,2306,2306,2306,2306,
2306,0,0,0,0,0,0,0,0,0,0,0,2306,0,0,0,0,0,0,0,0,0,0,0,2306,0,0,0,0,0,0,0,0,0,0,0,0,0,0,0,0,0,0,0,0,0,0,0,2306,
2306,0,0,0,0,0,0,0,0,0,0,0,2306,0,0,0,0,0,0,0,0,0,0,0,2306,0,0,0,0,0,0,0,0,0,0,0,0,0,0,0,0,0,0,0,0,0,0,0,2306,
2306,2306,2306,2306,2306,2306,2306,0,0,0,0,0,2306,0,0,2306,2306,2306,2306,2306,2306,2306,0,0,2306,0,0,2306,0,0,2306,0,0,0,0,0,0,0,0,0,0,0,0,0,0,0,0,0,2306,
2306,0,0,0,0,0,0,0,0,0,0,0,2306,0,0,0,0,0,0,0,0,2306,0,0,2306,0,0,2306,0,0,2306,0,0,0,0,0,0,0,0,0,0,0,0,0,0,0,0,0,2306
</data>
 </layer>
 <layer id="8" name="Winning" width="49" height="80" visible="0" opacity="0">
  <data encoding="csv">
0,0,0,0,0,0,0,0,0,0,0,0,0,0,0,0,0,0,0,0,0,0,0,0,0,0,0,0,0,0,0,0,0,0,0,0,0,0,0,0,0,0,0,0,0,0,0,0,0,
0,0,0,0,0,0,0,0,0,0,0,0,0,0,0,0,0,0,0,0,0,0,0,0,0,0,0,0,0,0,0,0,0,0,0,0,0,0,0,0,0,0,0,0,0,0,0,0,0,
0,0,0,0,0,0,0,0,0,0,0,0,0,0,0,0,0,0,0,0,0,0,0,0,0,0,0,0,0,0,0,0,0,0,0,0,0,0,0,0,0,0,0,0,0,0,0,0,0,
0,0,0,0,0,0,0,779,779,779,779,779,779,0,0,0,0,0,0,0,0,0,0,0,0,0,0,0,0,0,0,0,0,0,0,0,0,0,0,0,0,0,0,0,0,0,0,0,0,
0,0,0,0,0,0,0,3933,3933,3933,3933,3933,3933,0,0,0,0,0,0,0,0,0,0,0,0,0,0,0,0,0,0,0,0,0,0,0,0,0,0,0,0,0,0,0,0,0,0,0,0,
0,0,0,0,0,0,0,3933,3933,3933,3933,3933,3933,0,0,0,0,0,0,0,0,0,0,0,0,0,0,0,0,0,0,0,0,0,0,0,0,0,0,0,0,0,0,0,0,0,0,0,0,
0,0,0,0,0,0,0,3869,3869,3869,3869,3869,3933,0,0,0,0,0,0,0,0,0,0,0,0,0,0,0,0,0,0,0,0,0,0,0,0,0,0,0,0,0,0,0,0,0,0,0,0,
0,0,0,0,0,0,0,0,0,0,0,0,0,0,0,0,0,0,0,0,0,0,0,0,0,0,0,0,0,0,0,0,0,0,0,0,0,0,0,0,0,0,0,0,0,0,0,0,0,
0,0,0,0,0,0,0,0,0,0,0,0,0,0,0,0,0,0,0,0,0,0,0,0,0,0,0,0,0,0,0,0,0,0,0,0,0,0,0,0,0,0,0,0,0,0,0,0,0,
0,0,0,0,0,0,0,0,0,0,0,0,0,0,0,0,0,0,0,0,0,0,0,0,0,0,0,0,0,0,0,0,0,0,0,0,0,0,0,0,0,0,0,0,0,0,0,0,0,
0,0,0,0,0,0,0,0,0,0,0,0,0,0,0,0,0,0,0,0,0,0,0,0,0,0,0,0,0,0,0,0,0,0,0,0,0,0,0,0,0,0,0,0,0,0,0,0,0,
0,0,0,0,0,0,0,0,0,0,0,0,0,0,0,0,0,0,0,0,0,0,0,0,0,0,0,0,0,0,0,0,0,0,0,0,0,0,0,0,0,0,0,0,0,0,0,0,0,
0,0,0,0,0,0,0,0,0,0,0,0,0,0,0,0,0,0,0,0,0,0,0,0,0,0,0,0,0,0,0,0,0,0,0,0,0,0,0,0,0,0,0,0,0,0,0,0,0,
0,0,0,0,0,0,0,0,0,0,0,0,0,0,0,0,0,0,0,0,0,0,0,0,0,0,0,0,0,0,0,0,0,0,0,0,0,0,0,0,0,0,0,0,0,0,0,0,0,
0,0,0,0,0,0,0,0,0,0,0,0,0,0,0,0,0,0,0,0,0,0,0,0,0,0,0,0,0,0,0,0,0,0,0,0,0,0,0,0,0,0,0,0,0,0,0,0,0,
0,0,0,0,0,0,0,0,0,0,0,0,0,0,0,0,0,0,0,0,0,0,0,0,0,0,0,0,0,0,0,0,0,0,0,0,0,0,0,0,0,0,0,0,0,0,0,0,0,
0,0,0,0,0,0,0,0,0,0,0,0,0,0,0,0,0,0,0,0,0,0,0,0,0,0,0,0,0,0,0,0,0,0,0,0,0,0,0,0,0,0,0,0,0,0,0,0,0,
0,0,0,0,0,0,0,0,0,0,0,0,0,0,0,0,0,0,0,0,0,0,0,0,0,0,0,0,0,0,0,0,0,0,0,0,0,0,0,0,0,0,0,0,0,0,0,0,0,
0,0,0,0,0,0,0,0,0,0,0,0,0,0,0,0,0,0,0,0,0,0,0,0,0,0,0,0,0,0,0,0,0,0,0,0,0,0,0,0,0,0,0,0,0,0,0,0,0,
0,0,0,0,0,0,0,0,0,0,0,0,0,0,0,0,0,0,0,0,0,0,0,0,0,0,0,0,0,0,0,0,0,0,0,0,0,0,0,0,0,0,0,0,0,0,0,0,0,
0,0,0,0,0,0,0,0,0,0,0,0,0,0,0,0,0,0,0,0,0,0,0,0,0,0,0,0,0,0,0,0,0,0,0,0,0,0,0,0,0,0,0,0,0,0,0,0,0,
0,0,0,0,0,0,0,0,0,0,0,0,0,0,0,0,0,0,0,0,0,0,0,0,0,0,0,0,0,0,0,0,0,0,0,0,0,0,0,0,0,0,0,0,0,0,0,0,0,
0,0,0,0,0,0,0,0,0,0,0,0,0,0,0,0,0,0,0,0,0,0,0,0,0,0,0,0,0,0,0,0,0,0,0,0,0,0,0,0,0,0,0,0,0,0,0,0,0,
0,0,0,0,0,0,0,0,0,0,0,0,0,0,0,0,0,0,0,0,0,0,0,0,0,0,0,0,0,0,0,0,0,0,0,0,0,0,0,0,0,0,0,0,0,0,0,0,0,
0,0,0,0,0,0,0,0,0,0,0,0,0,0,0,0,0,0,0,0,0,0,0,0,0,0,0,0,0,0,0,0,0,0,0,0,0,0,0,0,0,0,0,0,0,0,0,0,0,
0,0,0,0,0,0,0,0,0,0,0,0,0,0,0,0,0,0,0,0,0,0,0,0,0,0,0,0,0,0,0,0,0,0,0,0,0,0,0,0,0,0,0,0,0,0,0,0,0,
0,0,0,0,0,0,0,0,0,0,0,0,0,0,0,0,0,0,0,0,0,0,0,0,0,0,0,0,0,0,0,0,0,0,0,0,0,0,0,0,0,0,0,0,0,0,0,0,0,
0,0,0,0,0,0,0,0,0,0,0,0,0,0,0,0,0,0,0,0,0,0,0,0,0,0,0,0,0,0,0,0,0,0,0,0,0,0,0,0,0,0,0,0,0,0,0,0,0,
0,0,0,0,0,0,0,0,0,0,0,0,0,0,0,0,0,0,0,0,0,0,0,0,0,0,0,0,0,0,0,0,0,0,0,0,0,0,0,0,0,0,0,0,0,0,0,0,0,
0,0,0,0,0,0,0,0,0,0,0,0,0,0,0,0,0,0,0,0,0,0,0,0,0,0,0,0,0,0,0,0,0,0,0,0,0,0,0,0,0,0,0,0,0,0,0,0,0,
0,0,0,0,0,0,0,0,0,0,0,0,0,0,0,0,0,0,0,0,0,0,0,0,0,0,0,0,0,0,0,0,0,0,0,0,0,0,0,0,0,0,0,0,0,0,0,0,0,
0,0,0,0,0,0,0,0,0,0,0,0,0,0,0,0,0,0,0,0,0,0,0,0,0,0,0,0,0,0,0,0,0,0,0,0,0,0,0,0,0,0,0,0,0,0,0,0,0,
0,0,0,0,0,0,0,0,0,0,0,0,0,0,0,0,0,0,0,0,0,0,0,0,0,0,0,0,0,0,0,0,0,0,0,0,0,0,0,0,0,0,0,0,0,0,0,0,0,
0,0,0,0,0,0,0,0,0,0,0,0,0,0,0,0,0,0,0,0,0,0,0,0,0,0,0,0,0,0,0,0,0,0,0,0,0,0,0,0,0,0,0,0,0,0,0,0,0,
0,0,0,0,0,0,0,0,0,0,0,0,0,0,0,0,0,0,0,0,0,0,0,0,0,0,0,0,0,0,0,0,0,0,0,0,0,0,0,0,0,0,0,0,0,0,0,0,0,
0,0,0,0,0,0,0,0,0,0,0,0,0,0,0,0,0,0,0,0,0,0,0,0,0,0,0,0,0,0,0,0,0,0,0,0,0,0,0,0,0,0,0,0,0,0,0,0,0,
0,0,0,0,0,0,0,0,0,0,0,0,0,0,0,0,0,0,0,0,0,0,0,0,0,0,0,0,0,0,0,0,0,0,0,0,0,0,0,0,0,0,0,0,0,0,0,0,0,
0,0,0,0,0,0,0,0,0,0,0,0,0,0,0,0,0,0,0,0,0,0,0,0,0,0,0,0,0,0,0,0,0,0,0,0,0,0,0,0,0,0,0,0,0,0,0,0,0,
0,0,0,0,0,0,0,0,0,0,0,0,0,0,0,0,0,0,0,0,0,0,0,0,0,0,0,0,0,0,0,0,0,0,0,0,0,0,0,0,0,0,0,0,0,0,0,0,0,
0,0,0,0,0,0,0,0,0,0,0,0,0,0,0,0,0,0,0,0,0,0,0,0,0,0,0,0,0,0,0,0,0,0,0,0,0,0,0,0,0,0,0,0,0,0,0,0,0,
0,0,0,0,0,0,0,0,0,0,0,0,0,0,0,0,0,0,0,0,0,0,0,0,0,0,0,0,0,0,0,0,0,0,0,0,0,0,0,0,0,0,0,0,0,0,0,0,0,
0,0,0,0,0,0,0,0,0,0,0,0,0,0,0,0,0,0,0,0,0,0,0,0,0,0,0,0,0,0,0,0,0,0,0,0,0,0,0,0,0,0,0,0,0,0,0,0,0,
0,0,0,0,0,0,0,0,0,0,0,0,0,0,0,0,0,0,0,0,0,0,0,0,0,0,0,0,0,0,0,0,0,0,0,0,0,0,0,0,0,0,0,0,0,0,0,0,0,
0,0,0,0,0,0,0,0,0,0,0,0,0,0,0,0,0,0,0,0,0,0,0,0,0,0,0,0,0,0,0,0,0,0,0,0,0,0,0,0,0,0,0,0,0,0,0,0,0,
0,0,0,0,0,0,0,0,0,0,0,0,0,0,0,0,0,0,0,0,0,0,0,0,0,0,0,0,0,0,0,0,0,0,0,0,0,0,0,0,0,0,0,0,0,0,0,0,0,
0,0,0,0,0,0,0,0,0,0,0,0,0,0,0,0,0,0,0,0,0,0,0,0,0,0,0,0,0,0,0,0,0,0,0,0,0,0,0,0,0,0,0,0,0,0,0,0,0,
0,0,0,0,0,0,0,0,0,0,0,0,0,0,0,0,0,0,0,0,0,0,0,0,0,0,0,0,0,0,0,0,0,0,0,0,0,0,0,0,0,0,0,0,0,0,0,0,0,
0,0,0,0,0,0,0,0,0,0,0,0,0,0,0,0,0,0,0,0,0,0,0,0,0,0,0,0,0,0,0,0,0,0,0,0,0,0,0,0,0,0,0,0,0,0,0,0,0,
0,0,0,0,0,0,0,0,0,0,0,0,0,0,0,0,0,0,0,0,0,0,0,0,0,0,0,0,0,0,0,0,0,0,0,0,0,0,0,0,0,0,0,0,0,0,0,0,0,
0,0,0,0,0,0,0,0,0,0,0,0,0,0,0,0,0,0,0,0,0,0,0,0,0,0,0,0,0,0,0,0,0,0,0,0,0,0,0,0,0,0,0,0,0,0,0,0,0,
0,0,0,0,0,0,0,0,0,0,0,0,0,0,0,0,0,0,0,0,0,0,0,0,0,0,0,0,0,0,0,0,0,0,0,0,0,0,0,0,0,0,0,0,0,0,0,0,0,
0,0,0,0,0,0,0,0,0,0,0,0,0,0,0,0,0,0,0,0,0,0,0,0,0,0,0,0,0,0,0,0,0,0,0,0,0,0,0,0,0,0,0,0,0,0,0,0,0,
0,0,0,0,0,0,0,0,0,0,0,0,0,0,0,0,0,0,0,0,0,0,0,0,0,0,0,0,0,0,0,0,0,0,0,0,0,0,0,0,0,0,0,0,0,0,0,0,0,
0,0,0,0,0,0,0,0,0,0,0,0,0,0,0,0,0,0,0,0,0,0,0,0,0,0,0,0,0,0,0,0,0,0,0,0,0,0,0,0,0,0,0,0,0,0,0,0,0,
0,0,0,0,0,0,0,0,0,0,0,0,0,0,0,0,0,0,0,0,0,0,0,0,0,0,0,0,0,0,0,0,0,0,0,0,0,0,0,0,0,0,0,0,0,0,0,0,0,
0,0,0,0,0,0,0,0,0,0,0,0,0,0,0,0,0,0,0,0,0,0,0,0,0,0,0,0,0,0,0,0,0,0,0,0,0,0,0,0,0,0,0,0,0,0,0,0,0,
0,0,0,0,0,0,0,0,0,0,0,0,0,0,0,0,0,0,0,0,0,0,0,0,0,0,0,0,0,0,0,0,0,0,0,0,0,0,0,0,0,0,0,0,0,0,0,0,0,
0,0,0,0,0,0,0,0,0,0,0,0,0,0,0,0,0,0,0,0,0,0,0,0,0,0,0,0,0,0,0,0,0,0,0,0,0,0,0,0,0,0,0,0,0,0,0,0,0,
0,0,0,0,0,0,0,0,0,0,0,0,0,0,0,0,0,0,0,0,0,0,0,0,0,0,0,0,0,0,0,0,0,0,0,0,0,0,0,0,0,0,0,0,0,0,0,0,0,
0,0,0,0,0,0,0,0,0,0,0,0,0,0,0,0,0,0,0,0,0,0,0,0,0,0,0,0,0,0,0,0,0,0,0,0,0,0,0,0,0,0,0,0,0,0,0,0,0,
0,0,0,0,0,0,0,0,0,0,0,0,0,0,0,0,0,0,0,0,0,0,0,0,0,0,0,0,0,0,0,0,0,0,0,0,0,0,0,0,0,0,0,0,0,0,0,0,0,
0,0,0,0,0,0,0,0,0,0,0,0,0,0,0,0,0,0,0,0,0,0,0,0,0,0,0,0,0,0,0,0,0,0,0,0,0,0,0,0,0,0,0,0,0,0,0,0,0,
0,0,0,0,0,0,0,0,0,0,0,0,0,0,0,0,0,0,0,0,0,0,0,0,0,0,0,0,0,0,0,0,0,0,0,0,0,0,0,0,0,0,0,0,0,0,0,0,0,
0,0,0,0,0,0,0,0,0,0,0,0,0,0,0,0,0,0,0,0,0,0,0,0,0,0,0,0,0,0,0,0,0,0,0,0,0,0,0,0,0,0,0,0,0,0,0,0,0,
0,0,0,0,0,0,0,0,0,0,0,0,0,0,0,0,0,0,0,0,0,0,0,0,0,0,0,0,0,0,0,0,0,0,0,0,0,0,0,0,0,0,0,0,0,0,0,0,0,
0,0,0,0,0,0,0,0,0,0,0,0,0,0,0,0,0,0,0,0,0,0,0,0,0,0,0,0,0,0,0,0,0,0,0,0,0,0,0,0,0,0,0,0,0,0,0,0,0,
0,0,0,0,0,0,0,0,0,0,0,0,0,0,0,0,0,0,0,0,0,0,0,0,0,0,0,0,0,0,0,0,0,0,0,0,0,0,0,0,0,0,0,0,0,0,0,0,0,
0,0,0,0,0,0,0,0,0,0,0,0,0,0,0,0,0,0,0,0,0,0,0,0,0,0,0,0,0,0,0,0,0,0,0,0,0,0,0,0,0,0,0,0,0,0,0,0,0,
0,0,0,0,0,0,0,0,0,0,0,0,0,0,0,0,0,0,0,0,0,0,0,0,0,0,0,0,0,0,0,0,0,0,0,0,0,0,0,0,0,0,0,0,0,0,0,0,0,
0,0,0,0,0,0,0,0,0,0,0,0,0,0,0,0,0,0,0,0,0,0,0,0,0,0,0,0,0,0,0,0,0,0,0,0,0,0,0,0,0,0,0,0,0,0,0,0,0,
0,0,0,0,0,0,0,0,0,0,0,0,0,0,0,0,0,0,0,0,0,0,0,0,0,0,0,0,0,0,0,0,0,0,0,0,0,0,0,0,0,0,0,0,0,0,0,0,0,
0,0,0,0,0,0,0,0,0,0,0,0,0,0,0,0,0,0,0,0,0,0,0,0,0,0,0,0,0,0,0,0,0,0,0,0,0,0,0,0,0,0,0,0,0,0,0,0,0,
0,0,0,0,0,0,0,0,0,0,0,0,0,0,0,0,0,0,0,0,0,0,0,0,0,0,0,0,0,0,0,0,0,0,0,0,0,0,0,0,0,0,0,0,0,0,0,0,0,
0,0,0,0,0,0,0,0,0,0,0,0,0,0,0,0,0,0,0,0,0,0,0,0,0,0,0,0,0,0,0,0,0,0,0,0,0,0,0,0,0,0,0,0,0,0,0,0,0,
0,0,0,0,0,0,0,0,0,0,0,0,0,0,0,0,0,0,0,0,0,0,0,0,0,0,0,0,0,0,0,0,0,0,0,0,0,0,0,0,0,0,0,0,0,0,0,0,0,
0,0,0,0,0,0,0,0,0,0,0,0,0,0,0,0,0,0,0,0,0,0,0,0,0,0,0,0,0,0,0,0,0,0,0,0,0,0,0,0,0,0,0,0,0,0,0,0,0,
0,0,0,0,0,0,0,0,0,0,0,0,0,0,0,0,0,0,0,0,0,0,0,0,0,0,0,0,0,0,0,0,0,0,0,0,0,0,0,0,0,0,0,0,0,0,0,0,0,
0,0,0,0,0,0,0,0,0,0,0,0,0,0,0,0,0,0,0,0,0,0,0,0,0,0,0,0,0,0,0,0,0,0,0,0,0,0,0,0,0,0,0,0,0,0,0,0,0,
0,0,0,0,0,0,0,0,0,0,0,0,0,0,0,0,0,0,0,0,0,0,0,0,0,0,0,0,0,0,0,0,0,0,0,0,0,0,0,0,0,0,0,0,0,0,0,0,0,
0,0,0,0,0,0,0,0,0,0,0,0,0,0,0,0,0,0,0,0,0,0,0,0,0,0,0,0,0,0,0,0,0,0,0,0,0,0,0,0,0,0,0,0,0,0,0,0,0
</data>
 </layer>
 <layer id="9" name="NoSpawn" width="49" height="80" visible="0" opacity="0">
  <data encoding="csv">
0,0,0,0,0,0,0,0,0,0,0,0,0,0,0,0,0,0,0,0,0,0,0,0,0,0,0,0,0,0,0,0,0,0,0,0,0,0,0,0,0,0,0,0,0,0,0,0,0,
0,0,0,0,0,0,0,0,0,0,0,0,0,0,0,0,0,0,0,0,0,0,0,0,0,0,0,0,0,0,0,0,0,0,0,0,0,0,0,0,0,0,0,0,0,0,0,0,0,
0,0,0,0,0,0,0,0,0,0,0,0,0,0,0,0,0,0,0,0,0,0,0,0,0,0,0,0,0,0,0,0,0,0,0,0,0,0,0,0,0,0,0,0,0,0,0,0,0,
0,0,0,0,0,0,0,0,0,0,0,0,0,0,0,0,0,0,0,0,0,0,0,0,0,0,0,0,0,0,0,0,0,0,0,0,0,0,0,0,0,0,0,0,0,0,0,0,0,
0,0,0,0,0,0,0,0,0,0,0,0,0,0,0,0,0,0,0,0,0,0,0,0,0,0,0,0,0,0,0,0,0,0,0,0,0,0,0,0,0,0,0,0,0,0,0,0,0,
0,0,0,0,0,0,0,0,0,0,0,0,0,0,0,0,0,0,0,0,0,0,0,0,0,0,0,0,0,0,0,0,0,0,0,0,0,0,0,0,0,0,0,0,0,0,0,0,0,
0,0,0,0,0,0,0,0,0,0,0,0,0,0,0,0,0,0,0,0,0,0,0,0,0,0,0,0,0,0,0,0,0,0,0,0,0,0,0,0,0,0,0,0,0,0,0,0,0,
0,0,0,0,0,0,0,0,0,0,0,0,0,0,0,0,0,0,0,0,0,0,0,0,0,0,0,0,0,0,0,0,0,0,0,0,0,0,0,0,0,0,0,0,0,0,0,0,0,
0,0,0,0,0,0,0,0,0,0,0,0,0,0,0,0,0,0,0,0,0,0,0,0,0,0,0,0,0,0,0,0,0,0,0,0,0,0,0,0,0,0,0,0,0,0,0,0,0,
0,0,0,0,0,0,0,0,0,0,0,0,0,0,0,0,0,0,0,0,0,0,0,0,0,0,0,0,0,0,0,0,0,0,0,0,0,0,0,0,0,0,0,0,0,0,0,0,0,
0,0,0,0,0,0,0,0,0,0,0,0,0,0,0,0,0,0,0,0,0,0,0,0,0,0,0,0,0,0,0,0,0,0,0,0,0,0,0,0,0,0,0,0,0,0,0,0,0,
0,0,0,0,0,0,0,0,0,0,0,0,0,0,0,0,0,0,0,0,0,0,0,0,0,0,0,0,0,0,0,0,0,0,0,0,0,0,0,0,0,0,0,0,0,0,0,0,0,
0,0,0,0,0,0,0,0,0,0,0,0,0,0,0,0,0,0,0,0,0,0,0,0,0,0,0,0,0,0,0,0,0,0,0,0,0,0,0,0,0,0,0,0,0,0,0,0,0,
0,0,0,0,0,0,0,0,0,0,0,0,0,0,0,0,0,0,0,0,0,0,0,0,0,0,0,0,0,0,0,0,0,0,0,0,0,0,0,0,0,0,0,0,0,0,0,0,0,
0,0,0,0,0,0,0,0,0,0,0,0,0,0,0,0,0,0,0,0,0,0,0,0,0,0,0,0,0,0,0,0,0,0,0,0,0,0,0,0,0,0,0,0,0,0,0,0,0,
0,0,0,0,0,0,0,0,0,0,0,0,0,0,0,0,0,0,0,0,0,0,0,0,0,0,0,0,0,0,0,0,0,0,0,0,0,0,0,0,0,0,0,0,0,0,0,0,0,
0,0,0,0,0,0,0,0,0,0,0,0,0,0,0,0,0,0,0,0,0,0,0,0,0,0,0,0,0,0,0,0,0,0,0,0,0,0,0,0,0,0,0,0,0,0,0,0,0,
0,0,0,0,0,0,0,0,0,0,0,0,0,0,0,0,0,0,0,0,0,0,0,0,0,0,0,0,0,0,0,0,0,0,0,0,0,0,0,0,0,0,0,0,0,0,0,0,0,
0,0,0,0,0,0,0,0,0,0,0,0,0,0,0,0,0,0,0,0,0,0,0,0,0,0,0,0,0,0,0,0,0,0,0,0,0,0,0,0,0,0,0,0,0,0,0,0,0,
0,0,0,0,0,0,0,0,0,0,0,0,0,0,0,0,0,0,0,0,0,0,0,0,0,0,0,0,0,0,0,0,0,0,0,0,0,0,0,0,0,0,0,0,0,0,0,0,0,
0,0,0,0,0,0,0,0,0,0,0,0,0,0,0,0,0,0,0,0,0,0,0,0,0,0,0,0,0,0,0,0,0,0,0,0,0,0,0,0,0,0,0,0,0,0,0,0,0,
0,0,0,0,0,0,0,0,0,0,0,0,0,0,0,0,0,0,0,0,0,0,0,0,0,0,0,0,0,0,0,0,0,0,0,0,0,0,0,0,0,0,0,0,0,0,0,0,0,
0,0,0,0,0,0,0,0,0,0,0,0,0,0,0,0,0,0,0,0,0,0,0,0,0,0,0,0,0,0,0,0,0,0,0,0,0,0,0,0,0,0,0,0,0,0,0,0,0,
0,0,0,0,0,0,0,0,0,0,0,0,0,0,0,0,0,0,0,0,0,0,0,0,0,0,0,0,0,0,0,0,0,0,0,0,0,0,0,0,0,0,0,0,0,0,0,0,0,
0,0,0,0,0,0,0,0,0,0,0,0,0,0,0,0,0,0,0,0,0,0,0,0,0,0,0,0,0,0,0,0,0,0,0,0,0,0,0,0,0,0,0,0,0,0,0,0,0,
0,0,0,0,0,0,0,0,0,0,0,0,0,0,0,0,0,0,0,0,0,0,0,0,0,0,0,0,0,0,0,0,0,0,0,0,0,0,0,0,0,0,0,0,0,0,0,0,0,
0,0,0,0,0,0,0,0,0,0,0,0,0,0,0,0,0,0,0,0,0,0,0,0,0,0,0,0,0,0,0,0,0,0,0,0,0,0,0,0,0,0,0,0,0,0,0,0,0,
0,0,0,0,0,0,0,0,0,0,0,0,0,0,0,0,0,0,0,0,0,0,0,0,0,0,0,0,0,0,0,0,0,0,0,0,0,0,0,0,0,0,0,0,0,0,0,0,0,
0,0,0,0,0,0,0,0,0,0,0,0,0,0,0,0,0,0,0,0,0,0,0,0,0,0,0,0,0,0,0,0,0,0,0,0,0,0,0,0,0,0,0,0,0,0,0,0,0,
0,0,0,0,0,0,0,0,0,0,0,0,0,0,0,0,0,0,0,0,0,0,0,0,0,0,0,0,0,0,0,0,0,0,0,0,0,0,0,0,0,0,0,0,0,0,0,0,0,
0,0,0,0,0,0,0,0,0,0,0,0,0,0,0,0,0,0,0,0,0,0,0,0,0,0,0,0,0,0,0,0,0,0,0,0,0,0,0,0,0,0,0,0,0,0,0,0,0,
0,0,0,0,0,0,0,0,0,0,0,0,0,0,0,0,0,0,0,0,0,0,0,0,0,0,0,0,0,0,0,0,0,0,0,0,0,0,0,0,0,0,0,0,0,0,0,0,0,
0,0,0,0,0,0,0,0,0,0,0,0,0,0,0,0,0,0,0,0,0,0,0,0,0,0,0,0,0,0,0,0,0,0,0,0,0,0,0,0,0,0,0,0,0,0,0,0,0,
0,0,0,0,0,0,0,0,0,0,0,0,0,0,0,0,0,0,0,0,0,0,0,0,0,0,0,0,0,0,0,0,0,0,0,0,0,0,0,0,0,0,0,0,0,0,0,0,0,
0,0,0,0,0,0,0,0,0,0,0,0,0,0,0,0,0,0,0,0,0,0,0,0,0,0,0,0,0,0,0,0,0,0,0,0,0,0,0,0,0,0,0,0,0,0,0,0,0,
0,0,0,0,0,0,0,0,0,0,0,0,0,0,0,0,0,0,0,0,0,0,0,0,0,0,0,0,0,0,0,0,0,0,0,0,0,0,0,0,0,0,0,0,0,0,0,0,0,
0,0,0,0,0,0,0,0,0,0,0,0,0,0,0,0,0,0,0,0,0,0,0,0,0,0,0,0,0,0,0,0,0,0,0,0,0,0,0,0,0,0,0,0,0,0,0,0,0,
0,0,0,0,0,0,0,0,0,0,0,0,0,0,0,0,0,0,0,0,0,0,0,0,0,0,0,0,0,0,0,0,0,0,0,0,0,0,0,0,0,0,0,0,0,0,0,0,0,
0,0,0,0,0,0,0,0,0,0,0,0,0,0,0,0,0,0,0,0,0,0,0,0,0,0,0,0,0,0,0,0,0,0,0,0,0,0,0,0,0,0,0,0,0,0,0,0,0,
0,0,0,0,0,0,0,0,0,0,0,0,0,0,0,0,0,0,0,0,0,0,0,0,0,0,0,0,0,0,0,0,0,0,0,0,0,0,0,0,0,0,0,0,0,0,0,0,0,
0,0,0,0,0,0,0,0,0,0,0,0,0,0,0,0,0,0,0,0,0,0,0,0,0,0,0,0,0,0,0,0,0,0,0,0,0,0,0,0,0,0,0,0,0,0,0,0,0,
0,0,0,0,0,0,0,0,0,0,0,0,0,0,0,0,0,0,0,0,0,0,0,0,0,0,0,0,0,0,0,0,0,0,0,0,0,0,0,0,0,0,0,0,0,0,0,0,0,
0,0,0,0,0,0,0,0,0,0,0,0,0,0,0,0,0,0,0,0,0,0,0,0,0,0,0,0,0,0,0,0,0,0,0,0,0,0,0,0,0,0,0,0,0,0,0,0,0,
0,0,0,0,0,0,0,0,0,0,0,0,0,0,0,0,0,0,0,0,0,0,0,0,0,0,0,0,0,0,0,0,0,0,0,0,0,0,0,0,0,0,0,0,0,0,0,0,0,
0,0,0,0,0,0,0,0,0,0,0,0,0,0,0,0,0,0,0,0,0,0,0,0,0,0,0,0,0,0,0,0,0,0,0,0,0,0,0,0,0,0,0,0,0,0,0,0,0,
0,0,0,0,0,0,0,0,0,0,0,0,0,0,0,0,0,0,0,0,0,0,0,0,0,0,0,0,0,0,0,0,0,0,0,0,0,0,0,0,0,0,0,0,0,0,0,0,0,
0,0,0,0,0,0,0,0,0,0,0,0,0,0,0,0,0,0,0,0,0,0,0,0,0,0,0,0,0,0,0,0,0,0,0,0,0,0,0,0,0,0,0,0,0,0,0,0,0,
0,0,0,0,0,0,0,0,0,0,0,0,0,0,0,0,0,0,0,0,0,0,0,0,0,0,0,0,0,0,0,0,0,0,0,0,0,0,0,0,0,0,0,0,0,0,0,0,0,
0,0,0,0,0,0,0,0,0,0,0,0,0,0,0,0,0,0,0,0,0,0,0,0,0,0,0,0,0,0,0,0,0,0,0,0,0,0,0,0,0,0,0,0,0,0,0,0,0,
0,0,0,0,0,0,0,0,0,0,0,0,0,0,0,0,0,0,0,0,0,0,0,0,0,0,0,0,0,0,0,0,0,0,0,0,0,0,0,0,0,0,0,0,0,0,0,0,0,
0,0,0,0,0,0,0,0,0,0,0,0,0,0,0,0,0,0,0,0,0,0,0,0,0,0,0,0,0,0,0,0,0,0,0,0,0,0,0,0,0,0,0,0,0,0,0,0,0,
0,0,0,0,0,0,0,0,0,0,0,0,0,0,0,0,0,0,0,0,0,0,0,0,0,0,0,0,0,0,0,0,0,0,0,0,0,0,0,0,0,0,0,0,0,0,0,0,0,
0,0,0,0,0,0,0,0,0,0,0,0,0,0,0,0,0,0,0,0,0,0,0,0,0,0,0,0,0,0,0,0,0,0,0,0,0,0,0,0,0,0,0,0,0,0,0,0,0,
0,0,0,0,0,0,0,0,0,0,0,0,0,0,0,0,0,0,0,0,0,0,0,0,0,0,0,0,0,0,0,0,0,0,0,0,0,0,0,0,0,0,0,0,0,0,0,0,0,
0,0,0,0,0,0,0,0,0,0,0,0,0,0,0,0,0,0,0,0,0,0,0,0,0,0,0,0,0,0,0,0,0,0,0,0,0,0,0,0,0,0,0,0,0,0,0,0,0,
0,0,0,0,0,0,0,0,0,0,0,0,0,0,0,0,0,0,0,0,0,0,0,0,0,0,0,0,0,0,0,0,0,0,0,0,0,0,0,0,0,0,0,0,0,0,0,0,0,
0,0,0,0,0,0,0,0,0,0,0,0,0,0,0,0,0,0,0,0,0,0,0,0,0,0,0,0,0,0,0,0,0,0,0,0,0,0,0,0,0,0,0,0,0,0,0,0,0,
0,0,0,0,0,0,0,0,0,0,0,0,0,0,0,0,0,0,0,0,0,0,0,0,0,0,0,0,0,0,0,0,0,0,0,0,0,0,0,0,0,0,0,0,0,0,0,0,0,
0,0,0,0,0,0,0,0,0,0,0,0,0,0,0,0,0,0,0,0,0,0,0,0,0,0,0,0,0,0,0,0,0,0,0,0,0,0,0,0,0,0,0,0,0,0,0,0,0,
0,0,0,0,0,0,0,0,0,0,0,0,0,0,0,0,0,0,0,0,0,0,0,0,0,0,0,0,0,0,0,0,0,0,0,0,0,0,0,0,0,0,0,0,0,0,0,0,0,
0,0,0,0,0,0,0,0,0,0,0,0,0,0,0,0,0,0,0,0,0,0,0,0,0,0,0,0,0,0,0,0,0,0,0,0,0,0,0,0,0,0,0,0,0,0,0,0,0,
0,0,0,0,0,0,0,0,0,0,0,0,0,0,0,0,0,0,0,0,0,0,0,0,0,0,0,0,0,0,0,0,0,0,0,0,0,0,0,0,0,0,0,0,0,0,0,0,0,
0,0,0,0,0,0,0,0,0,0,0,0,0,0,0,0,0,0,0,0,0,0,0,0,0,0,0,0,0,0,0,0,0,0,0,0,0,0,0,0,0,0,0,0,0,0,0,0,0,
0,0,0,0,0,0,0,0,0,0,0,0,0,0,0,0,0,0,0,0,0,0,0,0,0,0,0,0,0,0,0,0,0,0,0,0,0,0,0,0,0,0,0,0,0,0,0,0,0,
0,0,0,0,0,0,0,0,0,0,0,0,0,0,0,0,0,0,0,0,0,0,0,0,0,0,0,0,0,0,0,0,0,0,0,0,0,0,0,0,0,0,0,0,0,0,0,0,0,
0,0,0,0,0,0,0,0,0,0,0,0,0,0,0,0,0,0,0,0,0,0,0,0,0,0,0,0,0,0,0,0,0,0,0,0,0,0,0,0,0,0,0,0,0,0,0,0,0,
0,0,0,0,0,0,0,0,0,0,0,0,0,0,0,0,0,0,0,0,0,0,0,0,0,0,0,0,0,0,0,0,0,0,0,0,0,0,0,0,0,0,0,0,0,0,0,0,0,
0,0,0,0,0,0,0,0,0,0,0,0,0,0,0,0,0,0,0,0,0,0,0,0,0,0,0,0,0,0,0,0,0,0,0,0,0,0,0,0,0,0,0,0,0,0,0,0,0,
0,0,0,0,0,0,0,0,0,0,0,0,0,0,0,0,0,0,0,0,0,0,0,0,0,0,0,0,0,0,0,0,0,0,0,0,0,0,0,0,0,0,0,0,0,0,0,0,0,
0,0,0,0,0,0,0,0,0,0,0,0,0,0,0,0,0,0,0,0,0,0,0,0,0,0,0,0,0,0,0,0,0,0,0,0,0,0,0,0,0,0,0,0,0,0,0,0,0,
0,0,0,0,0,0,0,0,0,0,0,0,0,0,0,0,0,0,0,0,0,0,0,0,0,0,0,0,0,0,0,0,0,0,0,0,0,0,0,0,0,0,0,0,0,0,0,0,0,
0,0,0,0,0,0,0,0,0,0,0,0,0,0,0,0,0,0,0,0,0,0,0,0,0,0,0,0,0,0,0,0,0,0,0,0,0,0,0,0,0,0,0,0,0,0,0,0,0,
0,0,0,0,0,0,0,0,0,0,0,0,0,0,0,0,0,0,0,0,0,0,0,0,0,0,0,0,0,0,0,0,0,0,0,0,0,0,0,0,0,0,0,0,0,0,0,0,0,
0,0,0,0,0,0,0,0,0,0,0,0,0,0,0,0,0,0,0,0,0,0,0,0,0,0,0,0,0,0,0,0,0,0,0,0,0,0,0,0,0,0,0,0,0,0,0,0,0,
0,0,0,0,0,0,0,0,0,0,0,0,0,0,0,0,0,0,0,0,0,0,0,0,0,0,0,0,0,0,0,0,0,0,0,0,0,0,0,0,0,0,0,0,0,0,0,0,0,
0,0,0,0,0,0,0,0,0,0,0,0,0,0,0,0,0,0,0,0,0,0,0,0,0,0,0,0,0,0,0,0,0,0,0,0,0,0,0,0,0,0,0,0,0,0,0,0,0,
0,0,0,0,0,0,0,0,0,0,0,0,0,0,0,0,0,0,0,0,0,0,0,0,0,0,0,0,0,0,0,0,0,0,0,0,0,0,0,0,0,0,0,0,0,0,0,0,0,
0,0,0,0,0,0,0,0,0,0,0,0,0,0,0,0,0,0,0,0,0,0,0,0,0,0,0,0,0,0,0,0,0,0,0,0,0,0,0,0,0,0,0,0,0,0,0,0,0,
0,0,0,0,0,0,0,0,0,0,0,0,0,0,0,0,0,0,0,0,0,0,0,0,0,0,0,0,0,0,0,0,0,0,0,0,0,0,0,0,0,0,0,0,0,0,0,0,0,
0,0,0,0,0,0,0,0,0,0,0,0,0,0,0,0,0,0,0,0,0,0,0,0,0,0,0,0,0,0,0,0,0,0,0,0,0,0,0,0,0,0,0,0,0,0,0,0,0
</data>
 </layer>
 <layer id="10" name="Lights" width="49" height="80" visible="0" opacity="0">
  <data encoding="csv">
0,0,0,0,0,0,0,0,0,0,0,0,0,0,0,0,0,0,0,0,0,0,0,0,0,0,0,0,0,0,0,0,0,0,0,0,0,0,0,0,0,0,0,0,0,0,0,0,0,
0,0,0,0,0,0,0,0,0,0,0,0,0,0,0,0,0,0,0,0,0,0,0,0,0,0,0,0,0,0,0,0,0,0,0,0,0,0,0,0,0,0,0,0,0,0,0,0,0,
0,0,0,0,0,0,0,0,0,0,0,0,0,0,0,0,0,0,0,0,0,0,0,0,0,0,0,0,0,0,0,0,0,0,0,0,0,0,0,0,0,0,0,0,0,0,0,0,0,
0,0,0,0,0,0,0,0,0,0,0,0,0,0,0,0,0,0,0,0,0,0,0,0,0,0,0,0,0,0,0,0,0,0,0,0,0,0,0,0,0,0,0,0,0,0,0,0,0,
0,0,0,0,0,0,0,0,0,0,0,0,0,0,0,0,0,0,0,0,0,0,0,0,0,0,0,0,0,0,0,0,0,0,0,0,0,0,0,0,0,0,0,0,0,0,0,0,0,
0,0,0,0,0,0,0,0,0,0,0,0,0,0,0,0,0,0,0,0,0,0,0,0,0,0,0,0,0,0,0,0,0,0,0,0,0,0,0,0,0,0,0,0,0,0,0,0,0,
0,0,0,0,0,0,0,0,0,0,0,0,0,0,0,0,0,0,0,0,0,0,0,0,0,0,0,0,0,0,0,0,0,0,0,0,0,0,0,0,0,0,0,0,0,0,0,0,0,
0,0,0,0,0,0,0,0,0,0,0,0,0,0,0,0,0,0,0,0,0,0,0,0,0,0,0,0,0,0,0,0,0,0,0,0,0,0,0,0,0,0,0,0,0,0,0,0,0,
0,0,0,0,0,0,0,0,0,0,0,0,0,0,0,0,0,0,0,0,0,0,0,0,0,0,0,0,0,0,0,0,0,0,0,0,0,0,0,0,0,0,0,0,0,0,0,0,0,
0,0,0,0,0,0,0,0,0,0,0,0,0,0,0,0,0,0,0,0,0,0,0,0,0,0,0,0,0,0,0,0,0,0,0,0,0,0,0,0,0,0,0,0,0,0,0,0,0,
0,0,0,0,0,0,0,0,0,0,0,0,0,0,0,0,0,0,0,0,0,0,0,0,0,0,0,0,0,0,0,0,0,0,0,0,0,0,0,0,0,0,0,0,0,0,0,0,0,
0,0,0,0,0,0,0,0,0,0,0,0,0,0,0,0,0,0,0,0,0,0,0,0,0,0,0,0,0,0,0,0,0,0,0,0,0,0,0,0,0,0,0,0,0,0,0,0,0,
0,0,0,0,0,0,0,0,0,0,0,0,0,0,0,0,0,0,0,0,0,0,0,0,0,0,0,0,0,0,0,0,0,0,0,0,0,0,0,0,0,0,0,0,0,0,0,0,0,
0,0,0,0,0,0,0,0,0,0,0,0,0,0,0,0,0,0,0,0,0,0,0,0,0,0,0,0,0,0,0,0,0,0,0,0,0,0,0,0,0,0,0,0,0,0,0,0,0,
0,0,0,0,0,0,0,0,0,0,0,0,0,0,0,0,0,0,0,0,0,0,0,0,0,0,0,0,0,0,0,0,0,0,0,0,0,0,0,0,0,0,0,0,0,0,0,0,0,
0,0,0,0,0,0,0,0,0,0,0,0,0,0,0,0,0,0,0,0,0,0,0,0,0,0,0,0,0,0,0,0,0,0,0,0,0,0,0,0,0,0,0,0,0,0,0,0,0,
0,0,0,0,0,0,0,0,0,0,0,0,0,0,0,0,0,0,0,0,0,0,0,0,0,0,0,0,0,0,0,0,0,0,0,0,0,0,0,0,0,0,0,0,0,0,0,0,0,
0,0,0,0,0,0,0,0,0,0,0,0,0,0,0,0,0,0,0,0,0,0,0,0,0,0,0,0,0,0,0,0,0,0,0,0,0,0,0,0,0,0,0,0,0,0,0,0,0,
0,0,0,0,0,0,0,0,0,0,0,0,0,0,0,0,0,0,0,0,0,0,0,0,0,0,0,0,0,0,0,0,0,0,0,0,0,0,0,0,0,0,0,0,0,0,0,0,0,
0,0,0,0,0,0,0,0,0,0,0,0,0,0,0,0,0,0,0,0,0,0,0,0,0,0,0,0,0,0,0,0,0,0,0,0,0,0,0,0,0,0,0,0,0,0,0,0,0,
0,0,0,0,0,0,0,0,0,0,0,0,0,0,0,0,0,0,0,0,0,0,0,0,0,0,0,0,0,0,0,0,0,0,0,0,0,0,0,0,0,0,0,0,0,0,0,0,0,
0,0,0,0,0,0,0,0,0,0,0,0,0,0,0,0,0,0,0,0,0,0,0,0,0,0,0,0,0,0,0,0,0,0,0,0,0,0,0,0,0,0,0,0,0,0,0,0,0,
0,0,0,0,0,0,0,0,0,0,0,0,0,0,0,0,0,0,0,0,0,0,0,0,0,0,0,0,0,0,0,0,0,0,0,0,0,0,0,0,0,0,0,0,0,0,0,0,0,
0,0,0,0,0,0,0,0,0,0,0,0,0,0,0,0,0,0,0,0,0,0,0,0,0,0,0,0,0,0,0,0,0,0,0,0,0,0,0,0,0,0,0,0,0,0,0,0,0,
0,0,0,0,0,0,0,0,0,0,0,0,0,0,0,0,0,0,0,0,0,0,0,0,0,0,0,0,0,0,0,0,0,0,0,0,0,0,0,0,0,0,0,0,0,0,0,0,0,
0,0,0,0,0,0,0,0,0,0,0,0,0,0,0,0,0,0,0,0,0,0,0,0,0,0,0,0,0,0,0,0,0,0,0,0,0,0,0,0,0,0,0,0,0,0,0,0,0,
0,0,0,0,0,0,0,0,0,0,0,0,0,0,0,0,0,0,0,0,0,0,0,0,0,0,0,0,0,0,0,0,0,0,0,0,0,0,0,0,0,0,0,0,0,0,0,0,0,
0,0,0,0,0,0,0,0,0,0,0,0,0,0,0,0,0,0,0,0,0,0,0,0,0,0,0,0,0,0,0,0,0,0,0,0,0,0,0,0,0,0,0,0,0,0,0,0,0,
0,0,0,0,0,0,0,0,0,0,0,0,0,0,0,0,0,0,0,0,0,0,0,0,0,0,0,0,0,0,0,0,0,0,0,0,0,0,0,0,0,0,0,0,0,0,0,0,0,
0,0,0,0,0,0,0,0,0,0,0,0,0,0,0,0,0,0,0,0,0,0,0,0,0,0,0,0,0,0,0,0,0,0,0,0,0,0,0,0,0,0,0,0,0,0,0,0,0,
0,0,0,0,0,0,0,0,0,0,0,0,0,0,0,0,0,0,0,0,0,0,0,0,0,0,0,0,0,0,0,0,0,0,0,0,0,0,0,0,0,0,0,0,0,0,0,0,0,
0,0,0,0,0,0,0,0,0,0,0,0,0,0,0,0,0,0,0,0,0,0,0,0,0,0,0,0,0,0,0,0,0,0,0,0,0,0,0,0,0,0,0,0,0,0,0,0,0,
0,0,0,0,0,0,0,0,0,0,0,0,0,0,0,0,0,0,0,0,0,0,0,0,0,0,0,0,0,0,0,0,0,0,0,0,0,0,0,0,0,0,0,0,0,0,0,0,0,
0,0,0,0,0,0,0,0,0,0,0,0,0,0,0,0,0,0,0,0,0,0,0,0,0,0,0,0,0,0,0,0,0,0,0,0,0,0,0,0,0,0,0,0,0,0,0,0,0,
0,0,0,0,0,0,0,0,0,0,0,0,0,0,0,0,0,0,0,0,0,0,0,0,0,0,0,0,0,0,0,0,0,0,0,0,0,0,0,0,0,0,0,0,0,0,0,0,0,
0,0,0,0,0,0,0,0,0,0,0,0,0,0,0,0,0,0,0,0,0,0,0,0,0,0,0,0,0,0,0,0,0,0,0,0,0,0,0,0,0,0,0,0,0,0,0,0,0,
0,0,0,0,0,0,0,0,0,0,0,0,0,0,0,0,0,0,0,0,0,0,0,0,0,0,0,0,0,0,0,0,0,0,0,0,0,0,0,0,0,0,0,0,0,0,0,0,0,
0,0,0,0,0,0,0,0,0,0,0,0,0,0,0,0,0,0,0,0,0,0,0,0,0,0,0,0,0,0,0,0,0,0,0,0,0,0,0,0,0,0,0,0,0,0,0,0,0,
0,0,0,0,0,0,0,0,0,0,0,0,0,0,0,0,0,0,0,0,0,0,0,0,0,0,0,0,0,0,0,0,0,0,0,0,0,0,0,0,0,0,0,0,0,0,0,0,0,
0,0,0,0,0,0,0,0,0,0,0,0,0,0,0,0,0,0,0,0,0,0,0,0,0,0,0,0,0,0,0,0,0,0,0,0,0,0,0,0,0,0,0,0,0,0,0,0,0,
0,0,0,0,0,0,0,0,0,0,0,0,0,0,0,0,0,0,0,0,0,0,0,0,0,0,0,0,0,0,0,0,0,0,0,0,0,0,0,0,0,0,0,0,0,0,0,0,0,
0,0,0,0,0,0,0,0,0,0,0,0,0,0,0,0,0,0,0,0,0,0,0,0,0,0,0,0,0,0,0,0,0,0,0,0,0,0,0,0,0,0,0,0,0,0,0,0,0,
0,0,0,0,0,0,0,0,0,0,0,0,0,0,0,0,0,0,0,0,0,0,0,0,0,0,0,0,0,0,0,0,0,0,0,0,0,0,0,0,0,0,0,0,0,0,0,0,0,
0,0,0,0,0,0,0,0,0,0,0,0,0,0,0,0,0,0,0,0,0,0,0,0,0,0,0,0,0,0,0,0,0,0,0,0,0,0,0,0,0,0,0,0,0,0,0,0,0,
0,0,0,0,0,0,0,0,0,0,0,0,0,0,0,0,0,0,0,0,0,0,0,0,0,0,0,0,0,0,0,0,0,0,0,0,0,0,0,0,0,0,0,0,0,0,0,0,0,
0,0,0,0,0,0,0,0,0,0,0,0,0,0,0,0,0,0,0,0,0,0,0,0,0,0,0,0,0,0,0,0,0,0,0,0,0,0,0,0,0,0,0,0,0,0,0,0,0,
0,0,0,0,0,0,0,0,0,0,0,0,0,0,0,0,0,0,0,0,0,0,0,0,0,0,0,0,0,0,0,0,0,0,0,0,0,0,0,0,0,0,0,0,0,0,0,0,0,
0,0,0,0,0,0,0,0,0,0,0,0,0,0,0,0,0,0,0,0,0,0,0,0,0,0,0,0,0,0,0,0,0,0,0,0,0,0,0,0,0,0,0,0,0,0,0,0,0,
0,0,0,0,0,0,0,0,0,0,0,0,0,0,0,0,0,0,0,0,0,0,0,0,0,0,0,0,0,0,0,0,0,0,0,0,0,0,0,0,0,0,0,0,0,0,0,0,0,
0,0,0,0,0,0,0,0,0,0,0,0,0,0,0,0,0,0,0,0,0,0,0,0,0,0,0,0,0,0,0,0,0,0,0,0,0,0,0,0,0,0,0,0,0,0,0,0,0,
0,0,0,0,0,0,0,0,0,0,0,0,0,0,0,0,0,0,0,0,0,0,0,0,0,0,0,0,0,0,0,0,0,0,0,0,0,0,0,0,0,0,0,0,0,0,0,0,0,
0,0,0,0,0,0,0,0,0,0,0,0,0,0,0,0,0,0,0,0,0,0,0,0,0,0,0,0,0,0,0,0,0,0,0,0,0,0,0,0,0,0,0,0,0,0,0,0,0,
0,0,0,0,0,0,0,0,0,0,0,0,0,0,0,0,0,0,0,0,0,0,0,0,0,0,0,0,0,0,0,0,0,0,0,0,0,0,0,0,0,0,0,0,0,0,0,0,0,
0,0,0,0,0,0,0,0,0,0,0,0,0,0,0,0,0,0,0,0,0,0,0,0,0,0,0,0,0,0,0,0,0,0,0,0,0,0,0,0,0,0,0,0,0,0,0,0,0,
0,0,0,0,0,0,0,0,0,0,0,0,0,0,0,0,0,0,0,0,0,0,0,0,0,0,0,0,0,0,0,0,0,0,0,0,0,0,0,0,0,0,0,0,0,0,0,0,0,
0,0,0,0,0,0,0,0,0,0,0,0,0,0,0,0,0,0,0,0,0,0,0,0,0,0,0,0,0,0,0,0,0,0,0,0,0,0,0,0,0,0,0,0,0,0,0,0,0,
0,0,0,0,0,0,0,0,0,0,0,0,0,0,0,0,0,0,0,0,0,0,0,0,0,0,0,0,0,0,0,0,0,0,0,0,0,0,0,0,0,0,0,0,0,0,0,0,0,
0,0,0,0,0,0,0,0,0,0,0,0,0,0,0,0,0,0,0,0,0,0,0,0,0,0,0,0,0,0,0,0,0,0,0,0,0,0,0,0,0,0,0,0,0,0,0,0,0,
0,0,0,0,0,0,0,0,0,0,0,0,0,0,0,0,0,0,0,0,0,0,0,0,0,0,0,0,0,0,0,0,0,0,0,0,0,0,0,0,0,0,0,0,0,0,0,0,0,
0,0,0,0,0,0,0,0,0,0,0,0,0,0,0,0,0,0,0,0,0,0,0,0,0,0,0,0,0,0,0,0,0,0,0,0,0,0,0,0,0,0,0,0,0,0,0,0,0,
0,0,0,0,0,0,0,0,0,0,0,0,0,0,0,0,0,0,0,0,0,0,0,0,0,0,0,0,0,0,0,0,0,0,0,0,0,0,0,0,0,0,0,0,0,0,0,0,0,
0,0,0,0,0,0,0,0,0,0,0,0,0,0,0,0,0,0,0,0,0,0,0,0,0,0,0,0,0,0,0,0,0,0,0,0,0,0,0,0,0,0,0,0,0,0,0,0,0,
0,0,0,0,0,0,0,0,0,0,0,0,0,0,0,0,0,0,0,0,0,0,0,0,0,0,0,0,0,0,0,0,0,0,0,0,0,0,0,0,0,0,0,0,0,0,0,0,0,
0,0,0,0,0,0,0,0,0,0,0,0,0,0,0,0,0,0,0,0,0,0,0,0,0,0,0,0,0,0,0,0,0,0,0,0,0,0,0,0,0,0,0,0,0,0,0,0,0,
0,0,0,0,0,0,0,0,0,0,0,0,0,0,0,0,0,0,0,0,0,0,0,0,0,0,0,0,0,0,0,0,0,0,0,0,0,0,0,0,0,0,0,0,0,0,0,0,0,
0,0,0,0,0,0,0,0,0,0,0,0,0,0,0,0,0,0,0,0,0,0,0,0,0,0,0,0,0,0,0,0,0,0,0,0,0,0,0,0,0,0,0,0,0,0,0,0,0,
0,0,0,0,0,0,0,0,0,0,0,0,0,0,0,0,0,0,0,0,0,0,0,0,0,0,0,0,0,0,0,0,0,0,0,0,0,0,0,0,0,0,0,0,0,0,0,0,0,
0,0,0,0,0,0,0,0,0,0,0,0,0,0,0,0,0,0,0,0,0,0,0,0,0,0,0,0,0,0,0,0,0,0,0,0,0,0,0,0,0,0,0,0,0,0,0,0,0,
0,0,0,0,0,0,0,0,0,0,0,0,0,0,0,0,0,0,0,0,0,0,0,0,0,0,0,0,0,0,0,0,0,0,0,0,0,0,0,0,0,0,0,0,0,0,0,0,0,
0,0,0,0,0,0,0,0,0,0,0,0,0,0,0,0,0,0,0,0,0,0,0,0,0,0,0,0,0,0,0,0,0,0,0,0,0,0,0,0,0,0,0,0,0,0,0,0,0,
0,0,0,0,0,0,0,0,0,0,0,0,0,0,0,0,0,0,0,0,0,0,0,0,0,0,0,0,0,0,0,0,0,0,0,0,0,0,0,0,0,0,0,0,0,0,0,0,0,
0,0,0,0,0,0,0,0,0,0,0,0,0,0,0,0,0,0,0,0,0,0,0,0,0,0,0,0,0,0,0,0,0,0,0,0,0,0,0,0,0,0,0,0,0,0,0,0,0,
0,0,0,0,0,0,0,0,0,0,0,0,0,0,0,0,0,0,0,0,0,0,0,0,0,0,0,0,0,0,0,0,0,0,0,0,0,0,0,0,0,0,0,0,0,0,0,0,0,
0,0,0,0,0,0,0,0,0,0,0,0,0,0,0,0,0,0,0,0,0,0,0,0,0,0,0,0,0,0,0,0,0,0,0,0,0,0,0,0,0,0,0,0,0,0,0,0,0,
0,0,0,0,0,0,0,0,0,0,0,0,0,0,0,0,0,0,0,0,0,0,0,0,0,0,0,0,0,0,0,0,0,0,0,0,0,0,0,0,0,0,0,0,0,0,0,0,0,
0,0,0,0,0,0,0,0,0,0,0,0,0,0,0,0,0,0,0,0,0,0,0,0,0,0,0,0,0,0,0,0,0,0,0,0,0,0,0,0,0,0,0,0,0,0,0,0,0,
0,0,0,0,0,0,0,0,0,0,0,0,0,0,0,0,0,0,0,0,0,0,0,0,0,0,0,0,0,0,0,0,0,0,0,0,0,0,0,0,0,0,0,0,0,0,0,0,0,
0,0,0,0,0,0,0,0,0,0,0,0,0,0,0,0,0,0,0,0,0,0,0,0,0,0,0,0,0,0,0,0,0,0,0,0,0,0,0,0,0,0,0,0,0,0,0,0,0,
0,0,0,0,0,0,0,0,0,0,0,0,0,0,0,0,0,0,0,0,0,0,0,0,0,0,0,0,0,0,0,0,0,0,0,0,0,0,0,0,0,0,0,0,0,0,0,0,0,
0,0,0,0,0,0,0,0,0,0,0,0,0,0,0,0,0,0,0,0,0,0,0,0,0,0,0,0,0,0,0,0,0,0,0,0,0,0,0,0,0,0,0,0,0,0,0,0,0
</data>
 </layer>
 <layer id="11" name="Ending" width="49" height="80" visible="0" opacity="0">
  <data encoding="csv">
0,0,0,0,0,0,0,0,0,0,0,0,0,0,0,0,0,0,0,0,0,0,0,0,0,0,0,0,0,0,0,0,0,0,0,0,0,0,0,0,0,0,0,0,0,0,0,0,0,
0,0,0,0,0,0,0,0,0,0,0,0,0,0,0,0,0,0,0,0,0,0,0,0,0,0,0,0,0,0,0,0,0,0,0,0,0,0,0,0,0,0,0,0,0,0,0,0,0,
0,0,0,0,0,0,0,0,0,0,0,0,0,0,0,0,0,0,0,0,0,0,0,0,0,0,0,0,0,0,0,0,0,0,0,0,0,0,0,0,0,0,0,0,0,0,0,0,0,
0,0,0,0,0,0,0,0,0,0,0,0,0,0,0,0,0,0,0,0,0,0,0,0,0,0,0,0,0,0,0,0,0,0,0,0,0,0,0,0,0,0,0,0,0,0,0,0,0,
0,3869,3869,3869,3869,3869,0,0,0,0,0,0,0,0,0,0,0,0,0,0,0,0,0,0,0,0,0,0,0,0,0,0,0,0,0,0,0,0,0,0,0,0,0,0,0,0,0,0,0,
0,3869,3869,3869,3869,3869,0,0,0,0,0,0,0,0,0,0,0,0,0,0,0,0,0,0,0,0,0,0,0,0,0,0,0,0,0,0,0,0,0,0,0,0,0,0,0,0,0,0,0,
0,0,0,0,0,0,0,0,0,0,0,0,0,0,0,0,0,0,0,0,0,0,0,0,0,0,0,0,0,0,0,0,0,0,0,0,0,0,0,0,0,0,0,0,0,0,0,0,0,
0,0,0,0,0,0,0,0,0,0,0,0,0,0,0,0,0,0,0,0,0,0,0,0,0,0,0,0,0,0,0,0,0,0,0,0,0,0,0,0,0,0,0,0,0,0,0,0,0,
0,0,0,0,0,0,0,0,0,0,0,0,0,0,0,0,0,0,0,0,0,0,0,0,0,0,0,0,0,0,0,0,0,0,0,0,0,0,0,0,0,0,0,0,0,0,0,0,0,
0,0,0,0,0,0,0,0,0,0,0,0,0,0,0,0,0,0,0,0,0,0,0,0,0,0,0,0,0,0,0,0,0,0,0,0,0,0,0,0,0,0,0,0,0,0,0,0,0,
0,0,0,0,0,0,0,0,0,0,0,0,0,0,0,0,0,0,0,0,0,0,0,0,0,0,0,0,0,0,0,0,0,0,0,0,0,0,0,0,0,0,0,0,0,0,0,0,0,
0,0,0,0,0,0,0,0,0,0,0,0,0,0,0,0,0,0,0,0,0,0,0,0,0,0,0,0,0,0,0,0,0,0,0,0,0,0,0,0,0,0,0,0,0,0,0,0,0,
0,0,0,0,0,0,0,0,0,0,0,0,0,0,0,0,0,0,0,0,0,0,0,0,0,0,0,0,0,0,0,0,0,0,0,0,0,0,0,0,0,0,0,0,0,0,0,0,0,
0,0,0,0,0,0,0,0,0,0,0,0,0,0,0,0,0,0,0,0,0,0,0,0,0,0,0,0,0,0,0,0,0,0,0,0,0,0,0,0,0,0,0,0,0,0,0,0,0,
0,0,0,0,0,0,0,0,0,0,0,0,0,0,0,0,0,0,0,0,0,0,0,0,0,0,0,0,0,0,0,0,0,0,0,0,0,0,0,0,0,0,0,0,0,0,0,0,0,
0,0,0,0,0,0,0,0,0,0,0,0,0,0,0,0,0,0,0,0,0,0,0,0,0,0,0,0,0,0,0,0,0,0,0,0,0,0,0,0,0,0,0,0,0,0,0,0,0,
0,0,0,0,0,0,0,0,0,0,0,0,0,0,0,0,0,0,0,0,0,0,0,0,0,0,0,0,0,0,0,0,0,0,0,0,0,0,0,0,0,0,0,0,0,0,0,0,0,
0,0,0,0,0,0,0,0,0,0,0,0,0,0,0,0,0,0,0,0,0,0,0,0,0,0,0,0,0,0,0,0,0,0,0,0,0,0,0,0,0,0,0,0,0,0,0,0,0,
0,0,0,0,0,0,0,0,0,0,0,0,0,0,0,0,0,0,0,0,0,0,0,0,0,0,0,0,0,0,0,0,0,0,0,0,0,0,0,0,0,0,0,0,0,0,0,0,0,
0,0,0,0,0,0,0,0,0,0,0,0,0,0,0,0,0,0,0,0,0,0,0,0,0,0,0,0,0,0,0,0,0,0,0,0,0,0,0,0,0,0,0,0,0,0,0,0,0,
0,0,0,0,0,0,0,0,0,0,0,0,0,0,0,0,0,0,0,0,0,0,0,0,0,0,0,0,0,0,0,0,0,0,0,0,0,0,0,0,0,0,0,0,0,0,0,0,0,
0,0,0,0,0,0,0,0,0,0,0,0,0,0,0,0,0,0,0,0,0,0,0,0,0,0,0,0,0,0,0,0,0,0,0,0,0,0,0,0,0,0,0,0,0,0,0,0,0,
0,0,0,0,0,0,0,0,0,0,0,0,0,0,0,0,0,0,0,0,0,0,0,0,0,0,0,0,0,0,0,0,0,0,0,0,0,0,0,0,0,0,0,0,0,0,0,0,0,
0,0,0,0,0,0,0,0,0,0,0,0,0,0,0,0,0,0,0,0,0,0,0,0,0,0,0,0,0,0,0,0,0,0,0,0,0,0,0,0,0,0,0,0,0,0,0,0,0,
0,0,0,0,0,0,0,0,0,0,0,0,0,0,0,0,0,0,0,0,0,0,0,0,0,0,0,0,0,0,0,0,0,0,0,0,0,0,0,0,0,0,0,0,0,0,0,0,0,
0,0,0,0,0,0,0,0,0,0,0,0,0,0,0,0,0,0,0,0,0,0,0,0,0,0,0,0,0,0,0,0,0,0,0,0,0,0,0,0,0,0,0,0,0,0,0,0,0,
0,0,0,0,0,0,0,0,0,0,0,0,0,0,0,0,0,0,0,0,0,0,0,0,0,0,0,0,0,0,0,0,0,0,0,0,0,0,0,0,0,0,0,0,0,0,0,0,0,
0,0,0,0,0,0,0,0,0,0,0,0,0,0,0,0,0,0,0,0,0,0,0,0,0,0,0,0,0,0,0,0,0,0,0,0,0,0,0,0,0,0,0,0,0,0,0,0,0,
0,0,0,0,0,0,0,0,0,0,0,0,0,0,0,0,0,0,0,0,0,0,0,0,0,0,0,0,0,0,0,0,0,0,0,0,0,0,0,0,0,0,0,0,0,0,0,0,0,
0,0,0,0,0,0,0,0,0,0,0,0,0,0,0,0,0,0,0,0,0,0,0,0,0,0,0,0,0,0,0,0,0,0,0,0,0,0,0,0,0,0,0,0,0,0,0,0,0,
0,0,0,0,0,0,0,0,0,0,0,0,0,0,0,0,0,0,0,0,0,0,0,0,0,0,0,0,0,0,0,0,0,0,0,0,0,0,0,0,0,0,0,0,0,0,0,0,0,
0,0,0,0,0,0,0,0,0,0,0,0,0,0,0,0,0,0,0,0,0,0,0,0,0,0,0,0,0,0,0,0,0,0,0,0,0,0,0,0,0,0,0,0,0,0,0,0,0,
0,0,0,0,0,0,0,0,0,0,0,0,0,0,0,0,0,0,0,0,0,0,0,0,0,0,0,0,0,0,0,0,0,0,0,0,0,0,0,0,0,0,0,0,0,0,0,0,0,
0,0,0,0,0,0,0,0,0,0,0,0,0,0,0,0,0,0,0,0,0,0,0,0,0,0,0,0,0,0,0,0,0,0,0,0,0,0,0,0,0,0,0,0,0,0,0,0,0,
0,0,0,0,0,0,0,0,0,0,0,0,0,0,0,0,0,0,0,0,0,0,0,0,0,0,0,0,0,0,0,0,0,0,0,0,0,0,0,0,0,0,0,0,0,0,0,0,0,
0,0,0,0,0,0,0,0,0,0,0,0,0,0,0,0,0,0,0,0,0,0,0,0,0,0,0,0,0,0,0,0,0,0,0,0,0,0,0,0,0,0,0,0,0,0,0,0,0,
0,0,0,0,0,0,0,0,0,0,0,0,0,0,0,0,0,0,0,0,0,0,0,0,0,0,0,0,0,0,0,0,0,0,0,0,0,0,0,0,0,0,0,0,0,0,0,0,0,
0,0,0,0,0,0,0,0,0,0,0,0,0,0,0,0,0,0,0,0,0,0,0,0,0,0,0,0,0,0,0,0,0,0,0,0,0,0,0,0,0,0,0,0,0,0,0,0,0,
0,0,0,0,0,0,0,0,0,0,0,0,0,0,0,0,0,0,0,0,0,0,0,0,0,0,0,0,0,0,0,0,0,0,0,0,0,0,0,0,0,0,0,0,0,0,0,0,0,
0,0,0,0,0,0,0,0,0,0,0,0,0,0,0,0,0,0,0,0,0,0,0,0,0,0,0,0,0,0,0,0,0,0,0,0,0,0,0,0,0,0,0,0,0,0,0,0,0,
0,0,0,0,0,0,0,0,0,0,0,0,0,0,0,0,0,0,0,0,0,0,0,0,0,0,0,0,0,0,0,0,0,0,0,0,0,0,0,0,0,0,0,0,0,0,0,0,0,
0,0,0,0,0,0,0,0,0,0,0,0,0,0,0,0,0,0,0,0,0,0,0,0,0,0,0,0,0,0,0,0,0,0,0,0,0,0,0,0,0,0,0,0,0,0,0,0,0,
0,0,0,0,0,0,0,0,0,0,0,0,0,0,0,0,0,0,0,0,0,0,0,0,0,0,0,0,0,0,0,0,0,0,0,0,0,0,0,0,0,0,0,0,0,0,0,0,0,
0,0,0,0,0,0,0,0,0,0,0,0,0,0,0,0,0,0,0,0,0,0,0,0,0,0,0,0,0,0,0,0,0,0,0,0,0,0,0,0,0,0,0,0,0,0,0,0,0,
0,0,0,0,0,0,0,0,0,0,0,0,0,0,0,0,0,0,0,0,0,0,0,0,0,0,0,0,0,0,0,0,0,0,0,0,0,0,0,0,0,0,0,0,0,0,0,0,0,
0,0,0,0,0,0,0,0,0,0,0,0,0,0,0,0,0,0,0,0,0,0,0,0,0,0,0,0,0,0,0,0,0,0,0,0,0,0,0,0,0,0,0,0,0,0,0,0,0,
0,0,0,0,0,0,0,0,0,0,0,0,0,0,0,0,0,0,0,0,0,0,0,0,0,0,0,0,0,0,0,0,0,0,0,0,0,0,0,0,0,0,0,0,0,0,0,0,0,
0,0,0,0,0,0,0,0,0,0,0,0,0,0,0,0,0,0,0,0,0,0,0,0,0,0,0,0,0,0,0,0,0,0,0,0,0,0,0,0,0,0,0,0,0,0,0,0,0,
0,0,0,0,0,0,0,0,0,0,0,0,0,0,0,0,0,0,0,0,0,0,0,0,0,0,0,0,0,0,0,0,0,0,0,0,0,0,0,0,0,0,0,0,0,0,0,0,0,
0,0,0,0,0,0,0,0,0,0,0,0,0,0,0,0,0,0,0,0,0,0,0,0,0,0,0,0,0,0,0,0,0,0,0,0,0,0,0,0,0,0,0,0,0,0,0,0,0,
0,0,0,0,0,0,0,0,0,0,0,0,0,0,0,0,0,0,0,0,0,0,0,0,0,0,0,0,0,0,0,0,0,0,0,0,0,0,0,0,0,0,0,0,0,0,0,0,0,
0,0,0,0,0,0,0,0,0,0,0,0,0,0,0,0,0,0,0,0,0,0,0,0,0,0,0,0,0,0,0,0,0,0,0,0,0,0,0,0,0,0,0,0,0,0,0,0,0,
0,0,0,0,0,0,0,0,0,0,0,0,0,0,0,0,0,0,0,0,0,0,0,0,0,0,0,0,0,0,0,0,0,0,0,0,0,0,0,0,0,0,0,0,0,0,0,0,0,
0,0,0,0,0,0,0,0,0,0,0,0,0,0,0,0,0,0,0,0,0,0,0,0,0,0,0,0,0,0,0,0,0,0,0,0,0,0,0,0,0,0,0,0,0,0,0,0,0,
0,0,0,0,0,0,0,0,0,0,0,0,0,0,0,0,0,0,0,0,0,0,0,0,0,0,0,0,0,0,0,0,0,0,0,0,0,0,0,0,0,0,0,0,0,0,0,0,0,
0,0,0,0,0,0,0,0,0,0,0,0,0,0,0,0,0,0,0,0,0,0,0,0,0,0,0,0,0,0,0,0,0,0,0,0,0,0,0,0,0,0,0,0,0,0,0,0,0,
0,0,0,0,0,0,0,0,0,0,0,0,0,0,0,0,0,0,0,0,0,0,0,0,0,0,0,0,0,0,0,0,0,0,0,0,0,0,0,0,0,0,0,0,0,0,0,0,0,
0,0,0,0,0,0,0,0,0,0,0,0,0,0,0,0,0,0,0,0,0,0,0,0,0,0,0,0,0,0,0,0,0,0,0,0,0,0,0,0,0,0,0,0,0,0,0,0,0,
0,0,0,0,0,0,0,0,0,0,0,0,0,0,0,0,0,0,0,0,0,0,0,0,0,0,0,0,0,0,0,0,0,0,0,0,0,0,0,0,0,0,0,0,0,0,0,0,0,
0,0,0,0,0,0,0,0,0,0,0,0,0,0,0,0,0,0,0,0,0,0,0,0,0,0,0,0,0,0,0,0,0,0,0,0,0,0,0,0,0,0,0,0,0,0,0,0,0,
0,0,0,0,0,0,0,0,0,0,0,0,0,0,0,0,0,0,0,0,0,0,0,0,0,0,0,0,0,0,0,0,0,0,0,0,0,0,0,0,0,0,0,0,0,0,0,0,0,
0,0,0,0,0,0,0,0,0,0,0,0,0,0,0,0,0,0,0,0,0,0,0,0,0,0,0,0,0,0,0,0,0,0,0,0,0,0,0,0,0,0,0,0,0,0,0,0,0,
0,0,0,0,0,0,0,0,0,0,0,0,0,0,0,0,0,0,0,0,0,0,0,0,0,0,0,0,0,0,0,0,0,0,0,0,0,0,0,0,0,0,0,0,0,0,0,0,0,
0,0,0,0,0,0,0,0,0,0,0,0,0,0,0,0,0,0,0,0,0,0,0,0,0,0,0,0,0,0,0,0,0,0,0,0,0,0,0,0,0,0,0,0,0,0,0,0,0,
0,0,0,0,0,0,0,0,0,0,0,0,0,0,0,0,0,0,0,0,0,0,0,0,0,0,0,0,0,0,0,0,0,0,0,0,0,0,0,0,0,0,0,0,0,0,0,0,0,
0,0,0,0,0,0,0,0,0,0,0,0,0,0,0,0,0,0,0,0,0,0,0,0,0,0,0,0,0,0,0,0,0,0,0,0,0,0,0,0,0,0,0,0,0,0,0,0,0,
0,0,0,0,0,0,0,0,0,0,0,0,0,0,0,0,0,0,0,0,0,0,0,0,0,0,0,0,0,0,0,0,0,0,0,0,0,0,0,0,0,0,0,0,0,0,0,0,0,
0,0,0,0,0,0,0,0,0,0,0,0,0,0,0,0,0,0,0,0,0,0,0,0,0,0,0,0,0,0,0,0,0,0,0,0,0,0,0,0,0,0,0,0,0,0,0,0,0,
0,0,0,0,0,0,0,0,0,0,0,0,0,0,0,0,0,0,0,0,0,0,0,0,0,0,0,0,0,0,0,0,0,0,0,0,0,0,0,0,0,0,0,0,0,0,0,0,0,
0,0,0,0,0,0,0,0,0,0,0,0,0,0,0,0,0,0,0,0,0,0,0,0,0,0,0,0,0,0,0,0,0,0,0,0,0,0,0,0,0,0,0,0,0,0,0,0,0,
0,0,0,0,0,0,0,0,0,0,0,0,0,0,0,0,0,0,0,0,0,0,0,0,0,0,0,0,0,0,0,0,0,0,0,0,0,0,0,0,0,0,0,0,0,0,0,0,0,
0,0,0,0,0,0,0,0,0,0,0,0,0,0,0,0,0,0,0,0,0,0,0,0,0,0,0,0,0,0,0,0,0,0,0,0,0,0,0,0,0,0,0,0,0,0,0,0,0,
0,0,0,0,0,0,0,0,0,0,0,0,0,0,0,0,0,0,0,0,0,0,0,0,0,0,0,0,0,0,0,0,0,0,0,0,0,0,0,0,0,0,0,0,0,0,0,0,0,
0,0,0,0,0,0,0,0,0,0,0,0,0,0,0,0,0,0,0,0,0,0,0,0,0,0,0,0,0,0,0,0,0,0,0,0,0,0,0,0,0,0,0,0,0,0,0,0,0,
0,0,0,0,0,0,0,0,0,0,0,0,0,0,0,0,0,0,0,0,0,0,0,0,0,0,0,0,0,0,0,0,0,0,0,0,0,0,0,0,0,0,0,0,0,0,0,0,0,
0,0,0,0,0,0,0,0,0,0,0,0,0,0,0,0,0,0,0,0,0,0,0,0,0,0,0,0,0,0,0,0,0,0,0,0,0,0,0,0,0,0,0,0,0,0,0,0,0,
0,0,0,0,0,0,0,0,0,0,0,0,0,0,0,0,0,0,0,0,0,0,0,0,0,0,0,0,0,0,0,0,0,0,0,0,0,0,0,0,0,0,0,0,0,0,0,0,0,
0,0,0,0,0,0,0,0,0,0,0,0,0,0,0,0,0,0,0,0,0,0,0,0,0,0,0,0,0,0,0,0,0,0,0,0,0,0,0,0,0,0,0,0,0,0,0,0,0,
0,0,0,0,0,0,0,0,0,0,0,0,0,0,0,0,0,0,0,0,0,0,0,0,0,0,0,0,0,0,0,0,0,0,0,0,0,0,0,0,0,0,0,0,0,0,0,0,0,
0,0,0,0,0,0,0,0,0,0,0,0,0,0,0,0,0,0,0,0,0,0,0,0,0,0,0,0,0,0,0,0,0,0,0,0,0,0,0,0,0,0,0,0,0,0,0,0,0
</data>
 </layer>
 <layer id="13" name="Decos" width="49" height="80">
  <data encoding="csv">
0,0,0,0,0,0,0,0,0,0,0,0,0,0,0,0,0,0,0,0,0,0,0,0,0,0,0,0,0,0,0,0,0,0,0,0,0,0,0,0,0,0,0,0,0,0,0,0,0,
0,0,0,0,0,0,0,0,0,0,0,0,0,0,0,0,0,0,0,0,0,0,0,0,0,0,0,0,0,0,0,0,0,0,0,0,0,0,0,0,0,0,0,0,0,0,0,0,0,
0,0,0,0,0,0,0,0,0,0,0,0,0,0,0,0,0,0,0,0,0,0,0,0,0,0,0,0,0,0,0,0,0,0,0,0,0,0,0,0,0,0,0,0,0,0,0,0,0,
0,0,0,0,0,0,0,0,0,0,0,0,0,0,0,0,0,0,0,0,0,0,0,0,0,0,0,0,0,0,0,0,0,0,0,0,0,0,0,0,0,0,0,0,0,0,0,0,0,
0,0,0,0,0,0,0,0,0,0,0,0,0,0,0,0,0,0,0,0,0,0,0,0,0,0,0,0,0,0,0,0,0,0,0,0,0,0,0,0,0,0,0,0,0,0,0,0,0,
0,0,0,0,0,0,0,0,0,0,0,0,0,0,0,0,0,0,0,0,0,0,0,0,0,0,0,0,0,0,0,0,0,0,0,0,0,0,0,0,0,0,0,0,0,0,0,0,0,
0,0,0,0,0,0,0,0,0,0,0,0,0,0,0,0,0,0,0,0,0,0,0,0,0,0,0,0,0,0,0,0,0,0,0,0,0,0,0,0,0,0,0,0,0,0,0,0,0,
0,0,0,0,0,0,0,0,0,0,0,0,0,0,0,0,0,0,0,0,0,0,0,0,0,0,0,0,0,0,0,0,0,0,0,0,0,0,0,0,0,0,0,0,0,0,0,0,0,
0,0,0,0,0,0,0,0,0,0,0,0,0,0,0,0,0,0,0,0,0,0,0,0,0,0,0,0,0,0,0,0,0,0,0,0,0,0,0,0,0,0,0,0,0,0,0,0,0,
0,0,0,0,0,0,0,0,0,0,0,0,0,0,0,0,0,0,0,0,0,0,0,0,0,0,0,0,0,0,0,0,0,0,0,0,0,0,0,0,0,0,0,0,0,0,0,0,0,
0,0,0,0,0,0,0,0,0,0,0,0,0,0,0,0,0,0,0,0,0,0,0,0,0,0,0,0,0,0,0,0,0,0,0,0,0,0,0,0,0,0,0,0,0,0,0,0,0,
0,0,0,0,0,0,0,0,0,0,0,0,0,0,0,0,0,0,0,0,0,0,0,0,0,0,0,0,0,0,0,0,0,0,0,0,0,0,0,0,0,0,0,0,0,0,0,0,0,
0,0,0,0,0,0,0,0,0,0,0,0,0,0,0,0,0,0,0,0,0,0,0,0,0,0,0,0,0,0,0,0,0,0,0,0,0,0,0,0,0,0,0,0,0,0,0,0,0,
0,0,0,0,0,0,0,0,0,0,0,0,0,0,0,0,0,0,0,0,0,0,0,0,0,0,0,0,0,0,0,0,0,0,0,0,0,0,0,0,0,0,0,0,0,0,0,0,0,
0,0,0,0,0,0,0,0,0,0,0,0,0,0,0,0,0,0,0,0,0,0,0,0,0,0,0,0,0,0,0,0,0,0,0,0,0,0,0,0,0,0,0,0,0,0,0,0,0,
0,0,0,0,0,0,0,0,0,0,0,0,0,0,0,0,0,0,0,0,0,0,0,0,0,0,0,0,0,0,0,0,0,0,0,0,0,0,0,0,0,0,0,0,0,0,0,0,0,
0,0,0,0,0,0,0,0,0,0,0,0,0,0,0,0,0,0,0,0,0,0,0,0,0,0,0,0,0,0,0,0,0,0,0,0,0,0,0,0,0,0,0,0,0,0,0,0,0,
0,0,0,0,0,0,0,0,0,0,0,0,0,0,0,0,0,0,0,0,0,0,0,0,0,0,0,0,0,0,0,0,0,0,0,0,0,0,0,0,0,0,0,0,0,0,0,0,0,
0,0,0,0,0,0,0,0,0,0,0,0,0,0,0,0,0,0,0,0,0,0,0,0,0,0,0,0,0,0,0,0,0,0,0,0,0,0,0,0,0,0,0,0,0,0,0,0,0,
0,0,0,0,0,0,0,0,0,0,0,0,0,0,0,0,0,0,0,0,0,0,0,0,0,0,0,0,0,0,0,0,0,0,0,0,0,0,0,0,0,0,0,0,0,0,0,0,0,
0,0,0,0,0,0,0,0,0,0,0,0,0,0,0,0,0,0,0,0,0,0,0,0,0,0,0,0,0,0,0,0,0,0,0,0,0,0,0,0,0,0,0,0,0,0,0,0,0,
0,0,0,0,0,0,0,0,0,0,0,0,0,0,0,0,0,0,0,0,0,0,0,0,0,0,0,0,0,0,0,0,0,0,0,0,0,0,0,0,0,0,0,0,0,0,0,0,0,
0,0,0,0,0,0,0,0,0,0,0,0,0,0,0,0,0,0,0,0,0,0,0,0,0,0,0,0,0,0,0,0,0,0,0,0,0,0,0,0,0,0,0,0,0,0,0,0,0,
0,0,0,0,0,0,0,0,0,0,0,0,0,0,0,0,0,0,0,0,0,0,0,0,0,0,0,0,0,0,0,0,0,0,0,0,0,0,0,0,0,0,0,0,0,0,0,0,0,
0,0,0,0,0,0,0,0,0,0,0,0,0,0,0,0,0,0,0,0,0,0,0,0,0,0,0,0,0,0,0,0,0,0,0,0,0,0,0,0,0,0,0,0,0,0,0,0,0,
0,0,0,0,0,0,0,0,0,0,0,0,0,0,0,0,0,0,0,0,0,0,0,0,0,0,0,0,0,0,0,0,0,0,0,0,0,0,0,0,0,0,0,0,0,0,0,0,0,
0,0,0,0,0,0,0,0,0,0,0,0,0,0,0,0,0,0,0,0,0,0,0,0,0,0,0,0,0,0,0,0,0,0,0,0,0,0,0,0,0,0,0,0,0,0,0,0,0,
0,0,0,0,0,0,0,0,0,0,0,0,0,0,0,0,0,0,0,0,0,0,0,0,0,0,0,0,0,0,0,0,0,0,0,0,0,0,0,0,0,0,0,0,0,0,0,0,0,
0,0,0,0,0,0,0,0,0,0,0,0,0,0,0,0,0,0,0,0,0,0,0,0,0,0,0,0,0,0,0,0,0,0,0,0,0,0,0,0,0,0,0,0,0,0,0,0,0,
0,0,0,0,0,0,0,0,0,0,0,0,0,0,0,0,0,0,0,0,0,0,0,0,0,0,0,0,0,0,0,0,0,0,0,0,0,0,0,0,0,0,0,0,0,0,0,0,0,
0,0,0,0,0,0,0,0,0,0,0,0,0,0,0,0,0,0,0,0,0,0,0,0,0,0,0,0,0,0,0,0,0,0,0,0,0,0,0,0,0,0,0,0,0,0,0,0,0,
0,0,0,0,0,0,0,0,0,0,0,0,0,0,0,0,0,0,0,0,0,0,0,0,0,0,0,0,0,0,0,0,0,0,0,0,0,0,0,0,0,0,0,0,0,0,0,0,0,
0,0,0,0,0,0,0,0,0,0,0,0,0,0,0,0,0,0,0,0,0,0,0,0,0,0,0,0,0,0,0,0,0,0,0,0,0,0,0,0,0,0,0,0,0,0,0,0,0,
0,0,0,0,0,0,0,0,0,0,0,0,0,0,0,0,0,0,0,0,0,0,0,0,0,0,0,0,0,0,0,0,0,0,0,0,0,0,0,0,0,0,0,0,0,0,0,0,0,
0,0,0,0,0,0,0,0,0,0,0,0,0,0,0,0,0,0,0,0,0,0,0,0,0,0,0,0,0,0,0,0,0,0,0,0,0,0,0,0,0,0,0,0,0,0,0,0,0,
0,0,0,0,0,0,0,0,0,0,0,0,0,0,0,0,0,0,0,0,0,0,0,0,0,0,0,0,0,0,0,0,0,0,0,0,0,0,0,0,0,0,0,0,0,0,0,0,0,
0,0,0,0,0,0,0,0,0,0,0,0,0,0,0,0,0,0,0,0,0,0,0,0,0,0,0,0,0,0,0,0,0,0,0,0,0,0,0,0,0,0,0,0,0,0,0,0,0,
0,0,0,0,0,0,0,0,0,0,0,0,0,0,0,0,0,0,0,0,0,0,0,0,0,0,0,0,0,0,0,0,0,0,0,0,0,0,0,0,0,0,0,0,0,0,0,0,0,
0,0,0,0,0,0,0,0,0,0,0,0,0,0,0,0,0,0,0,0,0,0,0,0,0,0,0,0,0,0,0,0,0,0,0,0,0,0,0,0,0,0,0,0,0,0,0,0,0,
0,0,0,0,0,0,0,0,0,0,0,0,0,0,0,0,0,0,0,0,0,0,0,0,0,0,0,0,0,0,0,0,0,0,0,0,0,0,0,0,0,0,0,0,0,0,0,0,0,
0,0,0,0,0,0,0,0,0,0,0,0,0,0,0,0,0,0,0,0,0,0,0,0,0,0,0,0,0,0,0,0,0,0,0,0,0,0,0,0,0,0,0,0,0,0,0,0,0,
0,0,0,0,0,0,0,0,0,0,0,0,0,0,0,0,0,0,0,0,0,0,0,0,0,0,0,0,0,0,0,0,0,0,0,0,0,0,0,0,0,0,0,0,0,0,0,0,0,
0,0,0,0,0,0,0,0,0,0,0,0,0,0,0,0,0,0,0,0,0,0,0,0,0,0,0,0,0,0,0,0,0,0,0,0,0,0,0,0,0,0,0,0,0,0,0,0,0,
0,0,0,0,0,0,0,0,0,0,0,0,0,0,0,0,0,0,0,0,0,0,0,0,0,0,0,0,0,0,0,0,0,0,0,0,0,0,0,0,0,0,0,0,0,0,0,0,0,
0,0,0,0,0,0,0,0,0,0,0,0,0,0,0,0,0,0,0,0,0,0,0,0,0,0,0,0,0,0,0,0,0,0,0,0,0,0,0,0,0,0,0,0,0,0,0,0,0,
0,0,0,0,0,0,0,0,0,0,0,0,0,0,0,0,0,0,0,0,0,0,0,0,0,0,0,0,0,0,0,0,0,0,0,0,0,0,0,0,0,0,0,0,0,0,0,0,0,
0,0,0,0,0,0,0,0,0,0,0,0,0,0,0,0,0,0,0,0,0,0,0,0,0,0,0,0,0,0,0,0,0,0,0,0,0,0,0,0,0,0,0,0,0,0,0,0,0,
0,0,0,0,0,0,0,0,0,0,0,0,0,0,0,0,0,0,0,0,0,0,0,0,0,0,0,0,0,0,0,0,0,0,0,0,0,0,0,0,0,0,0,0,0,0,0,0,0,
0,0,0,0,0,0,0,0,0,0,0,0,0,0,0,0,0,0,0,0,0,0,0,0,0,0,0,0,0,0,0,0,0,0,0,0,0,0,0,0,0,0,0,0,0,0,0,0,0,
0,0,0,0,0,0,0,0,0,0,0,0,0,0,0,0,0,0,0,0,0,0,0,0,0,0,0,0,0,0,0,0,0,0,0,0,0,0,0,0,0,0,0,0,0,0,0,0,0,
0,0,0,0,0,0,0,0,0,0,0,0,0,0,0,0,0,0,0,0,0,0,0,0,0,0,0,0,0,0,0,0,0,0,0,0,0,0,0,0,0,0,0,0,0,0,0,0,0,
0,0,0,0,0,0,0,0,0,0,0,0,0,0,0,0,0,0,0,0,0,0,0,0,0,0,0,0,0,0,0,0,0,0,0,0,0,0,0,0,0,0,0,0,0,0,0,0,0,
0,0,0,0,0,0,0,0,0,0,0,0,0,0,0,0,0,0,0,0,0,0,0,0,0,0,0,0,0,0,0,0,0,0,0,0,0,0,0,0,0,0,0,0,0,0,0,0,0,
0,0,0,0,0,0,0,0,0,0,0,0,0,0,0,0,0,0,0,0,0,0,0,0,0,0,0,0,0,0,0,0,0,0,0,0,0,0,0,0,0,0,0,0,0,0,0,0,0,
0,0,0,0,0,0,0,0,0,0,0,0,0,0,0,0,0,0,0,0,0,0,0,0,0,0,0,0,0,0,0,0,0,0,0,0,0,0,0,0,0,0,0,0,0,0,0,0,0,
0,0,0,0,0,0,0,0,0,0,0,0,0,0,0,0,0,0,0,0,0,0,0,0,0,0,0,0,0,0,0,0,0,0,0,0,0,0,0,0,0,0,0,0,0,0,0,0,0,
0,0,0,0,0,0,0,0,0,0,0,0,0,0,0,0,0,0,0,0,0,0,0,0,0,0,0,0,0,0,0,0,0,0,0,0,0,0,0,0,0,0,0,0,0,0,0,0,0,
0,0,0,0,0,0,0,0,0,0,0,0,0,0,0,0,0,0,0,0,0,0,0,0,0,0,0,0,0,0,0,0,0,0,0,0,0,0,0,0,0,0,0,0,0,0,0,0,0,
0,0,0,0,0,0,0,0,0,0,0,0,0,0,0,0,0,0,0,0,0,0,0,0,0,0,0,0,0,0,0,0,0,0,0,0,0,0,0,0,0,0,0,0,0,0,0,0,0,
0,0,0,0,0,0,0,0,0,0,0,0,0,0,0,0,0,0,0,0,0,0,0,0,0,0,0,0,0,0,0,0,0,0,0,0,0,0,0,0,0,0,0,0,0,0,0,0,0,
0,0,0,0,0,0,0,0,0,0,0,0,0,0,0,0,0,0,0,0,0,0,0,0,0,0,0,0,0,0,0,0,0,0,0,0,0,0,0,0,0,0,0,0,0,0,0,0,0,
0,0,0,0,0,0,0,0,0,0,0,0,0,0,0,0,0,0,0,0,0,0,0,0,0,0,0,0,0,0,0,0,0,0,0,0,0,0,0,0,0,0,0,0,0,0,0,0,0,
0,0,0,0,0,0,0,0,0,0,0,0,0,0,0,0,0,0,0,0,0,0,0,0,0,0,0,0,0,0,0,0,0,0,0,0,0,0,0,0,0,0,0,0,0,0,0,0,0,
0,0,0,0,0,0,0,0,0,0,0,0,0,0,0,0,0,0,0,0,0,0,0,0,0,0,0,0,0,0,0,0,0,0,0,0,0,0,0,0,0,0,0,0,0,0,0,0,0,
0,0,0,0,0,0,0,0,0,0,0,0,0,0,0,0,0,0,0,0,0,0,0,0,0,0,0,0,0,0,0,0,0,0,0,0,0,0,0,0,0,0,0,0,0,0,0,0,0,
0,0,0,0,0,0,0,0,0,0,0,0,0,0,0,0,0,0,0,0,0,0,0,0,0,0,0,0,0,0,0,0,0,0,0,0,0,0,0,0,0,0,0,0,0,0,0,0,0,
0,0,0,0,0,0,0,0,0,0,0,0,0,0,0,0,0,0,0,0,0,0,0,0,0,0,0,0,0,0,0,0,0,0,0,0,0,0,0,0,0,0,0,0,0,0,0,0,0,
0,0,0,0,0,0,0,0,0,0,0,0,0,0,0,0,0,0,0,0,0,0,0,0,0,0,0,0,0,0,0,0,0,0,0,0,0,0,0,0,0,0,0,0,0,0,0,0,0,
0,0,0,0,0,0,0,0,0,0,0,0,0,0,0,0,0,0,0,0,0,0,0,0,0,0,0,0,0,0,0,0,0,0,0,0,0,0,0,0,0,0,0,0,0,0,0,0,0,
0,0,0,0,0,0,0,0,0,0,0,0,0,0,0,0,0,0,0,0,0,0,0,0,0,0,0,0,0,0,0,0,0,0,0,0,0,0,0,0,0,0,0,0,0,0,0,0,0,
0,0,0,0,0,0,0,0,0,0,0,0,0,0,0,0,0,0,0,0,0,0,0,0,0,0,0,0,0,0,0,0,0,0,0,0,0,0,0,0,0,0,0,0,0,0,0,0,0,
0,0,0,0,0,0,0,0,0,0,0,0,0,0,0,0,0,0,0,0,0,0,0,0,0,0,0,0,0,0,0,0,0,0,0,0,0,0,0,0,0,0,0,0,0,0,0,0,0,
0,0,0,0,0,0,0,0,0,0,0,0,0,0,0,0,0,0,0,0,0,0,0,0,0,0,0,0,0,0,0,0,0,0,0,0,0,0,0,0,0,0,0,0,0,0,0,0,0,
0,0,0,0,0,0,0,0,0,0,0,0,0,0,0,0,0,0,0,0,0,0,0,0,0,0,0,0,0,0,0,0,0,0,0,0,0,0,0,0,0,0,0,0,0,0,0,0,0,
0,0,0,0,0,0,0,0,0,0,0,0,0,0,0,0,0,0,0,0,0,0,0,0,0,0,0,0,0,0,0,0,0,0,0,0,0,0,0,0,0,0,0,0,0,0,0,0,0,
0,0,0,0,0,0,0,0,0,0,0,0,0,0,0,0,0,0,0,0,0,0,0,0,0,0,0,0,0,0,0,0,0,0,0,0,0,0,0,0,0,0,0,0,0,0,0,0,0,
0,0,0,0,0,0,0,0,0,0,0,0,0,0,0,0,0,0,0,0,0,0,0,0,0,0,0,0,0,0,0,0,0,0,0,0,0,0,0,0,0,0,0,0,0,0,0,0,0,
0,0,0,0,0,0,0,0,0,0,0,0,0,0,0,0,0,0,0,0,0,0,0,0,0,0,0,0,0,0,0,0,0,0,0,0,0,0,0,0,0,0,0,0,0,0,0,0,0,
0,0,0,0,0,0,0,0,0,0,0,0,0,0,0,0,0,0,0,0,0,0,0,0,0,0,0,0,0,0,0,0,0,0,0,0,0,0,0,0,0,0,0,0,0,0,0,0,0,
0,0,0,0,0,0,0,0,0,0,0,0,0,0,0,0,0,0,0,0,0,0,0,0,0,0,0,0,0,0,0,0,0,0,0,0,0,0,0,0,0,0,0,0,0,0,0,0,0
</data>
 </layer>
</map>
